%
O00001
(This Post Processor is distributed on an "AS IS" BASIS, )
(WITHOUT WARRANTIES OR CONDITIONS OF ANY KIND, either express or implied. )
N5 G21 G17 G40 G80 G90
N10 T01 M06 (2MM CRB 2FL 6.3 LOC)
N15 G54 G90 G94
N20 S12000 M03
N25 G00 G90 X0 Y.104
N30 G43 H01 Z2.5 M08
N35 G01 Z-.25 F335.28
N40 G02 X-.004 Y.103 I-.5 J11.886 F1341.12
N45 G03 Y-.103 I.004 J-.103
N50 G02 X0 Y-.104 I-.496 J-11.886
N55 X.004 Y-.103 I.5 J-11.886
N60 G03 Y.103 I-.004 J.103
N65 G02 X0 Y.104 I.496 J11.886
N70 G01 Z-.5 F335.28
N75 G03 X.004 Y.103 I.5 J11.886 F1341.12
N80 G02 Y-.103 I-.004 J-.103
N85 G03 X0 Y-.104 I.496 J-11.886
N90 X-.004 Y-.103 I-.5 J-11.886
N95 G02 Y.103 I.004 J.103
N100 G03 X0 Y.104 I-.496 J11.886
N105 G01 Z-.75 F335.28
N110 G02 X-.004 Y.103 I-.5 J11.886 F1341.12
N115 G03 Y-.103 I.004 J-.103
N120 G02 X0 Y-.104 I-.496 J-11.886
N125 X.004 Y-.103 I.5 J-11.886
N130 G03 Y.103 I-.004 J.103
N135 G02 X0 Y.104 I.496 J11.886
N140 G01 Z-1. F335.28
N145 G03 X.004 Y.103 I.5 J11.886 F1341.12
N150 G02 Y-.103 I-.004 J-.103
N155 G03 X0 Y-.104 I.496 J-11.886
N160 X-.004 Y-.103 I-.5 J-11.886
N165 G02 Y.103 I.004 J.103
N170 G03 X0 Y.104 I-.496 J11.886
N175 G01 Z-1.25 F335.28
N180 G02 X-.004 Y.103 I-.5 J11.886 F1341.12
N185 G03 Y-.103 I.004 J-.103
N190 G02 X0 Y-.104 I-.496 J-11.886
N195 X.004 Y-.103 I.5 J-11.886
N200 G03 Y.103 I-.004 J.103
N205 G02 X0 Y.104 I.496 J11.886
N210 G01 Z-1.5 F335.28
N215 G03 X.004 Y.103 I.5 J11.886 F1341.12
N220 G02 Y-.103 I-.004 J-.103
N225 G03 X0 Y-.104 I.496 J-11.886
N230 X-.004 Y-.103 I-.5 J-11.886
N235 G02 Y.103 I.004 J.103
N240 G03 X0 Y.104 I-.496 J11.886
N245 G01 Z-1.75 F335.28
N250 G02 X-.004 Y.103 I-.5 J11.886 F1341.12
N255 G03 Y-.103 I.004 J-.103
N260 G02 X0 Y-.104 I-.496 J-11.886
N265 X.004 Y-.103 I.5 J-11.886
N270 G03 Y.103 I-.004 J.103
N275 G02 X0 Y.104 I.496 J11.886
N280 G01 Z-2. F335.28
N285 G03 X.004 Y.103 I.5 J11.886 F1341.12
N290 G02 Y-.103 I-.004 J-.103
N295 G03 X0 Y-.104 I.496 J-11.886
N300 X-.004 Y-.103 I-.5 J-11.886
N305 G02 Y.103 I.004 J.103
N310 G03 X0 Y.104 I-.496 J11.886
N315 G01 Z-2.25 F335.28
N320 G02 X-.004 Y.103 I-.5 J11.886 F1341.12
N325 G03 Y-.103 I.004 J-.103
N330 G02 X0 Y-.104 I-.496 J-11.886
N335 X.004 Y-.103 I.5 J-11.886
N340 G03 Y.103 I-.004 J.103
N345 G02 X0 Y.104 I.496 J11.886
N350 G01 Z-2.5 F335.28
N355 G03 X.004 Y.103 I.5 J11.886 F1341.12
N360 G02 Y-.103 I-.004 J-.103
N365 G03 X0 Y-.104 I.496 J-11.886
N370 X-.004 Y-.103 I-.5 J-11.886
N375 G02 Y.103 I.004 J.103
N380 G03 X0 Y.104 I-.496 J11.886
N385 G00 Z2.5
N390 G90 G54 X0 Y.304
N395 G01 Z-.25 F335.28
N400 G02 X-.013 Y.303 I-.5 J11.686 F1341.12
N405 G03 Y-.303 I.013 J-.303
N410 G02 X0 Y-.304 I-.487 J-11.686
N415 X.013 Y-.303 I.5 J-11.686
N420 G03 Y.303 I-.013 J.303
N425 G02 X0 Y.304 I.487 J11.686
N430 G01 Z-.5 F335.28
N435 G03 X.013 Y.303 I.5 J11.686 F1341.12
N440 G02 Y-.303 I-.013 J-.303
N445 G03 X0 Y-.304 I.487 J-11.686
N450 X-.013 Y-.303 I-.5 J-11.686
N455 G02 Y.303 I.013 J.303
N460 G03 X0 Y.304 I-.487 J11.686
N465 G01 Z-.75 F335.28
N470 G02 X-.013 Y.303 I-.5 J11.686 F1341.12
N475 G03 Y-.303 I.013 J-.303
N480 G02 X0 Y-.304 I-.487 J-11.686
N485 X.013 Y-.303 I.5 J-11.686
N490 G03 Y.303 I-.013 J.303
N495 G02 X0 Y.304 I.487 J11.686
N500 G01 Z-1. F335.28
N505 G03 X.013 Y.303 I.5 J11.686 F1341.12
N510 G02 Y-.303 I-.013 J-.303
N515 G03 X0 Y-.304 I.487 J-11.686
N520 X-.013 Y-.303 I-.5 J-11.686
N525 G02 Y.303 I.013 J.303
N530 G03 X0 Y.304 I-.487 J11.686
N535 G01 Z-1.25 F335.28
N540 G02 X-.013 Y.303 I-.5 J11.686 F1341.12
N545 G03 Y-.303 I.013 J-.303
N550 G02 X0 Y-.304 I-.487 J-11.686
N555 X.013 Y-.303 I.5 J-11.686
N560 G03 Y.303 I-.013 J.303
N565 G02 X0 Y.304 I.487 J11.686
N570 G01 Z-1.5 F335.28
N575 G03 X.013 Y.303 I.5 J11.686 F1341.12
N580 G02 Y-.303 I-.013 J-.303
N585 G03 X0 Y-.304 I.487 J-11.686
N590 X-.013 Y-.303 I-.5 J-11.686
N595 G02 Y.303 I.013 J.303
N600 G03 X0 Y.304 I-.487 J11.686
N605 G01 Z-1.75 F335.28
N610 G02 X-.013 Y.303 I-.5 J11.686 F1341.12
N615 G03 Y-.303 I.013 J-.303
N620 G02 X0 Y-.304 I-.487 J-11.686
N625 X.013 Y-.303 I.5 J-11.686
N630 G03 Y.303 I-.013 J.303
N635 G02 X0 Y.304 I.487 J11.686
N640 G01 Z-2. F335.28
N645 G03 X.013 Y.303 I.5 J11.686 F1341.12
N650 G02 Y-.303 I-.013 J-.303
N655 G03 X0 Y-.304 I.487 J-11.686
N660 X-.013 Y-.303 I-.5 J-11.686
N665 G02 Y.303 I.013 J.303
N670 G03 X0 Y.304 I-.487 J11.686
N675 G01 Z-2.25 F335.28
N680 G02 X-.013 Y.303 I-.5 J11.686 F1341.12
N685 G03 Y-.303 I.013 J-.303
N690 G02 X0 Y-.304 I-.487 J-11.686
N695 X.013 Y-.303 I.5 J-11.686
N700 G03 Y.303 I-.013 J.303
N705 G02 X0 Y.304 I.487 J11.686
N710 G01 Z-2.5 F335.28
N715 G03 X.013 Y.303 I.5 J11.686 F1341.12
N720 G02 Y-.303 I-.013 J-.303
N725 G03 X0 Y-.304 I.487 J-11.686
N730 X-.013 Y-.303 I-.5 J-11.686
N735 G02 Y.303 I.013 J.303
N740 G03 X0 Y.304 I-.487 J11.686
N745 G00 Z2.5
N750 G90 G54 X0 Y.504
N755 G01 Z-.25 F335.28
N760 G02 X-.021 Y.503 I-.5 J11.486 F1341.12
N765 G03 Y-.503 I.021 J-.503
N770 G02 X0 Y-.504 I-.479 J-11.487
N775 X.021 Y-.503 I.5 J-11.486
N780 G03 Y.503 I-.021 J.503
N785 G02 X0 Y.504 I.479 J11.487
N790 G01 Z-.5 F335.28
N795 G03 X.021 Y.503 I.5 J11.486 F1341.12
N800 G02 Y-.503 I-.021 J-.503
N805 G03 X0 Y-.504 I.479 J-11.487
N810 X-.021 Y-.503 I-.5 J-11.486
N815 G02 Y.503 I.021 J.503
N820 G03 X0 Y.504 I-.479 J11.487
N825 G01 Z-.75 F335.28
N830 G02 X-.021 Y.503 I-.5 J11.486 F1341.12
N835 G03 Y-.503 I.021 J-.503
N840 G02 X0 Y-.504 I-.479 J-11.487
N845 X.021 Y-.503 I.5 J-11.486
N850 G03 Y.503 I-.021 J.503
N855 G02 X0 Y.504 I.479 J11.487
N860 G01 Z-1. F335.28
N865 G03 X.021 Y.503 I.5 J11.486 F1341.12
N870 G02 Y-.503 I-.021 J-.503
N875 G03 X0 Y-.504 I.479 J-11.487
N880 X-.021 Y-.503 I-.5 J-11.486
N885 G02 Y.503 I.021 J.503
N890 G03 X0 Y.504 I-.479 J11.487
N895 G01 Z-1.25 F335.28
N900 G02 X-.021 Y.503 I-.5 J11.486 F1341.12
N905 G03 Y-.503 I.021 J-.503
N910 G02 X0 Y-.504 I-.479 J-11.487
N915 X.021 Y-.503 I.5 J-11.486
N920 G03 Y.503 I-.021 J.503
N925 G02 X0 Y.504 I.479 J11.487
N930 G01 Z-1.5 F335.28
N935 G03 X.021 Y.503 I.5 J11.486 F1341.12
N940 G02 Y-.503 I-.021 J-.503
N945 G03 X0 Y-.504 I.479 J-11.487
N950 X-.021 Y-.503 I-.5 J-11.486
N955 G02 Y.503 I.021 J.503
N960 G03 X0 Y.504 I-.479 J11.487
N965 G01 Z-1.75 F335.28
N970 G02 X-.021 Y.503 I-.5 J11.486 F1341.12
N975 G03 Y-.503 I.021 J-.503
N980 G02 X0 Y-.504 I-.479 J-11.487
N985 X.021 Y-.503 I.5 J-11.486
N990 G03 Y.503 I-.021 J.503
N995 G02 X0 Y.504 I.479 J11.487
N1000 G01 Z-2. F335.28
N1005 G03 X.021 Y.503 I.5 J11.486 F1341.12
N1010 G02 Y-.503 I-.021 J-.503
N1015 G03 X0 Y-.504 I.479 J-11.487
N1020 X-.021 Y-.503 I-.5 J-11.486
N1025 G02 Y.503 I.021 J.503
N1030 G03 X0 Y.504 I-.479 J11.487
N1035 G01 Z-2.25 F335.28
N1040 G02 X-.021 Y.503 I-.5 J11.486 F1341.12
N1045 G03 Y-.503 I.021 J-.503
N1050 G02 X0 Y-.504 I-.479 J-11.487
N1055 X.021 Y-.503 I.5 J-11.486
N1060 G03 Y.503 I-.021 J.503
N1065 G02 X0 Y.504 I.479 J11.487
N1070 G01 Z-2.5 F335.28
N1075 G03 X.021 Y.503 I.5 J11.486 F1341.12
N1080 G02 Y-.503 I-.021 J-.503
N1085 G03 X0 Y-.504 I.479 J-11.487
N1090 X-.021 Y-.503 I-.5 J-11.486
N1095 G02 Y.503 I.021 J.503
N1100 G03 X0 Y.504 I-.479 J11.487
N1105 G00 Z2.5
N1110 G90 G54 X0 Y.704
N1115 G01 Z-.25 F335.28
N1120 G02 X-.029 Y.703 I-.5 J11.286 F1341.12
N1125 G03 Y-.703 I.029 J-.703
N1130 G02 X0 Y-.704 I-.471 J-11.287
N1135 X.029 Y-.703 I.5 J-11.286
N1140 G03 Y.703 I-.029 J.703
N1145 G02 X0 Y.704 I.471 J11.287
N1150 G01 Z-.5 F335.28
N1155 G03 X.029 Y.703 I.5 J11.286 F1341.12
N1160 G02 Y-.703 I-.029 J-.703
N1165 G03 X0 Y-.704 I.471 J-11.287
N1170 X-.029 Y-.703 I-.5 J-11.286
N1175 G02 Y.703 I.029 J.703
N1180 G03 X0 Y.704 I-.471 J11.287
N1185 G01 Z-.75 F335.28
N1190 G02 X-.029 Y.703 I-.5 J11.286 F1341.12
N1195 G03 Y-.703 I.029 J-.703
N1200 G02 X0 Y-.704 I-.471 J-11.287
N1205 X.029 Y-.703 I.5 J-11.286
N1210 G03 Y.703 I-.029 J.703
N1215 G02 X0 Y.704 I.471 J11.287
N1220 G01 Z-1. F335.28
N1225 G03 X.029 Y.703 I.5 J11.286 F1341.12
N1230 G02 Y-.703 I-.029 J-.703
N1235 G03 X0 Y-.704 I.471 J-11.287
N1240 X-.029 Y-.703 I-.5 J-11.286
N1245 G02 Y.703 I.029 J.703
N1250 G03 X0 Y.704 I-.471 J11.287
N1255 G01 Z-1.25 F335.28
N1260 G02 X-.029 Y.703 I-.5 J11.286 F1341.12
N1265 G03 Y-.703 I.029 J-.703
N1270 G02 X0 Y-.704 I-.471 J-11.287
N1275 X.029 Y-.703 I.5 J-11.286
N1280 G03 Y.703 I-.029 J.703
N1285 G02 X0 Y.704 I.471 J11.287
N1290 G01 Z-1.5 F335.28
N1295 G03 X.029 Y.703 I.5 J11.286 F1341.12
N1300 G02 Y-.703 I-.029 J-.703
N1305 G03 X0 Y-.704 I.471 J-11.287
N1310 X-.029 Y-.703 I-.5 J-11.286
N1315 G02 Y.703 I.029 J.703
N1320 G03 X0 Y.704 I-.471 J11.287
N1325 G01 Z-1.75 F335.28
N1330 G02 X-.029 Y.703 I-.5 J11.286 F1341.12
N1335 G03 Y-.703 I.029 J-.703
N1340 G02 X0 Y-.704 I-.471 J-11.287
N1345 X.029 Y-.703 I.5 J-11.286
N1350 G03 Y.703 I-.029 J.703
N1355 G02 X0 Y.704 I.471 J11.287
N1360 G01 Z-2. F335.28
N1365 G03 X.029 Y.703 I.5 J11.286 F1341.12
N1370 G02 Y-.703 I-.029 J-.703
N1375 G03 X0 Y-.704 I.471 J-11.287
N1380 X-.029 Y-.703 I-.5 J-11.286
N1385 G02 Y.703 I.029 J.703
N1390 G03 X0 Y.704 I-.471 J11.287
N1395 G01 Z-2.25 F335.28
N1400 G02 X-.029 Y.703 I-.5 J11.286 F1341.12
N1405 G03 Y-.703 I.029 J-.703
N1410 G02 X0 Y-.704 I-.471 J-11.287
N1415 X.029 Y-.703 I.5 J-11.286
N1420 G03 Y.703 I-.029 J.703
N1425 G02 X0 Y.704 I.471 J11.287
N1430 G01 Z-2.5 F335.28
N1435 G03 X.029 Y.703 I.5 J11.286 F1341.12
N1440 G02 Y-.703 I-.029 J-.703
N1445 G03 X0 Y-.704 I.471 J-11.287
N1450 X-.029 Y-.703 I-.5 J-11.286
N1455 G02 Y.703 I.029 J.703
N1460 G03 X0 Y.704 I-.471 J11.287
N1465 G00 Z2.5
N1470 G90 G54 X0 Y.904
N1475 G01 Z-.25 F335.28
N1480 G02 X-.038 Y.903 I-.5 J11.085 F1341.12
N1485 G03 Y-.903 I.038 J-.903
N1490 G02 X0 Y-.904 I-.462 J-11.087
N1495 X.038 Y-.903 I.5 J-11.085
N1500 G03 Y.903 I-.038 J.903
N1505 G02 X0 Y.904 I.462 J11.087
N1510 G01 Z-.5 F335.28
N1515 G03 X.038 Y.903 I.5 J11.085 F1341.12
N1520 G02 Y-.903 I-.038 J-.903
N1525 G03 X0 Y-.904 I.462 J-11.087
N1530 X-.038 Y-.903 I-.5 J-11.085
N1535 G02 Y.903 I.038 J.903
N1540 G03 X0 Y.904 I-.462 J11.087
N1545 G01 Z-.75 F335.28
N1550 G02 X-.038 Y.903 I-.5 J11.085 F1341.12
N1555 G03 Y-.903 I.038 J-.903
N1560 G02 X0 Y-.904 I-.462 J-11.087
N1565 X.038 Y-.903 I.5 J-11.085
N1570 G03 Y.903 I-.038 J.903
N1575 G02 X0 Y.904 I.462 J11.087
N1580 G01 Z-1. F335.28
N1585 G03 X.038 Y.903 I.5 J11.085 F1341.12
N1590 G02 Y-.903 I-.038 J-.903
N1595 G03 X0 Y-.904 I.462 J-11.087
N1600 X-.038 Y-.903 I-.5 J-11.085
N1605 G02 Y.903 I.038 J.903
N1610 G03 X0 Y.904 I-.462 J11.087
N1615 G01 Z-1.25 F335.28
N1620 G02 X-.038 Y.903 I-.5 J11.085 F1341.12
N1625 G03 Y-.903 I.038 J-.903
N1630 G02 X0 Y-.904 I-.462 J-11.087
N1635 X.038 Y-.903 I.5 J-11.085
N1640 G03 Y.903 I-.038 J.903
N1645 G02 X0 Y.904 I.462 J11.087
N1650 G01 Z-1.5 F335.28
N1655 G03 X.038 Y.903 I.5 J11.085 F1341.12
N1660 G02 Y-.903 I-.038 J-.903
N1665 G03 X0 Y-.904 I.462 J-11.087
N1670 X-.038 Y-.903 I-.5 J-11.085
N1675 G02 Y.903 I.038 J.903
N1680 G03 X0 Y.904 I-.462 J11.087
N1685 G01 Z-1.75 F335.28
N1690 G02 X-.038 Y.903 I-.5 J11.085 F1341.12
N1695 G03 Y-.903 I.038 J-.903
N1700 G02 X0 Y-.904 I-.462 J-11.087
N1705 X.038 Y-.903 I.5 J-11.085
N1710 G03 Y.903 I-.038 J.903
N1715 G02 X0 Y.904 I.462 J11.087
N1720 G01 Z-2. F335.28
N1725 G03 X.038 Y.903 I.5 J11.085 F1341.12
N1730 G02 Y-.903 I-.038 J-.903
N1735 G03 X0 Y-.904 I.462 J-11.087
N1740 X-.038 Y-.903 I-.5 J-11.085
N1745 G02 Y.903 I.038 J.903
N1750 G03 X0 Y.904 I-.462 J11.087
N1755 G01 Z-2.25 F335.28
N1760 G02 X-.038 Y.903 I-.5 J11.085 F1341.12
N1765 G03 Y-.903 I.038 J-.903
N1770 G02 X0 Y-.904 I-.462 J-11.087
N1775 X.038 Y-.903 I.5 J-11.085
N1780 G03 Y.903 I-.038 J.903
N1785 G02 X0 Y.904 I.462 J11.087
N1790 G01 Z-2.5 F335.28
N1795 G03 X.038 Y.903 I.5 J11.085 F1341.12
N1800 G02 Y-.903 I-.038 J-.903
N1805 G03 X0 Y-.904 I.462 J-11.087
N1810 X-.038 Y-.903 I-.5 J-11.085
N1815 G02 Y.903 I.038 J.903
N1820 G03 X0 Y.904 I-.462 J11.087
N1825 G00 Z2.5
N1830 G90 G54 X0 Y1.104
N1835 G01 Z-.25 F335.28
N1840 G02 X-.046 Y1.102 I-.5 J10.885 F1341.12
N1845 G03 Y-1.102 I.046 J-1.102
N1850 G02 X0 Y-1.104 I-.454 J-10.887
N1855 X.046 Y-1.102 I.5 J-10.885
N1860 G03 Y1.102 I-.046 J1.102
N1865 G02 X0 Y1.104 I.454 J10.887
N1870 G01 Z-.5 F335.28
N1875 G03 X.046 Y1.102 I.5 J10.885 F1341.12
N1880 G02 Y-1.102 I-.046 J-1.102
N1885 G03 X0 Y-1.104 I.454 J-10.887
N1890 X-.046 Y-1.102 I-.5 J-10.885
N1895 G02 Y1.102 I.046 J1.102
N1900 G03 X0 Y1.104 I-.454 J10.887
N1905 G01 Z-.75 F335.28
N1910 G02 X-.046 Y1.102 I-.5 J10.885 F1341.12
N1915 G03 Y-1.102 I.046 J-1.102
N1920 G02 X0 Y-1.104 I-.454 J-10.887
N1925 X.046 Y-1.102 I.5 J-10.885
N1930 G03 Y1.102 I-.046 J1.102
N1935 G02 X0 Y1.104 I.454 J10.887
N1940 G01 Z-1. F335.28
N1945 G03 X.046 Y1.102 I.5 J10.885 F1341.12
N1950 G02 Y-1.102 I-.046 J-1.102
N1955 G03 X0 Y-1.104 I.454 J-10.887
N1960 X-.046 Y-1.102 I-.5 J-10.885
N1965 G02 Y1.102 I.046 J1.102
N1970 G03 X0 Y1.104 I-.454 J10.887
N1975 G01 Z-1.25 F335.28
N1980 G02 X-.046 Y1.102 I-.5 J10.885 F1341.12
N1985 G03 Y-1.102 I.046 J-1.102
N1990 G02 X0 Y-1.104 I-.454 J-10.887
N1995 X.046 Y-1.102 I.5 J-10.885
N2000 G03 Y1.102 I-.046 J1.102
N2005 G02 X0 Y1.104 I.454 J10.887
N2010 G01 Z-1.5 F335.28
N2015 G03 X.046 Y1.102 I.5 J10.885 F1341.12
N2020 G02 Y-1.102 I-.046 J-1.102
N2025 G03 X0 Y-1.104 I.454 J-10.887
N2030 X-.046 Y-1.102 I-.5 J-10.885
N2035 G02 Y1.102 I.046 J1.102
N2040 G03 X0 Y1.104 I-.454 J10.887
N2045 G01 Z-1.75 F335.28
N2050 G02 X-.046 Y1.102 I-.5 J10.885 F1341.12
N2055 G03 Y-1.102 I.046 J-1.102
N2060 G02 X0 Y-1.104 I-.454 J-10.887
N2065 X.046 Y-1.102 I.5 J-10.885
N2070 G03 Y1.102 I-.046 J1.102
N2075 G02 X0 Y1.104 I.454 J10.887
N2080 G01 Z-2. F335.28
N2085 G03 X.046 Y1.102 I.5 J10.885 F1341.12
N2090 G02 Y-1.102 I-.046 J-1.102
N2095 G03 X0 Y-1.104 I.454 J-10.887
N2100 X-.046 Y-1.102 I-.5 J-10.885
N2105 G02 Y1.102 I.046 J1.102
N2110 G03 X0 Y1.104 I-.454 J10.887
N2115 G01 Z-2.25 F335.28
N2120 G02 X-.046 Y1.102 I-.5 J10.885 F1341.12
N2125 G03 Y-1.102 I.046 J-1.102
N2130 G02 X0 Y-1.104 I-.454 J-10.887
N2135 X.046 Y-1.102 I.5 J-10.885
N2140 G03 Y1.102 I-.046 J1.102
N2145 G02 X0 Y1.104 I.454 J10.887
N2150 G01 Z-2.5 F335.28
N2155 G03 X.046 Y1.102 I.5 J10.885 F1341.12
N2160 G02 Y-1.102 I-.046 J-1.102
N2165 G03 X0 Y-1.104 I.454 J-10.887
N2170 X-.046 Y-1.102 I-.5 J-10.885
N2175 G02 Y1.102 I.046 J1.102
N2180 G03 X0 Y1.104 I-.454 J10.887
N2185 G00 Z2.5
N2190 G90 G54 X0 Y1.304
N2195 G01 Z-.25 F335.28
N2200 G02 X-.054 Y1.302 I-.5 J10.685 F1341.12
N2205 G03 Y-1.302 I.054 J-1.302
N2210 G02 X0 Y-1.304 I-.446 J-10.688
N2215 X.054 Y-1.302 I.5 J-10.685
N2220 G03 Y1.302 I-.054 J1.302
N2225 G02 X0 Y1.304 I.446 J10.688
N2230 G01 Z-.5 F335.28
N2235 G03 X.054 Y1.302 I.5 J10.685 F1341.12
N2240 G02 Y-1.302 I-.054 J-1.302
N2245 G03 X0 Y-1.304 I.446 J-10.688
N2250 X-.054 Y-1.302 I-.5 J-10.685
N2255 G02 Y1.302 I.054 J1.302
N2260 G03 X0 Y1.304 I-.446 J10.688
N2265 G01 Z-.75 F335.28
N2270 G02 X-.054 Y1.302 I-.5 J10.685 F1341.12
N2275 G03 Y-1.302 I.054 J-1.302
N2280 G02 X0 Y-1.304 I-.446 J-10.688
N2285 X.054 Y-1.302 I.5 J-10.685
N2290 G03 Y1.302 I-.054 J1.302
N2295 G02 X0 Y1.304 I.446 J10.688
N2300 G01 Z-1. F335.28
N2305 G03 X.054 Y1.302 I.5 J10.685 F1341.12
N2310 G02 Y-1.302 I-.054 J-1.302
N2315 G03 X0 Y-1.304 I.446 J-10.688
N2320 X-.054 Y-1.302 I-.5 J-10.685
N2325 G02 Y1.302 I.054 J1.302
N2330 G03 X0 Y1.304 I-.446 J10.688
N2335 G01 Z-1.25 F335.28
N2340 G02 X-.054 Y1.302 I-.5 J10.685 F1341.12
N2345 G03 Y-1.302 I.054 J-1.302
N2350 G02 X0 Y-1.304 I-.446 J-10.688
N2355 X.054 Y-1.302 I.5 J-10.685
N2360 G03 Y1.302 I-.054 J1.302
N2365 G02 X0 Y1.304 I.446 J10.688
N2370 G01 Z-1.5 F335.28
N2375 G03 X.054 Y1.302 I.5 J10.685 F1341.12
N2380 G02 Y-1.302 I-.054 J-1.302
N2385 G03 X0 Y-1.304 I.446 J-10.688
N2390 X-.054 Y-1.302 I-.5 J-10.685
N2395 G02 Y1.302 I.054 J1.302
N2400 G03 X0 Y1.304 I-.446 J10.688
N2405 G01 Z-1.75 F335.28
N2410 G02 X-.054 Y1.302 I-.5 J10.685 F1341.12
N2415 G03 Y-1.302 I.054 J-1.302
N2420 G02 X0 Y-1.304 I-.446 J-10.688
N2425 X.054 Y-1.302 I.5 J-10.685
N2430 G03 Y1.302 I-.054 J1.302
N2435 G02 X0 Y1.304 I.446 J10.688
N2440 G01 Z-2. F335.28
N2445 G03 X.054 Y1.302 I.5 J10.685 F1341.12
N2450 G02 Y-1.302 I-.054 J-1.302
N2455 G03 X0 Y-1.304 I.446 J-10.688
N2460 X-.054 Y-1.302 I-.5 J-10.685
N2465 G02 Y1.302 I.054 J1.302
N2470 G03 X0 Y1.304 I-.446 J10.688
N2475 G01 Z-2.25 F335.28
N2480 G02 X-.054 Y1.302 I-.5 J10.685 F1341.12
N2485 G03 Y-1.302 I.054 J-1.302
N2490 G02 X0 Y-1.304 I-.446 J-10.688
N2495 X.054 Y-1.302 I.5 J-10.685
N2500 G03 Y1.302 I-.054 J1.302
N2505 G02 X0 Y1.304 I.446 J10.688
N2510 G01 Z-2.5 F335.28
N2515 G03 X.054 Y1.302 I.5 J10.685 F1341.12
N2520 G02 Y-1.302 I-.054 J-1.302
N2525 G03 X0 Y-1.304 I.446 J-10.688
N2530 X-.054 Y-1.302 I-.5 J-10.685
N2535 G02 Y1.302 I.054 J1.302
N2540 G03 X0 Y1.304 I-.446 J10.688
N2545 G00 Z2.5
N2550 G90 G54 X0 Y1.505
N2555 G01 Z-.25 F335.28
N2560 G02 X-.063 Y1.502 I-.5 J10.485 F1341.12
N2565 G03 Y-1.502 I.063 J-1.502
N2570 G02 X0 Y-1.505 I-.437 J-10.488
N2575 X.063 Y-1.502 I.5 J-10.485
N2580 G03 Y1.502 I-.063 J1.502
N2585 G02 X0 Y1.505 I.437 J10.488
N2590 G01 Z-.5 F335.28
N2595 G03 X.063 Y1.502 I.5 J10.485 F1341.12
N2600 G02 Y-1.502 I-.063 J-1.502
N2605 G03 X0 Y-1.505 I.437 J-10.488
N2610 X-.063 Y-1.502 I-.5 J-10.485
N2615 G02 Y1.502 I.063 J1.502
N2620 G03 X0 Y1.505 I-.437 J10.488
N2625 G01 Z-.75 F335.28
N2630 G02 X-.063 Y1.502 I-.5 J10.485 F1341.12
N2635 G03 Y-1.502 I.063 J-1.502
N2640 G02 X0 Y-1.505 I-.437 J-10.488
N2645 X.063 Y-1.502 I.5 J-10.485
N2650 G03 Y1.502 I-.063 J1.502
N2655 G02 X0 Y1.505 I.437 J10.488
N2660 G01 Z-1. F335.28
N2665 G03 X.063 Y1.502 I.5 J10.485 F1341.12
N2670 G02 Y-1.502 I-.063 J-1.502
N2675 G03 X0 Y-1.505 I.437 J-10.488
N2680 X-.063 Y-1.502 I-.5 J-10.485
N2685 G02 Y1.502 I.063 J1.502
N2690 G03 X0 Y1.505 I-.437 J10.488
N2695 G01 Z-1.25 F335.28
N2700 G02 X-.063 Y1.502 I-.5 J10.485 F1341.12
N2705 G03 Y-1.502 I.063 J-1.502
N2710 G02 X0 Y-1.505 I-.437 J-10.488
N2715 X.063 Y-1.502 I.5 J-10.485
N2720 G03 Y1.502 I-.063 J1.502
N2725 G02 X0 Y1.505 I.437 J10.488
N2730 G01 Z-1.5 F335.28
N2735 G03 X.063 Y1.502 I.5 J10.485 F1341.12
N2740 G02 Y-1.502 I-.063 J-1.502
N2745 G03 X0 Y-1.505 I.437 J-10.488
N2750 X-.063 Y-1.502 I-.5 J-10.485
N2755 G02 Y1.502 I.063 J1.502
N2760 G03 X0 Y1.505 I-.437 J10.488
N2765 G01 Z-1.75 F335.28
N2770 G02 X-.063 Y1.502 I-.5 J10.485 F1341.12
N2775 G03 Y-1.502 I.063 J-1.502
N2780 G02 X0 Y-1.505 I-.437 J-10.488
N2785 X.063 Y-1.502 I.5 J-10.485
N2790 G03 Y1.502 I-.063 J1.502
N2795 G02 X0 Y1.505 I.437 J10.488
N2800 G01 Z-2. F335.28
N2805 G03 X.063 Y1.502 I.5 J10.485 F1341.12
N2810 G02 Y-1.502 I-.063 J-1.502
N2815 G03 X0 Y-1.505 I.437 J-10.488
N2820 X-.063 Y-1.502 I-.5 J-10.485
N2825 G02 Y1.502 I.063 J1.502
N2830 G03 X0 Y1.505 I-.437 J10.488
N2835 G01 Z-2.25 F335.28
N2840 G02 X-.063 Y1.502 I-.5 J10.485 F1341.12
N2845 G03 Y-1.502 I.063 J-1.502
N2850 G02 X0 Y-1.505 I-.437 J-10.488
N2855 X.063 Y-1.502 I.5 J-10.485
N2860 G03 Y1.502 I-.063 J1.502
N2865 G02 X0 Y1.505 I.437 J10.488
N2870 G01 Z-2.5 F335.28
N2875 G03 X.063 Y1.502 I.5 J10.485 F1341.12
N2880 G02 Y-1.502 I-.063 J-1.502
N2885 G03 X0 Y-1.505 I.437 J-10.488
N2890 X-.063 Y-1.502 I-.5 J-10.485
N2895 G02 Y1.502 I.063 J1.502
N2900 G03 X0 Y1.505 I-.437 J10.488
N2905 G00 Z2.5
N2910 G90 G54 X0 Y1.705
N2915 G01 Z-.25 F335.28
N2920 G02 X-.071 Y1.702 I-.5 J10.285 F1341.12
N2925 G03 Y-1.702 I.071 J-1.702
N2930 G02 X0 Y-1.705 I-.429 J-10.288
N2935 X.071 Y-1.702 I.5 J-10.285
N2940 G03 Y1.702 I-.071 J1.702
N2945 G02 X0 Y1.705 I.429 J10.288
N2950 G01 Z-.5 F335.28
N2955 G03 X.071 Y1.702 I.5 J10.285 F1341.12
N2960 G02 Y-1.702 I-.071 J-1.702
N2965 G03 X0 Y-1.705 I.429 J-10.288
N2970 X-.071 Y-1.702 I-.5 J-10.285
N2975 G02 Y1.702 I.071 J1.702
N2980 G03 X0 Y1.705 I-.429 J10.288
N2985 G01 Z-.75 F335.28
N2990 G02 X-.071 Y1.702 I-.5 J10.285 F1341.12
N2995 G03 Y-1.702 I.071 J-1.702
N3000 G02 X0 Y-1.705 I-.429 J-10.288
N3005 X.071 Y-1.702 I.5 J-10.285
N3010 G03 Y1.702 I-.071 J1.702
N3015 G02 X0 Y1.705 I.429 J10.288
N3020 G01 Z-1. F335.28
N3025 G03 X.071 Y1.702 I.5 J10.285 F1341.12
N3030 G02 Y-1.702 I-.071 J-1.702
N3035 G03 X0 Y-1.705 I.429 J-10.288
N3040 X-.071 Y-1.702 I-.5 J-10.285
N3045 G02 Y1.702 I.071 J1.702
N3050 G03 X0 Y1.705 I-.429 J10.288
N3055 G01 Z-1.25 F335.28
N3060 G02 X-.071 Y1.702 I-.5 J10.285 F1341.12
N3065 G03 Y-1.702 I.071 J-1.702
N3070 G02 X0 Y-1.705 I-.429 J-10.288
N3075 X.071 Y-1.702 I.5 J-10.285
N3080 G03 Y1.702 I-.071 J1.702
N3085 G02 X0 Y1.705 I.429 J10.288
N3090 G01 Z-1.5 F335.28
N3095 G03 X.071 Y1.702 I.5 J10.285 F1341.12
N3100 G02 Y-1.702 I-.071 J-1.702
N3105 G03 X0 Y-1.705 I.429 J-10.288
N3110 X-.071 Y-1.702 I-.5 J-10.285
N3115 G02 Y1.702 I.071 J1.702
N3120 G03 X0 Y1.705 I-.429 J10.288
N3125 G01 Z-1.75 F335.28
N3130 G02 X-.071 Y1.702 I-.5 J10.285 F1341.12
N3135 G03 Y-1.702 I.071 J-1.702
N3140 G02 X0 Y-1.705 I-.429 J-10.288
N3145 X.071 Y-1.702 I.5 J-10.285
N3150 G03 Y1.702 I-.071 J1.702
N3155 G02 X0 Y1.705 I.429 J10.288
N3160 G01 Z-2. F335.28
N3165 G03 X.071 Y1.702 I.5 J10.285 F1341.12
N3170 G02 Y-1.702 I-.071 J-1.702
N3175 G03 X0 Y-1.705 I.429 J-10.288
N3180 X-.071 Y-1.702 I-.5 J-10.285
N3185 G02 Y1.702 I.071 J1.702
N3190 G03 X0 Y1.705 I-.429 J10.288
N3195 G01 Z-2.25 F335.28
N3200 G02 X-.071 Y1.702 I-.5 J10.285 F1341.12
N3205 G03 Y-1.702 I.071 J-1.702
N3210 G02 X0 Y-1.705 I-.429 J-10.288
N3215 X.071 Y-1.702 I.5 J-10.285
N3220 G03 Y1.702 I-.071 J1.702
N3225 G02 X0 Y1.705 I.429 J10.288
N3230 G01 Z-2.5 F335.28
N3235 G03 X.071 Y1.702 I.5 J10.285 F1341.12
N3240 G02 Y-1.702 I-.071 J-1.702
N3245 G03 X0 Y-1.705 I.429 J-10.288
N3250 X-.071 Y-1.702 I-.5 J-10.285
N3255 G02 Y1.702 I.071 J1.702
N3260 G03 X0 Y1.705 I-.429 J10.288
N3265 G00 Z2.5
N3270 G90 G54 X0 Y1.905
N3275 G01 Z-.25 F335.28
N3280 G02 X-.079 Y1.901 I-.5 J10.085 F1341.12
N3285 G03 Y-1.901 I.079 J-1.901
N3290 G02 X0 Y-1.905 I-.421 J-10.088
N3295 X.079 Y-1.901 I.5 J-10.085
N3300 G03 Y1.901 I-.079 J1.901
N3305 G02 X0 Y1.905 I.421 J10.088
N3310 G01 Z-.5 F335.28
N3315 G03 X.079 Y1.901 I.5 J10.085 F1341.12
N3320 G02 Y-1.901 I-.079 J-1.901
N3325 G03 X0 Y-1.905 I.421 J-10.088
N3330 X-.079 Y-1.901 I-.5 J-10.085
N3335 G02 Y1.901 I.079 J1.901
N3340 G03 X0 Y1.905 I-.421 J10.088
N3345 G01 Z-.75 F335.28
N3350 G02 X-.079 Y1.901 I-.5 J10.085 F1341.12
N3355 G03 Y-1.901 I.079 J-1.901
N3360 G02 X0 Y-1.905 I-.421 J-10.088
N3365 X.079 Y-1.901 I.5 J-10.085
N3370 G03 Y1.901 I-.079 J1.901
N3375 G02 X0 Y1.905 I.421 J10.088
N3380 G01 Z-1. F335.28
N3385 G03 X.079 Y1.901 I.5 J10.085 F1341.12
N3390 G02 Y-1.901 I-.079 J-1.901
N3395 G03 X0 Y-1.905 I.421 J-10.088
N3400 X-.079 Y-1.901 I-.5 J-10.085
N3405 G02 Y1.901 I.079 J1.901
N3410 G03 X0 Y1.905 I-.421 J10.088
N3415 G01 Z-1.25 F335.28
N3420 G02 X-.079 Y1.901 I-.5 J10.085 F1341.12
N3425 G03 Y-1.901 I.079 J-1.901
N3430 G02 X0 Y-1.905 I-.421 J-10.088
N3435 X.079 Y-1.901 I.5 J-10.085
N3440 G03 Y1.901 I-.079 J1.901
N3445 G02 X0 Y1.905 I.421 J10.088
N3450 G01 Z-1.5 F335.28
N3455 G03 X.079 Y1.901 I.5 J10.085 F1341.12
N3460 G02 Y-1.901 I-.079 J-1.901
N3465 G03 X0 Y-1.905 I.421 J-10.088
N3470 X-.079 Y-1.901 I-.5 J-10.085
N3475 G02 Y1.901 I.079 J1.901
N3480 G03 X0 Y1.905 I-.421 J10.088
N3485 G01 Z-1.75 F335.28
N3490 G02 X-.079 Y1.901 I-.5 J10.085 F1341.12
N3495 G03 Y-1.901 I.079 J-1.901
N3500 G02 X0 Y-1.905 I-.421 J-10.088
N3505 X.079 Y-1.901 I.5 J-10.085
N3510 G03 Y1.901 I-.079 J1.901
N3515 G02 X0 Y1.905 I.421 J10.088
N3520 G01 Z-2. F335.28
N3525 G03 X.079 Y1.901 I.5 J10.085 F1341.12
N3530 G02 Y-1.901 I-.079 J-1.901
N3535 G03 X0 Y-1.905 I.421 J-10.088
N3540 X-.079 Y-1.901 I-.5 J-10.085
N3545 G02 Y1.901 I.079 J1.901
N3550 G03 X0 Y1.905 I-.421 J10.088
N3555 G01 Z-2.25 F335.28
N3560 G02 X-.079 Y1.901 I-.5 J10.085 F1341.12
N3565 G03 Y-1.901 I.079 J-1.901
N3570 G02 X0 Y-1.905 I-.421 J-10.088
N3575 X.079 Y-1.901 I.5 J-10.085
N3580 G03 Y1.901 I-.079 J1.901
N3585 G02 X0 Y1.905 I.421 J10.088
N3590 G01 Z-2.5 F335.28
N3595 G03 X.079 Y1.901 I.5 J10.085 F1341.12
N3600 G02 Y-1.901 I-.079 J-1.901
N3605 G03 X0 Y-1.905 I.421 J-10.088
N3610 X-.079 Y-1.901 I-.5 J-10.085
N3615 G02 Y1.901 I.079 J1.901
N3620 G03 X0 Y1.905 I-.421 J10.088
N3625 G00 Z2.5
N3630 G90 G54 X0 Y2.105
N3635 G01 Z-.25 F335.28
N3640 G02 X-.088 Y2.101 I-.5 J9.884 F1341.12
N3645 G03 Y-2.101 I.088 J-2.101
N3650 G02 X0 Y-2.105 I-.412 J-9.888
N3655 X.088 Y-2.101 I.5 J-9.884
N3660 G03 Y2.101 I-.088 J2.101
N3665 G02 X0 Y2.105 I.412 J9.888
N3670 G01 Z-.5 F335.28
N3675 G03 X.088 Y2.101 I.5 J9.884 F1341.12
N3680 G02 Y-2.101 I-.088 J-2.101
N3685 G03 X0 Y-2.105 I.412 J-9.888
N3690 X-.088 Y-2.101 I-.5 J-9.884
N3695 G02 Y2.101 I.088 J2.101
N3700 G03 X0 Y2.105 I-.412 J9.888
N3705 G01 Z-.75 F335.28
N3710 G02 X-.088 Y2.101 I-.5 J9.884 F1341.12
N3715 G03 Y-2.101 I.088 J-2.101
N3720 G02 X0 Y-2.105 I-.412 J-9.888
N3725 X.088 Y-2.101 I.5 J-9.884
N3730 G03 Y2.101 I-.088 J2.101
N3735 G02 X0 Y2.105 I.412 J9.888
N3740 G01 Z-1. F335.28
N3745 G03 X.088 Y2.101 I.5 J9.884 F1341.12
N3750 G02 Y-2.101 I-.088 J-2.101
N3755 G03 X0 Y-2.105 I.412 J-9.888
N3760 X-.088 Y-2.101 I-.5 J-9.884
N3765 G02 Y2.101 I.088 J2.101
N3770 G03 X0 Y2.105 I-.412 J9.888
N3775 G01 Z-1.25 F335.28
N3780 G02 X-.088 Y2.101 I-.5 J9.884 F1341.12
N3785 G03 Y-2.101 I.088 J-2.101
N3790 G02 X0 Y-2.105 I-.412 J-9.888
N3795 X.088 Y-2.101 I.5 J-9.884
N3800 G03 Y2.101 I-.088 J2.101
N3805 G02 X0 Y2.105 I.412 J9.888
N3810 G01 Z-1.5 F335.28
N3815 G03 X.088 Y2.101 I.5 J9.884 F1341.12
N3820 G02 Y-2.101 I-.088 J-2.101
N3825 G03 X0 Y-2.105 I.412 J-9.888
N3830 X-.088 Y-2.101 I-.5 J-9.884
N3835 G02 Y2.101 I.088 J2.101
N3840 G03 X0 Y2.105 I-.412 J9.888
N3845 G01 Z-1.75 F335.28
N3850 G02 X-.088 Y2.101 I-.5 J9.884 F1341.12
N3855 G03 Y-2.101 I.088 J-2.101
N3860 G02 X0 Y-2.105 I-.412 J-9.888
N3865 X.088 Y-2.101 I.5 J-9.884
N3870 G03 Y2.101 I-.088 J2.101
N3875 G02 X0 Y2.105 I.412 J9.888
N3880 G01 Z-2. F335.28
N3885 G03 X.088 Y2.101 I.5 J9.884 F1341.12
N3890 G02 Y-2.101 I-.088 J-2.101
N3895 G03 X0 Y-2.105 I.412 J-9.888
N3900 X-.088 Y-2.101 I-.5 J-9.884
N3905 G02 Y2.101 I.088 J2.101
N3910 G03 X0 Y2.105 I-.412 J9.888
N3915 G01 Z-2.25 F335.28
N3920 G02 X-.088 Y2.101 I-.5 J9.884 F1341.12
N3925 G03 Y-2.101 I.088 J-2.101
N3930 G02 X0 Y-2.105 I-.412 J-9.888
N3935 X.088 Y-2.101 I.5 J-9.884
N3940 G03 Y2.101 I-.088 J2.101
N3945 G02 X0 Y2.105 I.412 J9.888
N3950 G01 Z-2.5 F335.28
N3955 G03 X.088 Y2.101 I.5 J9.884 F1341.12
N3960 G02 Y-2.101 I-.088 J-2.101
N3965 G03 X0 Y-2.105 I.412 J-9.888
N3970 X-.088 Y-2.101 I-.5 J-9.884
N3975 G02 Y2.101 I.088 J2.101
N3980 G03 X0 Y2.105 I-.412 J9.888
N3985 G00 Z2.5
N3990 G90 G54 X0 Y2.305
N3995 G01 Z-.25 F335.28
N4000 G02 X-.096 Y2.301 I-.5 J9.684 F1341.12
N4005 G03 Y-2.301 I.096 J-2.301
N4010 G02 X0 Y-2.305 I-.404 J-9.689
N4015 X.096 Y-2.301 I.5 J-9.684
N4020 G03 Y2.301 I-.096 J2.301
N4025 G02 X0 Y2.305 I.404 J9.689
N4030 G01 Z-.5 F335.28
N4035 G03 X.096 Y2.301 I.5 J9.684 F1341.12
N4040 G02 Y-2.301 I-.096 J-2.301
N4045 G03 X0 Y-2.305 I.404 J-9.689
N4050 X-.096 Y-2.301 I-.5 J-9.684
N4055 G02 Y2.301 I.096 J2.301
N4060 G03 X0 Y2.305 I-.404 J9.689
N4065 G01 Z-.75 F335.28
N4070 G02 X-.096 Y2.301 I-.5 J9.684 F1341.12
N4075 G03 Y-2.301 I.096 J-2.301
N4080 G02 X0 Y-2.305 I-.404 J-9.689
N4085 X.096 Y-2.301 I.5 J-9.684
N4090 G03 Y2.301 I-.096 J2.301
N4095 G02 X0 Y2.305 I.404 J9.689
N4100 G01 Z-1. F335.28
N4105 G03 X.096 Y2.301 I.5 J9.684 F1341.12
N4110 G02 Y-2.301 I-.096 J-2.301
N4115 G03 X0 Y-2.305 I.404 J-9.689
N4120 X-.096 Y-2.301 I-.5 J-9.684
N4125 G02 Y2.301 I.096 J2.301
N4130 G03 X0 Y2.305 I-.404 J9.689
N4135 G01 Z-1.25 F335.28
N4140 G02 X-.096 Y2.301 I-.5 J9.684 F1341.12
N4145 G03 Y-2.301 I.096 J-2.301
N4150 G02 X0 Y-2.305 I-.404 J-9.689
N4155 X.096 Y-2.301 I.5 J-9.684
N4160 G03 Y2.301 I-.096 J2.301
N4165 G02 X0 Y2.305 I.404 J9.689
N4170 G01 Z-1.5 F335.28
N4175 G03 X.096 Y2.301 I.5 J9.684 F1341.12
N4180 G02 Y-2.301 I-.096 J-2.301
N4185 G03 X0 Y-2.305 I.404 J-9.689
N4190 X-.096 Y-2.301 I-.5 J-9.684
N4195 G02 Y2.301 I.096 J2.301
N4200 G03 X0 Y2.305 I-.404 J9.689
N4205 G01 Z-1.75 F335.28
N4210 G02 X-.096 Y2.301 I-.5 J9.684 F1341.12
N4215 G03 Y-2.301 I.096 J-2.301
N4220 G02 X0 Y-2.305 I-.404 J-9.689
N4225 X.096 Y-2.301 I.5 J-9.684
N4230 G03 Y2.301 I-.096 J2.301
N4235 G02 X0 Y2.305 I.404 J9.689
N4240 G01 Z-2. F335.28
N4245 G03 X.096 Y2.301 I.5 J9.684 F1341.12
N4250 G02 Y-2.301 I-.096 J-2.301
N4255 G03 X0 Y-2.305 I.404 J-9.689
N4260 X-.096 Y-2.301 I-.5 J-9.684
N4265 G02 Y2.301 I.096 J2.301
N4270 G03 X0 Y2.305 I-.404 J9.689
N4275 G01 Z-2.25 F335.28
N4280 G02 X-.096 Y2.301 I-.5 J9.684 F1341.12
N4285 G03 Y-2.301 I.096 J-2.301
N4290 G02 X0 Y-2.305 I-.404 J-9.689
N4295 X.096 Y-2.301 I.5 J-9.684
N4300 G03 Y2.301 I-.096 J2.301
N4305 G02 X0 Y2.305 I.404 J9.689
N4310 G01 Z-2.5 F335.28
N4315 G03 X.096 Y2.301 I.5 J9.684 F1341.12
N4320 G02 Y-2.301 I-.096 J-2.301
N4325 G03 X0 Y-2.305 I.404 J-9.689
N4330 X-.096 Y-2.301 I-.5 J-9.684
N4335 G02 Y2.301 I.096 J2.301
N4340 G03 X0 Y2.305 I-.404 J9.689
N4345 G00 Z2.5
N4350 G90 G54 X0 Y2.506
N4355 G01 Z-.25 F335.28
N4360 G02 X-.104 Y2.501 I-.5 J9.484 F1341.12
N4365 G03 Y-2.501 I.104 J-2.501
N4370 G02 X0 Y-2.506 I-.396 J-9.489
N4375 X.104 Y-2.501 I.5 J-9.484
N4380 G03 Y2.501 I-.104 J2.501
N4385 G02 X0 Y2.506 I.396 J9.489
N4390 G01 Z-.5 F335.28
N4395 G03 X.104 Y2.501 I.5 J9.484 F1341.12
N4400 G02 Y-2.501 I-.104 J-2.501
N4405 G03 X0 Y-2.506 I.396 J-9.489
N4410 X-.104 Y-2.501 I-.5 J-9.484
N4415 G02 Y2.501 I.104 J2.501
N4420 G03 X0 Y2.506 I-.396 J9.489
N4425 G01 Z-.75 F335.28
N4430 G02 X-.104 Y2.501 I-.5 J9.484 F1341.12
N4435 G03 Y-2.501 I.104 J-2.501
N4440 G02 X0 Y-2.506 I-.396 J-9.489
N4445 X.104 Y-2.501 I.5 J-9.484
N4450 G03 Y2.501 I-.104 J2.501
N4455 G02 X0 Y2.506 I.396 J9.489
N4460 G01 Z-1. F335.28
N4465 G03 X.104 Y2.501 I.5 J9.484 F1341.12
N4470 G02 Y-2.501 I-.104 J-2.501
N4475 G03 X0 Y-2.506 I.396 J-9.489
N4480 X-.104 Y-2.501 I-.5 J-9.484
N4485 G02 Y2.501 I.104 J2.501
N4490 G03 X0 Y2.506 I-.396 J9.489
N4495 G01 Z-1.25 F335.28
N4500 G02 X-.104 Y2.501 I-.5 J9.484 F1341.12
N4505 G03 Y-2.501 I.104 J-2.501
N4510 G02 X0 Y-2.506 I-.396 J-9.489
N4515 X.104 Y-2.501 I.5 J-9.484
N4520 G03 Y2.501 I-.104 J2.501
N4525 G02 X0 Y2.506 I.396 J9.489
N4530 G01 Z-1.5 F335.28
N4535 G03 X.104 Y2.501 I.5 J9.484 F1341.12
N4540 G02 Y-2.501 I-.104 J-2.501
N4545 G03 X0 Y-2.506 I.396 J-9.489
N4550 X-.104 Y-2.501 I-.5 J-9.484
N4555 G02 Y2.501 I.104 J2.501
N4560 G03 X0 Y2.506 I-.396 J9.489
N4565 G01 Z-1.75 F335.28
N4570 G02 X-.104 Y2.501 I-.5 J9.484 F1341.12
N4575 G03 Y-2.501 I.104 J-2.501
N4580 G02 X0 Y-2.506 I-.396 J-9.489
N4585 X.104 Y-2.501 I.5 J-9.484
N4590 G03 Y2.501 I-.104 J2.501
N4595 G02 X0 Y2.506 I.396 J9.489
N4600 G01 Z-2. F335.28
N4605 G03 X.104 Y2.501 I.5 J9.484 F1341.12
N4610 G02 Y-2.501 I-.104 J-2.501
N4615 G03 X0 Y-2.506 I.396 J-9.489
N4620 X-.104 Y-2.501 I-.5 J-9.484
N4625 G02 Y2.501 I.104 J2.501
N4630 G03 X0 Y2.506 I-.396 J9.489
N4635 G01 Z-2.25 F335.28
N4640 G02 X-.104 Y2.501 I-.5 J9.484 F1341.12
N4645 G03 Y-2.501 I.104 J-2.501
N4650 G02 X0 Y-2.506 I-.396 J-9.489
N4655 X.104 Y-2.501 I.5 J-9.484
N4660 G03 Y2.501 I-.104 J2.501
N4665 G02 X0 Y2.506 I.396 J9.489
N4670 G01 Z-2.5 F335.28
N4675 G03 X.104 Y2.501 I.5 J9.484 F1341.12
N4680 G02 Y-2.501 I-.104 J-2.501
N4685 G03 X0 Y-2.506 I.396 J-9.489
N4690 X-.104 Y-2.501 I-.5 J-9.484
N4695 G02 Y2.501 I.104 J2.501
N4700 G03 X0 Y2.506 I-.396 J9.489
N4705 G00 Z2.5
N4710 G90 G54 X0 Y2.706
N4715 G01 Z-.25 F335.28
N4720 G02 X-.113 Y2.7 I-.5 J9.284 F1341.12
N4725 G03 Y-2.7 I.113 J-2.7
N4730 G02 X0 Y-2.706 I-.387 J-9.289
N4735 X.113 Y-2.7 I.5 J-9.284
N4740 G03 Y2.7 I-.113 J2.7
N4745 G02 X0 Y2.706 I.387 J9.289
N4750 G01 Z-.5 F335.28
N4755 G03 X.113 Y2.7 I.5 J9.284 F1341.12
N4760 G02 Y-2.7 I-.113 J-2.7
N4765 G03 X0 Y-2.706 I.387 J-9.289
N4770 X-.113 Y-2.7 I-.5 J-9.284
N4775 G02 Y2.7 I.113 J2.7
N4780 G03 X0 Y2.706 I-.387 J9.289
N4785 G01 Z-.75 F335.28
N4790 G02 X-.113 Y2.7 I-.5 J9.284 F1341.12
N4795 G03 Y-2.7 I.113 J-2.7
N4800 G02 X0 Y-2.706 I-.387 J-9.289
N4805 X.113 Y-2.7 I.5 J-9.284
N4810 G03 Y2.7 I-.113 J2.7
N4815 G02 X0 Y2.706 I.387 J9.289
N4820 G01 Z-1. F335.28
N4825 G03 X.113 Y2.7 I.5 J9.284 F1341.12
N4830 G02 Y-2.7 I-.113 J-2.7
N4835 G03 X0 Y-2.706 I.387 J-9.289
N4840 X-.113 Y-2.7 I-.5 J-9.284
N4845 G02 Y2.7 I.113 J2.7
N4850 G03 X0 Y2.706 I-.387 J9.289
N4855 G01 Z-1.25 F335.28
N4860 G02 X-.113 Y2.7 I-.5 J9.284 F1341.12
N4865 G03 Y-2.7 I.113 J-2.7
N4870 G02 X0 Y-2.706 I-.387 J-9.289
N4875 X.113 Y-2.7 I.5 J-9.284
N4880 G03 Y2.7 I-.113 J2.7
N4885 G02 X0 Y2.706 I.387 J9.289
N4890 G01 Z-1.5 F335.28
N4895 G03 X.113 Y2.7 I.5 J9.284 F1341.12
N4900 G02 Y-2.7 I-.113 J-2.7
N4905 G03 X0 Y-2.706 I.387 J-9.289
N4910 X-.113 Y-2.7 I-.5 J-9.284
N4915 G02 Y2.7 I.113 J2.7
N4920 G03 X0 Y2.706 I-.387 J9.289
N4925 G01 Z-1.75 F335.28
N4930 G02 X-.113 Y2.7 I-.5 J9.284 F1341.12
N4935 G03 Y-2.7 I.113 J-2.7
N4940 G02 X0 Y-2.706 I-.387 J-9.289
N4945 X.113 Y-2.7 I.5 J-9.284
N4950 G03 Y2.7 I-.113 J2.7
N4955 G02 X0 Y2.706 I.387 J9.289
N4960 G01 Z-2. F335.28
N4965 G03 X.113 Y2.7 I.5 J9.284 F1341.12
N4970 G02 Y-2.7 I-.113 J-2.7
N4975 G03 X0 Y-2.706 I.387 J-9.289
N4980 X-.113 Y-2.7 I-.5 J-9.284
N4985 G02 Y2.7 I.113 J2.7
N4990 G03 X0 Y2.706 I-.387 J9.289
N4995 G01 Z-2.25 F335.28
N5000 G02 X-.113 Y2.7 I-.5 J9.284 F1341.12
N5005 G03 Y-2.7 I.113 J-2.7
N5010 G02 X0 Y-2.706 I-.387 J-9.289
N5015 X.113 Y-2.7 I.5 J-9.284
N5020 G03 Y2.7 I-.113 J2.7
N5025 G02 X0 Y2.706 I.387 J9.289
N5030 G01 Z-2.5 F335.28
N5035 G03 X.113 Y2.7 I.5 J9.284 F1341.12
N5040 G02 Y-2.7 I-.113 J-2.7
N5045 G03 X0 Y-2.706 I.387 J-9.289
N5050 X-.113 Y-2.7 I-.5 J-9.284
N5055 G02 Y2.7 I.113 J2.7
N5060 G03 X0 Y2.706 I-.387 J9.289
N5065 G00 Z2.5
N5070 G90 G54 X0 Y2.906
N5075 G01 Z-.25 F335.28
N5080 G02 X-.121 Y2.9 I-.5 J9.084 F1341.12
N5085 G03 Y-2.9 I.121 J-2.9
N5090 G02 X0 Y-2.906 I-.379 J-9.089
N5095 X.121 Y-2.9 I.5 J-9.084
N5100 G03 Y2.9 I-.121 J2.9
N5105 G02 X0 Y2.906 I.379 J9.089
N5110 G01 Z-.5 F335.28
N5115 G03 X.121 Y2.9 I.5 J9.084 F1341.12
N5120 G02 Y-2.9 I-.121 J-2.9
N5125 G03 X0 Y-2.906 I.379 J-9.089
N5130 X-.121 Y-2.9 I-.5 J-9.084
N5135 G02 Y2.9 I.121 J2.9
N5140 G03 X0 Y2.906 I-.379 J9.089
N5145 G01 Z-.75 F335.28
N5150 G02 X-.121 Y2.9 I-.5 J9.084 F1341.12
N5155 G03 Y-2.9 I.121 J-2.9
N5160 G02 X0 Y-2.906 I-.379 J-9.089
N5165 X.121 Y-2.9 I.5 J-9.084
N5170 G03 Y2.9 I-.121 J2.9
N5175 G02 X0 Y2.906 I.379 J9.089
N5180 G01 Z-1. F335.28
N5185 G03 X.121 Y2.9 I.5 J9.084 F1341.12
N5190 G02 Y-2.9 I-.121 J-2.9
N5195 G03 X0 Y-2.906 I.379 J-9.089
N5200 X-.121 Y-2.9 I-.5 J-9.084
N5205 G02 Y2.9 I.121 J2.9
N5210 G03 X0 Y2.906 I-.379 J9.089
N5215 G01 Z-1.25 F335.28
N5220 G02 X-.121 Y2.9 I-.5 J9.084 F1341.12
N5225 G03 Y-2.9 I.121 J-2.9
N5230 G02 X0 Y-2.906 I-.379 J-9.089
N5235 X.121 Y-2.9 I.5 J-9.084
N5240 G03 Y2.9 I-.121 J2.9
N5245 G02 X0 Y2.906 I.379 J9.089
N5250 G01 Z-1.5 F335.28
N5255 G03 X.121 Y2.9 I.5 J9.084 F1341.12
N5260 G02 Y-2.9 I-.121 J-2.9
N5265 G03 X0 Y-2.906 I.379 J-9.089
N5270 X-.121 Y-2.9 I-.5 J-9.084
N5275 G02 Y2.9 I.121 J2.9
N5280 G03 X0 Y2.906 I-.379 J9.089
N5285 G01 Z-1.75 F335.28
N5290 G02 X-.121 Y2.9 I-.5 J9.084 F1341.12
N5295 G03 Y-2.9 I.121 J-2.9
N5300 G02 X0 Y-2.906 I-.379 J-9.089
N5305 X.121 Y-2.9 I.5 J-9.084
N5310 G03 Y2.9 I-.121 J2.9
N5315 G02 X0 Y2.906 I.379 J9.089
N5320 G01 Z-2. F335.28
N5325 G03 X.121 Y2.9 I.5 J9.084 F1341.12
N5330 G02 Y-2.9 I-.121 J-2.9
N5335 G03 X0 Y-2.906 I.379 J-9.089
N5340 X-.121 Y-2.9 I-.5 J-9.084
N5345 G02 Y2.9 I.121 J2.9
N5350 G03 X0 Y2.906 I-.379 J9.089
N5355 G01 Z-2.25 F335.28
N5360 G02 X-.121 Y2.9 I-.5 J9.084 F1341.12
N5365 G03 Y-2.9 I.121 J-2.9
N5370 G02 X0 Y-2.906 I-.379 J-9.089
N5375 X.121 Y-2.9 I.5 J-9.084
N5380 G03 Y2.9 I-.121 J2.9
N5385 G02 X0 Y2.906 I.379 J9.089
N5390 G01 Z-2.5 F335.28
N5395 G03 X.121 Y2.9 I.5 J9.084 F1341.12
N5400 G02 Y-2.9 I-.121 J-2.9
N5405 G03 X0 Y-2.906 I.379 J-9.089
N5410 X-.121 Y-2.9 I-.5 J-9.084
N5415 G02 Y2.9 I.121 J2.9
N5420 G03 X0 Y2.906 I-.379 J9.089
N5425 G00 Z2.5
N5430 G90 G54 X0 Y3.106
N5435 G01 Z-.25 F335.28
N5440 G02 X-.129 Y3.1 I-.5 J8.883 F1341.12
N5445 G03 Y-3.1 I.129 J-3.1
N5450 G02 X0 Y-3.106 I-.371 J-8.89
N5455 X.129 Y-3.1 I.5 J-8.883
N5460 G03 Y3.1 I-.129 J3.1
N5465 G02 X0 Y3.106 I.371 J8.89
N5470 G01 Z-.5 F335.28
N5475 G03 X.129 Y3.1 I.5 J8.883 F1341.12
N5480 G02 Y-3.1 I-.129 J-3.1
N5485 G03 X0 Y-3.106 I.371 J-8.89
N5490 X-.129 Y-3.1 I-.5 J-8.883
N5495 G02 Y3.1 I.129 J3.1
N5500 G03 X0 Y3.106 I-.371 J8.89
N5505 G01 Z-.75 F335.28
N5510 G02 X-.129 Y3.1 I-.5 J8.883 F1341.12
N5515 G03 Y-3.1 I.129 J-3.1
N5520 G02 X0 Y-3.106 I-.371 J-8.89
N5525 X.129 Y-3.1 I.5 J-8.883
N5530 G03 Y3.1 I-.129 J3.1
N5535 G02 X0 Y3.106 I.371 J8.89
N5540 G01 Z-1. F335.28
N5545 G03 X.129 Y3.1 I.5 J8.883 F1341.12
N5550 G02 Y-3.1 I-.129 J-3.1
N5555 G03 X0 Y-3.106 I.371 J-8.89
N5560 X-.129 Y-3.1 I-.5 J-8.883
N5565 G02 Y3.1 I.129 J3.1
N5570 G03 X0 Y3.106 I-.371 J8.89
N5575 G01 Z-1.25 F335.28
N5580 G02 X-.129 Y3.1 I-.5 J8.883 F1341.12
N5585 G03 Y-3.1 I.129 J-3.1
N5590 G02 X0 Y-3.106 I-.371 J-8.89
N5595 X.129 Y-3.1 I.5 J-8.883
N5600 G03 Y3.1 I-.129 J3.1
N5605 G02 X0 Y3.106 I.371 J8.89
N5610 G01 Z-1.5 F335.28
N5615 G03 X.129 Y3.1 I.5 J8.883 F1341.12
N5620 G02 Y-3.1 I-.129 J-3.1
N5625 G03 X0 Y-3.106 I.371 J-8.89
N5630 X-.129 Y-3.1 I-.5 J-8.883
N5635 G02 Y3.1 I.129 J3.1
N5640 G03 X0 Y3.106 I-.371 J8.89
N5645 G01 Z-1.75 F335.28
N5650 G02 X-.129 Y3.1 I-.5 J8.883 F1341.12
N5655 G03 Y-3.1 I.129 J-3.1
N5660 G02 X0 Y-3.106 I-.371 J-8.89
N5665 X.129 Y-3.1 I.5 J-8.883
N5670 G03 Y3.1 I-.129 J3.1
N5675 G02 X0 Y3.106 I.371 J8.89
N5680 G01 Z-2. F335.28
N5685 G03 X.129 Y3.1 I.5 J8.883 F1341.12
N5690 G02 Y-3.1 I-.129 J-3.1
N5695 G03 X0 Y-3.106 I.371 J-8.89
N5700 X-.129 Y-3.1 I-.5 J-8.883
N5705 G02 Y3.1 I.129 J3.1
N5710 G03 X0 Y3.106 I-.371 J8.89
N5715 G01 Z-2.25 F335.28
N5720 G02 X-.129 Y3.1 I-.5 J8.883 F1341.12
N5725 G03 Y-3.1 I.129 J-3.1
N5730 G02 X0 Y-3.106 I-.371 J-8.89
N5735 X.129 Y-3.1 I.5 J-8.883
N5740 G03 Y3.1 I-.129 J3.1
N5745 G02 X0 Y3.106 I.371 J8.89
N5750 G01 Z-2.5 F335.28
N5755 G03 X.129 Y3.1 I.5 J8.883 F1341.12
N5760 G02 Y-3.1 I-.129 J-3.1
N5765 G03 X0 Y-3.106 I.371 J-8.89
N5770 X-.129 Y-3.1 I-.5 J-8.883
N5775 G02 Y3.1 I.129 J3.1
N5780 G03 X0 Y3.106 I-.371 J8.89
N5785 G00 Z2.5
N5790 G90 G54 X0 Y3.307
N5795 G01 Z-.25 F335.28
N5800 G02 X-.138 Y3.3 I-.5 J8.683 F1341.12
N5805 G03 Y-3.3 I.138 J-3.3
N5810 G02 X0 Y-3.307 I-.362 J-8.69
N5815 X.138 Y-3.3 I.5 J-8.683
N5820 G03 Y3.3 I-.138 J3.3
N5825 G02 X0 Y3.307 I.362 J8.69
N5830 G01 Z-.5 F335.28
N5835 G03 X.138 Y3.3 I.5 J8.683 F1341.12
N5840 G02 Y-3.3 I-.138 J-3.3
N5845 G03 X0 Y-3.307 I.362 J-8.69
N5850 X-.138 Y-3.3 I-.5 J-8.683
N5855 G02 Y3.3 I.138 J3.3
N5860 G03 X0 Y3.307 I-.362 J8.69
N5865 G01 Z-.75 F335.28
N5870 G02 X-.138 Y3.3 I-.5 J8.683 F1341.12
N5875 G03 Y-3.3 I.138 J-3.3
N5880 G02 X0 Y-3.307 I-.362 J-8.69
N5885 X.138 Y-3.3 I.5 J-8.683
N5890 G03 Y3.3 I-.138 J3.3
N5895 G02 X0 Y3.307 I.362 J8.69
N5900 G01 Z-1. F335.28
N5905 G03 X.138 Y3.3 I.5 J8.683 F1341.12
N5910 G02 Y-3.3 I-.138 J-3.3
N5915 G03 X0 Y-3.307 I.362 J-8.69
N5920 X-.138 Y-3.3 I-.5 J-8.683
N5925 G02 Y3.3 I.138 J3.3
N5930 G03 X0 Y3.307 I-.362 J8.69
N5935 G01 Z-1.25 F335.28
N5940 G02 X-.138 Y3.3 I-.5 J8.683 F1341.12
N5945 G03 Y-3.3 I.138 J-3.3
N5950 G02 X0 Y-3.307 I-.362 J-8.69
N5955 X.138 Y-3.3 I.5 J-8.683
N5960 G03 Y3.3 I-.138 J3.3
N5965 G02 X0 Y3.307 I.362 J8.69
N5970 G01 Z-1.5 F335.28
N5975 G03 X.138 Y3.3 I.5 J8.683 F1341.12
N5980 G02 Y-3.3 I-.138 J-3.3
N5985 G03 X0 Y-3.307 I.362 J-8.69
N5990 X-.138 Y-3.3 I-.5 J-8.683
N5995 G02 Y3.3 I.138 J3.3
N6000 G03 X0 Y3.307 I-.362 J8.69
N6005 G01 Z-1.75 F335.28
N6010 G02 X-.138 Y3.3 I-.5 J8.683 F1341.12
N6015 G03 Y-3.3 I.138 J-3.3
N6020 G02 X0 Y-3.307 I-.362 J-8.69
N6025 X.138 Y-3.3 I.5 J-8.683
N6030 G03 Y3.3 I-.138 J3.3
N6035 G02 X0 Y3.307 I.362 J8.69
N6040 G01 Z-2. F335.28
N6045 G03 X.138 Y3.3 I.5 J8.683 F1341.12
N6050 G02 Y-3.3 I-.138 J-3.3
N6055 G03 X0 Y-3.307 I.362 J-8.69
N6060 X-.138 Y-3.3 I-.5 J-8.683
N6065 G02 Y3.3 I.138 J3.3
N6070 G03 X0 Y3.307 I-.362 J8.69
N6075 G01 Z-2.25 F335.28
N6080 G02 X-.138 Y3.3 I-.5 J8.683 F1341.12
N6085 G03 Y-3.3 I.138 J-3.3
N6090 G02 X0 Y-3.307 I-.362 J-8.69
N6095 X.138 Y-3.3 I.5 J-8.683
N6100 G03 Y3.3 I-.138 J3.3
N6105 G02 X0 Y3.307 I.362 J8.69
N6110 G01 Z-2.5 F335.28
N6115 G03 X.138 Y3.3 I.5 J8.683 F1341.12
N6120 G02 Y-3.3 I-.138 J-3.3
N6125 G03 X0 Y-3.307 I.362 J-8.69
N6130 X-.138 Y-3.3 I-.5 J-8.683
N6135 G02 Y3.3 I.138 J3.3
N6140 G03 X0 Y3.307 I-.362 J8.69
N6145 G00 Z2.5
N6150 G90 G54 X0 Y3.507
N6155 G01 Z-.25 F335.28
N6160 G02 X-.146 Y3.499 I-.5 J8.483 F1341.12
N6165 G03 Y-3.499 I.146 J-3.499
N6170 G02 X0 Y-3.507 I-.354 J-8.49
N6175 X.146 Y-3.499 I.5 J-8.483
N6180 G03 Y3.499 I-.146 J3.499
N6185 G02 X0 Y3.507 I.354 J8.49
N6190 G01 Z-.5 F335.28
N6195 G03 X.146 Y3.499 I.5 J8.483 F1341.12
N6200 G02 Y-3.499 I-.146 J-3.499
N6205 G03 X0 Y-3.507 I.354 J-8.49
N6210 X-.146 Y-3.499 I-.5 J-8.483
N6215 G02 Y3.499 I.146 J3.499
N6220 G03 X0 Y3.507 I-.354 J8.49
N6225 G01 Z-.75 F335.28
N6230 G02 X-.146 Y3.499 I-.5 J8.483 F1341.12
N6235 G03 Y-3.499 I.146 J-3.499
N6240 G02 X0 Y-3.507 I-.354 J-8.49
N6245 X.146 Y-3.499 I.5 J-8.483
N6250 G03 Y3.499 I-.146 J3.499
N6255 G02 X0 Y3.507 I.354 J8.49
N6260 G01 Z-1. F335.28
N6265 G03 X.146 Y3.499 I.5 J8.483 F1341.12
N6270 G02 Y-3.499 I-.146 J-3.499
N6275 G03 X0 Y-3.507 I.354 J-8.49
N6280 X-.146 Y-3.499 I-.5 J-8.483
N6285 G02 Y3.499 I.146 J3.499
N6290 G03 X0 Y3.507 I-.354 J8.49
N6295 G01 Z-1.25 F335.28
N6300 G02 X-.146 Y3.499 I-.5 J8.483 F1341.12
N6305 G03 Y-3.499 I.146 J-3.499
N6310 G02 X0 Y-3.507 I-.354 J-8.49
N6315 X.146 Y-3.499 I.5 J-8.483
N6320 G03 Y3.499 I-.146 J3.499
N6325 G02 X0 Y3.507 I.354 J8.49
N6330 G01 Z-1.5 F335.28
N6335 G03 X.146 Y3.499 I.5 J8.483 F1341.12
N6340 G02 Y-3.499 I-.146 J-3.499
N6345 G03 X0 Y-3.507 I.354 J-8.49
N6350 X-.146 Y-3.499 I-.5 J-8.483
N6355 G02 Y3.499 I.146 J3.499
N6360 G03 X0 Y3.507 I-.354 J8.49
N6365 G01 Z-1.75 F335.28
N6370 G02 X-.146 Y3.499 I-.5 J8.483 F1341.12
N6375 G03 Y-3.499 I.146 J-3.499
N6380 G02 X0 Y-3.507 I-.354 J-8.49
N6385 X.146 Y-3.499 I.5 J-8.483
N6390 G03 Y3.499 I-.146 J3.499
N6395 G02 X0 Y3.507 I.354 J8.49
N6400 G01 Z-2. F335.28
N6405 G03 X.146 Y3.499 I.5 J8.483 F1341.12
N6410 G02 Y-3.499 I-.146 J-3.499
N6415 G03 X0 Y-3.507 I.354 J-8.49
N6420 X-.146 Y-3.499 I-.5 J-8.483
N6425 G02 Y3.499 I.146 J3.499
N6430 G03 X0 Y3.507 I-.354 J8.49
N6435 G01 Z-2.25 F335.28
N6440 G02 X-.146 Y3.499 I-.5 J8.483 F1341.12
N6445 G03 Y-3.499 I.146 J-3.499
N6450 G02 X0 Y-3.507 I-.354 J-8.49
N6455 X.146 Y-3.499 I.5 J-8.483
N6460 G03 Y3.499 I-.146 J3.499
N6465 G02 X0 Y3.507 I.354 J8.49
N6470 G01 Z-2.5 F335.28
N6475 G03 X.146 Y3.499 I.5 J8.483 F1341.12
N6480 G02 Y-3.499 I-.146 J-3.499
N6485 G03 X0 Y-3.507 I.354 J-8.49
N6490 X-.146 Y-3.499 I-.5 J-8.483
N6495 G02 Y3.499 I.146 J3.499
N6500 G03 X0 Y3.507 I-.354 J8.49
N6505 G00 Z2.5
N6510 G90 G54 X0 Y3.707
N6515 G01 Z-.25 F335.28
N6520 G02 X-.154 Y3.699 I-.5 J8.282 F1341.12
N6525 G03 Y-3.699 I.154 J-3.699
N6530 G02 X0 Y-3.707 I-.346 J-8.29
N6535 X.154 Y-3.699 I.5 J-8.282
N6540 G03 Y3.699 I-.154 J3.699
N6545 G02 X0 Y3.707 I.346 J8.29
N6550 G01 Z-.5 F335.28
N6555 G03 X.154 Y3.699 I.5 J8.282 F1341.12
N6560 G02 Y-3.699 I-.154 J-3.699
N6565 G03 X0 Y-3.707 I.346 J-8.29
N6570 X-.154 Y-3.699 I-.5 J-8.282
N6575 G02 Y3.699 I.154 J3.699
N6580 G03 X0 Y3.707 I-.346 J8.29
N6585 G01 Z-.75 F335.28
N6590 G02 X-.154 Y3.699 I-.5 J8.282 F1341.12
N6595 G03 Y-3.699 I.154 J-3.699
N6600 G02 X0 Y-3.707 I-.346 J-8.29
N6605 X.154 Y-3.699 I.5 J-8.282
N6610 G03 Y3.699 I-.154 J3.699
N6615 G02 X0 Y3.707 I.346 J8.29
N6620 G01 Z-1. F335.28
N6625 G03 X.154 Y3.699 I.5 J8.282 F1341.12
N6630 G02 Y-3.699 I-.154 J-3.699
N6635 G03 X0 Y-3.707 I.346 J-8.29
N6640 X-.154 Y-3.699 I-.5 J-8.282
N6645 G02 Y3.699 I.154 J3.699
N6650 G03 X0 Y3.707 I-.346 J8.29
N6655 G01 Z-1.25 F335.28
N6660 G02 X-.154 Y3.699 I-.5 J8.282 F1341.12
N6665 G03 Y-3.699 I.154 J-3.699
N6670 G02 X0 Y-3.707 I-.346 J-8.29
N6675 X.154 Y-3.699 I.5 J-8.282
N6680 G03 Y3.699 I-.154 J3.699
N6685 G02 X0 Y3.707 I.346 J8.29
N6690 G01 Z-1.5 F335.28
N6695 G03 X.154 Y3.699 I.5 J8.282 F1341.12
N6700 G02 Y-3.699 I-.154 J-3.699
N6705 G03 X0 Y-3.707 I.346 J-8.29
N6710 X-.154 Y-3.699 I-.5 J-8.282
N6715 G02 Y3.699 I.154 J3.699
N6720 G03 X0 Y3.707 I-.346 J8.29
N6725 G01 Z-1.75 F335.28
N6730 G02 X-.154 Y3.699 I-.5 J8.282 F1341.12
N6735 G03 Y-3.699 I.154 J-3.699
N6740 G02 X0 Y-3.707 I-.346 J-8.29
N6745 X.154 Y-3.699 I.5 J-8.282
N6750 G03 Y3.699 I-.154 J3.699
N6755 G02 X0 Y3.707 I.346 J8.29
N6760 G01 Z-2. F335.28
N6765 G03 X.154 Y3.699 I.5 J8.282 F1341.12
N6770 G02 Y-3.699 I-.154 J-3.699
N6775 G03 X0 Y-3.707 I.346 J-8.29
N6780 X-.154 Y-3.699 I-.5 J-8.282
N6785 G02 Y3.699 I.154 J3.699
N6790 G03 X0 Y3.707 I-.346 J8.29
N6795 G01 Z-2.25 F335.28
N6800 G02 X-.154 Y3.699 I-.5 J8.282 F1341.12
N6805 G03 Y-3.699 I.154 J-3.699
N6810 G02 X0 Y-3.707 I-.346 J-8.29
N6815 X.154 Y-3.699 I.5 J-8.282
N6820 G03 Y3.699 I-.154 J3.699
N6825 G02 X0 Y3.707 I.346 J8.29
N6830 G01 Z-2.5 F335.28
N6835 G03 X.154 Y3.699 I.5 J8.282 F1341.12
N6840 G02 Y-3.699 I-.154 J-3.699
N6845 G03 X0 Y-3.707 I.346 J-8.29
N6850 X-.154 Y-3.699 I-.5 J-8.282
N6855 G02 Y3.699 I.154 J3.699
N6860 G03 X0 Y3.707 I-.346 J8.29
N6865 G00 Z2.5
N6870 G90 G54 X0 Y3.907
N6875 G01 Z-.25 F335.28
N6880 G02 X-.163 Y3.899 I-.5 J8.082 F1341.12
N6885 G03 Y-3.899 I.163 J-3.899
N6890 G02 X0 Y-3.907 I-.337 J-8.091
N6895 X.163 Y-3.899 I.5 J-8.082
N6900 G03 Y3.899 I-.163 J3.899
N6905 G02 X0 Y3.907 I.337 J8.091
N6910 G01 Z-.5 F335.28
N6915 G03 X.163 Y3.899 I.5 J8.082 F1341.12
N6920 G02 Y-3.899 I-.163 J-3.899
N6925 G03 X0 Y-3.907 I.337 J-8.091
N6930 X-.163 Y-3.899 I-.5 J-8.082
N6935 G02 Y3.899 I.163 J3.899
N6940 G03 X0 Y3.907 I-.337 J8.091
N6945 G01 Z-.75 F335.28
N6950 G02 X-.163 Y3.899 I-.5 J8.082 F1341.12
N6955 G03 Y-3.899 I.163 J-3.899
N6960 G02 X0 Y-3.907 I-.337 J-8.091
N6965 X.163 Y-3.899 I.5 J-8.082
N6970 G03 Y3.899 I-.163 J3.899
N6975 G02 X0 Y3.907 I.337 J8.091
N6980 G01 Z-1. F335.28
N6985 G03 X.163 Y3.899 I.5 J8.082 F1341.12
N6990 G02 Y-3.899 I-.163 J-3.899
N6995 G03 X0 Y-3.907 I.337 J-8.091
N7000 X-.163 Y-3.899 I-.5 J-8.082
N7005 G02 Y3.899 I.163 J3.899
N7010 G03 X0 Y3.907 I-.337 J8.091
N7015 G01 Z-1.25 F335.28
N7020 G02 X-.163 Y3.899 I-.5 J8.082 F1341.12
N7025 G03 Y-3.899 I.163 J-3.899
N7030 G02 X0 Y-3.907 I-.337 J-8.091
N7035 X.163 Y-3.899 I.5 J-8.082
N7040 G03 Y3.899 I-.163 J3.899
N7045 G02 X0 Y3.907 I.337 J8.091
N7050 G01 Z-1.5 F335.28
N7055 G03 X.163 Y3.899 I.5 J8.082 F1341.12
N7060 G02 Y-3.899 I-.163 J-3.899
N7065 G03 X0 Y-3.907 I.337 J-8.091
N7070 X-.163 Y-3.899 I-.5 J-8.082
N7075 G02 Y3.899 I.163 J3.899
N7080 G03 X0 Y3.907 I-.337 J8.091
N7085 G01 Z-1.75 F335.28
N7090 G02 X-.163 Y3.899 I-.5 J8.082 F1341.12
N7095 G03 Y-3.899 I.163 J-3.899
N7100 G02 X0 Y-3.907 I-.337 J-8.091
N7105 X.163 Y-3.899 I.5 J-8.082
N7110 G03 Y3.899 I-.163 J3.899
N7115 G02 X0 Y3.907 I.337 J8.091
N7120 G01 Z-2. F335.28
N7125 G03 X.163 Y3.899 I.5 J8.082 F1341.12
N7130 G02 Y-3.899 I-.163 J-3.899
N7135 G03 X0 Y-3.907 I.337 J-8.091
N7140 X-.163 Y-3.899 I-.5 J-8.082
N7145 G02 Y3.899 I.163 J3.899
N7150 G03 X0 Y3.907 I-.337 J8.091
N7155 G01 Z-2.25 F335.28
N7160 G02 X-.163 Y3.899 I-.5 J8.082 F1341.12
N7165 G03 Y-3.899 I.163 J-3.899
N7170 G02 X0 Y-3.907 I-.337 J-8.091
N7175 X.163 Y-3.899 I.5 J-8.082
N7180 G03 Y3.899 I-.163 J3.899
N7185 G02 X0 Y3.907 I.337 J8.091
N7190 G01 Z-2.5 F335.28
N7195 G03 X.163 Y3.899 I.5 J8.082 F1341.12
N7200 G02 Y-3.899 I-.163 J-3.899
N7205 G03 X0 Y-3.907 I.337 J-8.091
N7210 X-.163 Y-3.899 I-.5 J-8.082
N7215 G02 Y3.899 I.163 J3.899
N7220 G03 X0 Y3.907 I-.337 J8.091
N7225 G00 Z2.5
N7230 G90 G54 X0 Y4.108
N7235 G01 Z-.25 F335.28
N7240 G02 X-.171 Y4.099 I-.5 J7.882 F1341.12
N7245 G03 Y-4.099 I.171 J-4.099
N7250 G02 X0 Y-4.108 I-.329 J-7.891
N7255 X.171 Y-4.099 I.5 J-7.882
N7260 G03 Y4.099 I-.171 J4.099
N7265 G02 X0 Y4.108 I.329 J7.891
N7270 G01 Z-.5 F335.28
N7275 G03 X.171 Y4.099 I.5 J7.882 F1341.12
N7280 G02 Y-4.099 I-.171 J-4.099
N7285 G03 X0 Y-4.108 I.329 J-7.891
N7290 X-.171 Y-4.099 I-.5 J-7.882
N7295 G02 Y4.099 I.171 J4.099
N7300 G03 X0 Y4.108 I-.329 J7.891
N7305 G01 Z-.75 F335.28
N7310 G02 X-.171 Y4.099 I-.5 J7.882 F1341.12
N7315 G03 Y-4.099 I.171 J-4.099
N7320 G02 X0 Y-4.108 I-.329 J-7.891
N7325 X.171 Y-4.099 I.5 J-7.882
N7330 G03 Y4.099 I-.171 J4.099
N7335 G02 X0 Y4.108 I.329 J7.891
N7340 G01 Z-1. F335.28
N7345 G03 X.171 Y4.099 I.5 J7.882 F1341.12
N7350 G02 Y-4.099 I-.171 J-4.099
N7355 G03 X0 Y-4.108 I.329 J-7.891
N7360 X-.171 Y-4.099 I-.5 J-7.882
N7365 G02 Y4.099 I.171 J4.099
N7370 G03 X0 Y4.108 I-.329 J7.891
N7375 G01 Z-1.25 F335.28
N7380 G02 X-.171 Y4.099 I-.5 J7.882 F1341.12
N7385 G03 Y-4.099 I.171 J-4.099
N7390 G02 X0 Y-4.108 I-.329 J-7.891
N7395 X.171 Y-4.099 I.5 J-7.882
N7400 G03 Y4.099 I-.171 J4.099
N7405 G02 X0 Y4.108 I.329 J7.891
N7410 G01 Z-1.5 F335.28
N7415 G03 X.171 Y4.099 I.5 J7.882 F1341.12
N7420 G02 Y-4.099 I-.171 J-4.099
N7425 G03 X0 Y-4.108 I.329 J-7.891
N7430 X-.171 Y-4.099 I-.5 J-7.882
N7435 G02 Y4.099 I.171 J4.099
N7440 G03 X0 Y4.108 I-.329 J7.891
N7445 G01 Z-1.75 F335.28
N7450 G02 X-.171 Y4.099 I-.5 J7.882 F1341.12
N7455 G03 Y-4.099 I.171 J-4.099
N7460 G02 X0 Y-4.108 I-.329 J-7.891
N7465 X.171 Y-4.099 I.5 J-7.882
N7470 G03 Y4.099 I-.171 J4.099
N7475 G02 X0 Y4.108 I.329 J7.891
N7480 G01 Z-2. F335.28
N7485 G03 X.171 Y4.099 I.5 J7.882 F1341.12
N7490 G02 Y-4.099 I-.171 J-4.099
N7495 G03 X0 Y-4.108 I.329 J-7.891
N7500 X-.171 Y-4.099 I-.5 J-7.882
N7505 G02 Y4.099 I.171 J4.099
N7510 G03 X0 Y4.108 I-.329 J7.891
N7515 G01 Z-2.25 F335.28
N7520 G02 X-.171 Y4.099 I-.5 J7.882 F1341.12
N7525 G03 Y-4.099 I.171 J-4.099
N7530 G02 X0 Y-4.108 I-.329 J-7.891
N7535 X.171 Y-4.099 I.5 J-7.882
N7540 G03 Y4.099 I-.171 J4.099
N7545 G02 X0 Y4.108 I.329 J7.891
N7550 G01 Z-2.5 F335.28
N7555 G03 X.171 Y4.099 I.5 J7.882 F1341.12
N7560 G02 Y-4.099 I-.171 J-4.099
N7565 G03 X0 Y-4.108 I.329 J-7.891
N7570 X-.171 Y-4.099 I-.5 J-7.882
N7575 G02 Y4.099 I.171 J4.099
N7580 G03 X0 Y4.108 I-.329 J7.891
N7585 G00 Z2.5
N7590 G90 G54 X0 Y4.308
N7595 G01 Z-.25 F335.28
N7600 G02 X-.179 Y4.299 I-.5 J7.681 F1341.12
N7605 G03 Y-4.299 I.179 J-4.299
N7610 G02 X0 Y-4.308 I-.321 J-7.691
N7615 X.179 Y-4.299 I.5 J-7.681
N7620 G03 Y4.299 I-.179 J4.299
N7625 G02 X0 Y4.308 I.321 J7.691
N7630 G01 Z-.5 F335.28
N7635 G03 X.179 Y4.299 I.5 J7.681 F1341.12
N7640 G02 Y-4.299 I-.179 J-4.299
N7645 G03 X0 Y-4.308 I.321 J-7.691
N7650 X-.179 Y-4.299 I-.5 J-7.681
N7655 G02 Y4.299 I.179 J4.299
N7660 G03 X0 Y4.308 I-.321 J7.691
N7665 G01 Z-.75 F335.28
N7670 G02 X-.179 Y4.299 I-.5 J7.681 F1341.12
N7675 G03 Y-4.299 I.179 J-4.299
N7680 G02 X0 Y-4.308 I-.321 J-7.691
N7685 X.179 Y-4.299 I.5 J-7.681
N7690 G03 Y4.299 I-.179 J4.299
N7695 G02 X0 Y4.308 I.321 J7.691
N7700 G01 Z-1. F335.28
N7705 G03 X.179 Y4.299 I.5 J7.681 F1341.12
N7710 G02 Y-4.299 I-.179 J-4.299
N7715 G03 X0 Y-4.308 I.321 J-7.691
N7720 X-.179 Y-4.299 I-.5 J-7.681
N7725 G02 Y4.299 I.179 J4.299
N7730 G03 X0 Y4.308 I-.321 J7.691
N7735 G01 Z-1.25 F335.28
N7740 G02 X-.179 Y4.299 I-.5 J7.681 F1341.12
N7745 G03 Y-4.299 I.179 J-4.299
N7750 G02 X0 Y-4.308 I-.321 J-7.691
N7755 X.179 Y-4.299 I.5 J-7.681
N7760 G03 Y4.299 I-.179 J4.299
N7765 G02 X0 Y4.308 I.321 J7.691
N7770 G01 Z-1.5 F335.28
N7775 G03 X.179 Y4.299 I.5 J7.681 F1341.12
N7780 G02 Y-4.299 I-.179 J-4.299
N7785 G03 X0 Y-4.308 I.321 J-7.691
N7790 X-.179 Y-4.299 I-.5 J-7.681
N7795 G02 Y4.299 I.179 J4.299
N7800 G03 X0 Y4.308 I-.321 J7.691
N7805 G01 Z-1.75 F335.28
N7810 G02 X-.179 Y4.299 I-.5 J7.681 F1341.12
N7815 G03 Y-4.299 I.179 J-4.299
N7820 G02 X0 Y-4.308 I-.321 J-7.691
N7825 X.179 Y-4.299 I.5 J-7.681
N7830 G03 Y4.299 I-.179 J4.299
N7835 G02 X0 Y4.308 I.321 J7.691
N7840 G01 Z-2. F335.28
N7845 G03 X.179 Y4.299 I.5 J7.681 F1341.12
N7850 G02 Y-4.299 I-.179 J-4.299
N7855 G03 X0 Y-4.308 I.321 J-7.691
N7860 X-.179 Y-4.299 I-.5 J-7.681
N7865 G02 Y4.299 I.179 J4.299
N7870 G03 X0 Y4.308 I-.321 J7.691
N7875 G01 Z-2.25 F335.28
N7880 G02 X-.179 Y4.299 I-.5 J7.681 F1341.12
N7885 G03 Y-4.299 I.179 J-4.299
N7890 G02 X0 Y-4.308 I-.321 J-7.691
N7895 X.179 Y-4.299 I.5 J-7.681
N7900 G03 Y4.299 I-.179 J4.299
N7905 G02 X0 Y4.308 I.321 J7.691
N7910 G01 Z-2.5 F335.28
N7915 G03 X.179 Y4.299 I.5 J7.681 F1341.12
N7920 G02 Y-4.299 I-.179 J-4.299
N7925 G03 X0 Y-4.308 I.321 J-7.691
N7930 X-.179 Y-4.299 I-.5 J-7.681
N7935 G02 Y4.299 I.179 J4.299
N7940 G03 X0 Y4.308 I-.321 J7.691
N7945 G00 Z2.5
N7950 G90 G54 X0 Y4.508
N7955 G01 Z-.25 F335.28
N7960 G02 X-.188 Y4.498 I-.5 J7.481 F1341.12
N7965 G03 Y-4.498 I.188 J-4.498
N7970 G02 X0 Y-4.508 I-.312 J-7.491
N7975 X.188 Y-4.498 I.5 J-7.481
N7980 G03 Y4.498 I-.188 J4.498
N7985 G02 X0 Y4.508 I.312 J7.491
N7990 G01 Z-.5 F335.28
N7995 G03 X.188 Y4.498 I.5 J7.481 F1341.12
N8000 G02 Y-4.498 I-.188 J-4.498
N8005 G03 X0 Y-4.508 I.312 J-7.491
N8010 X-.188 Y-4.498 I-.5 J-7.481
N8015 G02 Y4.498 I.188 J4.498
N8020 G03 X0 Y4.508 I-.312 J7.491
N8025 G01 Z-.75 F335.28
N8030 G02 X-.188 Y4.498 I-.5 J7.481 F1341.12
N8035 G03 Y-4.498 I.188 J-4.498
N8040 G02 X0 Y-4.508 I-.312 J-7.491
N8045 X.188 Y-4.498 I.5 J-7.481
N8050 G03 Y4.498 I-.188 J4.498
N8055 G02 X0 Y4.508 I.312 J7.491
N8060 G01 Z-1. F335.28
N8065 G03 X.188 Y4.498 I.5 J7.481 F1341.12
N8070 G02 Y-4.498 I-.188 J-4.498
N8075 G03 X0 Y-4.508 I.312 J-7.491
N8080 X-.188 Y-4.498 I-.5 J-7.481
N8085 G02 Y4.498 I.188 J4.498
N8090 G03 X0 Y4.508 I-.312 J7.491
N8095 G01 Z-1.25 F335.28
N8100 G02 X-.188 Y4.498 I-.5 J7.481 F1341.12
N8105 G03 Y-4.498 I.188 J-4.498
N8110 G02 X0 Y-4.508 I-.312 J-7.491
N8115 X.188 Y-4.498 I.5 J-7.481
N8120 G03 Y4.498 I-.188 J4.498
N8125 G02 X0 Y4.508 I.312 J7.491
N8130 G01 Z-1.5 F335.28
N8135 G03 X.188 Y4.498 I.5 J7.481 F1341.12
N8140 G02 Y-4.498 I-.188 J-4.498
N8145 G03 X0 Y-4.508 I.312 J-7.491
N8150 X-.188 Y-4.498 I-.5 J-7.481
N8155 G02 Y4.498 I.188 J4.498
N8160 G03 X0 Y4.508 I-.312 J7.491
N8165 G01 Z-1.75 F335.28
N8170 G02 X-.188 Y4.498 I-.5 J7.481 F1341.12
N8175 G03 Y-4.498 I.188 J-4.498
N8180 G02 X0 Y-4.508 I-.312 J-7.491
N8185 X.188 Y-4.498 I.5 J-7.481
N8190 G03 Y4.498 I-.188 J4.498
N8195 G02 X0 Y4.508 I.312 J7.491
N8200 G01 Z-2. F335.28
N8205 G03 X.188 Y4.498 I.5 J7.481 F1341.12
N8210 G02 Y-4.498 I-.188 J-4.498
N8215 G03 X0 Y-4.508 I.312 J-7.491
N8220 X-.188 Y-4.498 I-.5 J-7.481
N8225 G02 Y4.498 I.188 J4.498
N8230 G03 X0 Y4.508 I-.312 J7.491
N8235 G01 Z-2.25 F335.28
N8240 G02 X-.188 Y4.498 I-.5 J7.481 F1341.12
N8245 G03 Y-4.498 I.188 J-4.498
N8250 G02 X0 Y-4.508 I-.312 J-7.491
N8255 X.188 Y-4.498 I.5 J-7.481
N8260 G03 Y4.498 I-.188 J4.498
N8265 G02 X0 Y4.508 I.312 J7.491
N8270 G01 Z-2.5 F335.28
N8275 G03 X.188 Y4.498 I.5 J7.481 F1341.12
N8280 G02 Y-4.498 I-.188 J-4.498
N8285 G03 X0 Y-4.508 I.312 J-7.491
N8290 X-.188 Y-4.498 I-.5 J-7.481
N8295 G02 Y4.498 I.188 J4.498
N8300 G03 X0 Y4.508 I-.312 J7.491
N8305 G00 Z2.5
N8310 G90 G54 X0 Y4.709
N8315 G01 Z-.25 F335.28
N8320 G02 X-.196 Y4.698 I-.5 J7.281 F1341.12
N8325 G03 Y-4.698 I.196 J-4.698
N8330 G02 X0 Y-4.709 I-.304 J-7.292
N8335 X.196 Y-4.698 I.5 J-7.281
N8340 G03 Y4.698 I-.196 J4.698
N8345 G02 X0 Y4.709 I.304 J7.292
N8350 G01 Z-.5 F335.28
N8355 G03 X.196 Y4.698 I.5 J7.281 F1341.12
N8360 G02 Y-4.698 I-.196 J-4.698
N8365 G03 X0 Y-4.709 I.304 J-7.292
N8370 X-.196 Y-4.698 I-.5 J-7.281
N8375 G02 Y4.698 I.196 J4.698
N8380 G03 X0 Y4.709 I-.304 J7.292
N8385 G01 Z-.75 F335.28
N8390 G02 X-.196 Y4.698 I-.5 J7.281 F1341.12
N8395 G03 Y-4.698 I.196 J-4.698
N8400 G02 X0 Y-4.709 I-.304 J-7.292
N8405 X.196 Y-4.698 I.5 J-7.281
N8410 G03 Y4.698 I-.196 J4.698
N8415 G02 X0 Y4.709 I.304 J7.292
N8420 G01 Z-1. F335.28
N8425 G03 X.196 Y4.698 I.5 J7.281 F1341.12
N8430 G02 Y-4.698 I-.196 J-4.698
N8435 G03 X0 Y-4.709 I.304 J-7.292
N8440 X-.196 Y-4.698 I-.5 J-7.281
N8445 G02 Y4.698 I.196 J4.698
N8450 G03 X0 Y4.709 I-.304 J7.292
N8455 G01 Z-1.25 F335.28
N8460 G02 X-.196 Y4.698 I-.5 J7.281 F1341.12
N8465 G03 Y-4.698 I.196 J-4.698
N8470 G02 X0 Y-4.709 I-.304 J-7.292
N8475 X.196 Y-4.698 I.5 J-7.281
N8480 G03 Y4.698 I-.196 J4.698
N8485 G02 X0 Y4.709 I.304 J7.292
N8490 G01 Z-1.5 F335.28
N8495 G03 X.196 Y4.698 I.5 J7.281 F1341.12
N8500 G02 Y-4.698 I-.196 J-4.698
N8505 G03 X0 Y-4.709 I.304 J-7.292
N8510 X-.196 Y-4.698 I-.5 J-7.281
N8515 G02 Y4.698 I.196 J4.698
N8520 G03 X0 Y4.709 I-.304 J7.292
N8525 G01 Z-1.75 F335.28
N8530 G02 X-.196 Y4.698 I-.5 J7.281 F1341.12
N8535 G03 Y-4.698 I.196 J-4.698
N8540 G02 X0 Y-4.709 I-.304 J-7.292
N8545 X.196 Y-4.698 I.5 J-7.281
N8550 G03 Y4.698 I-.196 J4.698
N8555 G02 X0 Y4.709 I.304 J7.292
N8560 G01 Z-2. F335.28
N8565 G03 X.196 Y4.698 I.5 J7.281 F1341.12
N8570 G02 Y-4.698 I-.196 J-4.698
N8575 G03 X0 Y-4.709 I.304 J-7.292
N8580 X-.196 Y-4.698 I-.5 J-7.281
N8585 G02 Y4.698 I.196 J4.698
N8590 G03 X0 Y4.709 I-.304 J7.292
N8595 G01 Z-2.25 F335.28
N8600 G02 X-.196 Y4.698 I-.5 J7.281 F1341.12
N8605 G03 Y-4.698 I.196 J-4.698
N8610 G02 X0 Y-4.709 I-.304 J-7.292
N8615 X.196 Y-4.698 I.5 J-7.281
N8620 G03 Y4.698 I-.196 J4.698
N8625 G02 X0 Y4.709 I.304 J7.292
N8630 G01 Z-2.5 F335.28
N8635 G03 X.196 Y4.698 I.5 J7.281 F1341.12
N8640 G02 Y-4.698 I-.196 J-4.698
N8645 G03 X0 Y-4.709 I.304 J-7.292
N8650 X-.196 Y-4.698 I-.5 J-7.281
N8655 G02 Y4.698 I.196 J4.698
N8660 G03 X0 Y4.709 I-.304 J7.292
N8665 G00 Z2.5
N8670 G90 G54 X0 Y4.909
N8675 G01 Z-.25 F335.28
N8680 G02 X-.204 Y4.898 I-.5 J7.08 F1341.12
N8685 G03 Y-4.898 I.204 J-4.898
N8690 G02 X0 Y-4.909 I-.296 J-7.092
N8695 X.204 Y-4.898 I.5 J-7.08
N8700 G03 Y4.898 I-.204 J4.898
N8705 G02 X0 Y4.909 I.296 J7.092
N8710 G01 Z-.5 F335.28
N8715 G03 X.204 Y4.898 I.5 J7.08 F1341.12
N8720 G02 Y-4.898 I-.204 J-4.898
N8725 G03 X0 Y-4.909 I.296 J-7.092
N8730 X-.204 Y-4.898 I-.5 J-7.08
N8735 G02 Y4.898 I.204 J4.898
N8740 G03 X0 Y4.909 I-.296 J7.092
N8745 G01 Z-.75 F335.28
N8750 G02 X-.204 Y4.898 I-.5 J7.08 F1341.12
N8755 G03 Y-4.898 I.204 J-4.898
N8760 G02 X0 Y-4.909 I-.296 J-7.092
N8765 X.204 Y-4.898 I.5 J-7.08
N8770 G03 Y4.898 I-.204 J4.898
N8775 G02 X0 Y4.909 I.296 J7.092
N8780 G01 Z-1. F335.28
N8785 G03 X.204 Y4.898 I.5 J7.08 F1341.12
N8790 G02 Y-4.898 I-.204 J-4.898
N8795 G03 X0 Y-4.909 I.296 J-7.092
N8800 X-.204 Y-4.898 I-.5 J-7.08
N8805 G02 Y4.898 I.204 J4.898
N8810 G03 X0 Y4.909 I-.296 J7.092
N8815 G01 Z-1.25 F335.28
N8820 G02 X-.204 Y4.898 I-.5 J7.08 F1341.12
N8825 G03 Y-4.898 I.204 J-4.898
N8830 G02 X0 Y-4.909 I-.296 J-7.092
N8835 X.204 Y-4.898 I.5 J-7.08
N8840 G03 Y4.898 I-.204 J4.898
N8845 G02 X0 Y4.909 I.296 J7.092
N8850 G01 Z-1.5 F335.28
N8855 G03 X.204 Y4.898 I.5 J7.08 F1341.12
N8860 G02 Y-4.898 I-.204 J-4.898
N8865 G03 X0 Y-4.909 I.296 J-7.092
N8870 X-.204 Y-4.898 I-.5 J-7.08
N8875 G02 Y4.898 I.204 J4.898
N8880 G03 X0 Y4.909 I-.296 J7.092
N8885 G01 Z-1.75 F335.28
N8890 G02 X-.204 Y4.898 I-.5 J7.08 F1341.12
N8895 G03 Y-4.898 I.204 J-4.898
N8900 G02 X0 Y-4.909 I-.296 J-7.092
N8905 X.204 Y-4.898 I.5 J-7.08
N8910 G03 Y4.898 I-.204 J4.898
N8915 G02 X0 Y4.909 I.296 J7.092
N8920 G01 Z-2. F335.28
N8925 G03 X.204 Y4.898 I.5 J7.08 F1341.12
N8930 G02 Y-4.898 I-.204 J-4.898
N8935 G03 X0 Y-4.909 I.296 J-7.092
N8940 X-.204 Y-4.898 I-.5 J-7.08
N8945 G02 Y4.898 I.204 J4.898
N8950 G03 X0 Y4.909 I-.296 J7.092
N8955 G01 Z-2.25 F335.28
N8960 G02 X-.204 Y4.898 I-.5 J7.08 F1341.12
N8965 G03 Y-4.898 I.204 J-4.898
N8970 G02 X0 Y-4.909 I-.296 J-7.092
N8975 X.204 Y-4.898 I.5 J-7.08
N8980 G03 Y4.898 I-.204 J4.898
N8985 G02 X0 Y4.909 I.296 J7.092
N8990 G01 Z-2.5 F335.28
N8995 G03 X.204 Y4.898 I.5 J7.08 F1341.12
N9000 G02 Y-4.898 I-.204 J-4.898
N9005 G03 X0 Y-4.909 I.296 J-7.092
N9010 X-.204 Y-4.898 I-.5 J-7.08
N9015 G02 Y4.898 I.204 J4.898
N9020 G03 X0 Y4.909 I-.296 J7.092
N9025 G00 Z2.5
N9030 G90 G54 X0 Y5.11
N9035 G01 Z-.25 F335.28
N9040 G02 X-.213 Y5.098 I-.5 J6.88 F1341.12
N9045 G03 Y-5.098 I.213 J-5.098
N9050 G02 X0 Y-5.11 I-.287 J-6.892
N9055 X.213 Y-5.098 I.5 J-6.88
N9060 G03 Y5.098 I-.213 J5.098
N9065 G02 X0 Y5.11 I.287 J6.892
N9070 G01 Z-.5 F335.28
N9075 G03 X.213 Y5.098 I.5 J6.88 F1341.12
N9080 G02 Y-5.098 I-.213 J-5.098
N9085 G03 X0 Y-5.11 I.287 J-6.892
N9090 X-.213 Y-5.098 I-.5 J-6.88
N9095 G02 Y5.098 I.213 J5.098
N9100 G03 X0 Y5.11 I-.287 J6.892
N9105 G01 Z-.75 F335.28
N9110 G02 X-.213 Y5.098 I-.5 J6.88 F1341.12
N9115 G03 Y-5.098 I.213 J-5.098
N9120 G02 X0 Y-5.11 I-.287 J-6.892
N9125 X.213 Y-5.098 I.5 J-6.88
N9130 G03 Y5.098 I-.213 J5.098
N9135 G02 X0 Y5.11 I.287 J6.892
N9140 G01 Z-1. F335.28
N9145 G03 X.213 Y5.098 I.5 J6.88 F1341.12
N9150 G02 Y-5.098 I-.213 J-5.098
N9155 G03 X0 Y-5.11 I.287 J-6.892
N9160 X-.213 Y-5.098 I-.5 J-6.88
N9165 G02 Y5.098 I.213 J5.098
N9170 G03 X0 Y5.11 I-.287 J6.892
N9175 G01 Z-1.25 F335.28
N9180 G02 X-.213 Y5.098 I-.5 J6.88 F1341.12
N9185 G03 Y-5.098 I.213 J-5.098
N9190 G02 X0 Y-5.11 I-.287 J-6.892
N9195 X.213 Y-5.098 I.5 J-6.88
N9200 G03 Y5.098 I-.213 J5.098
N9205 G02 X0 Y5.11 I.287 J6.892
N9210 G01 Z-1.5 F335.28
N9215 G03 X.213 Y5.098 I.5 J6.88 F1341.12
N9220 G02 Y-5.098 I-.213 J-5.098
N9225 G03 X0 Y-5.11 I.287 J-6.892
N9230 X-.213 Y-5.098 I-.5 J-6.88
N9235 G02 Y5.098 I.213 J5.098
N9240 G03 X0 Y5.11 I-.287 J6.892
N9245 G01 Z-1.75 F335.28
N9250 G02 X-.213 Y5.098 I-.5 J6.88 F1341.12
N9255 G03 Y-5.098 I.213 J-5.098
N9260 G02 X0 Y-5.11 I-.287 J-6.892
N9265 X.213 Y-5.098 I.5 J-6.88
N9270 G03 Y5.098 I-.213 J5.098
N9275 G02 X0 Y5.11 I.287 J6.892
N9280 G01 Z-2. F335.28
N9285 G03 X.213 Y5.098 I.5 J6.88 F1341.12
N9290 G02 Y-5.098 I-.213 J-5.098
N9295 G03 X0 Y-5.11 I.287 J-6.892
N9300 X-.213 Y-5.098 I-.5 J-6.88
N9305 G02 Y5.098 I.213 J5.098
N9310 G03 X0 Y5.11 I-.287 J6.892
N9315 G01 Z-2.25 F335.28
N9320 G02 X-.213 Y5.098 I-.5 J6.88 F1341.12
N9325 G03 Y-5.098 I.213 J-5.098
N9330 G02 X0 Y-5.11 I-.287 J-6.892
N9335 X.213 Y-5.098 I.5 J-6.88
N9340 G03 Y5.098 I-.213 J5.098
N9345 G02 X0 Y5.11 I.287 J6.892
N9350 G01 Z-2.5 F335.28
N9355 G03 X.213 Y5.098 I.5 J6.88 F1341.12
N9360 G02 Y-5.098 I-.213 J-5.098
N9365 G03 X0 Y-5.11 I.287 J-6.892
N9370 X-.213 Y-5.098 I-.5 J-6.88
N9375 G02 Y5.098 I.213 J5.098
N9380 G03 X0 Y5.11 I-.287 J6.892
N9385 G00 Z2.5
N9390 G90 G54 X0 Y5.31
N9395 G01 Z-.25 F335.28
N9400 G02 X-.221 Y5.297 I-.5 J6.679 F1341.12
N9405 G03 Y-5.297 I.221 J-5.297
N9410 G02 X0 Y-5.31 I-.279 J-6.692
N9415 X.221 Y-5.297 I.5 J-6.679
N9420 G03 Y5.297 I-.221 J5.297
N9425 G02 X0 Y5.31 I.279 J6.692
N9430 G01 Z-.5 F335.28
N9435 G03 X.221 Y5.297 I.5 J6.679 F1341.12
N9440 G02 Y-5.297 I-.221 J-5.297
N9445 G03 X0 Y-5.31 I.279 J-6.692
N9450 X-.221 Y-5.297 I-.5 J-6.679
N9455 G02 Y5.297 I.221 J5.297
N9460 G03 X0 Y5.31 I-.279 J6.692
N9465 G01 Z-.75 F335.28
N9470 G02 X-.221 Y5.297 I-.5 J6.679 F1341.12
N9475 G03 Y-5.297 I.221 J-5.297
N9480 G02 X0 Y-5.31 I-.279 J-6.692
N9485 X.221 Y-5.297 I.5 J-6.679
N9490 G03 Y5.297 I-.221 J5.297
N9495 G02 X0 Y5.31 I.279 J6.692
N9500 G01 Z-1. F335.28
N9505 G03 X.221 Y5.297 I.5 J6.679 F1341.12
N9510 G02 Y-5.297 I-.221 J-5.297
N9515 G03 X0 Y-5.31 I.279 J-6.692
N9520 X-.221 Y-5.297 I-.5 J-6.679
N9525 G02 Y5.297 I.221 J5.297
N9530 G03 X0 Y5.31 I-.279 J6.692
N9535 G01 Z-1.25 F335.28
N9540 G02 X-.221 Y5.297 I-.5 J6.679 F1341.12
N9545 G03 Y-5.297 I.221 J-5.297
N9550 G02 X0 Y-5.31 I-.279 J-6.692
N9555 X.221 Y-5.297 I.5 J-6.679
N9560 G03 Y5.297 I-.221 J5.297
N9565 G02 X0 Y5.31 I.279 J6.692
N9570 G01 Z-1.5 F335.28
N9575 G03 X.221 Y5.297 I.5 J6.679 F1341.12
N9580 G02 Y-5.297 I-.221 J-5.297
N9585 G03 X0 Y-5.31 I.279 J-6.692
N9590 X-.221 Y-5.297 I-.5 J-6.679
N9595 G02 Y5.297 I.221 J5.297
N9600 G03 X0 Y5.31 I-.279 J6.692
N9605 G01 Z-1.75 F335.28
N9610 G02 X-.221 Y5.297 I-.5 J6.679 F1341.12
N9615 G03 Y-5.297 I.221 J-5.297
N9620 G02 X0 Y-5.31 I-.279 J-6.692
N9625 X.221 Y-5.297 I.5 J-6.679
N9630 G03 Y5.297 I-.221 J5.297
N9635 G02 X0 Y5.31 I.279 J6.692
N9640 G01 Z-2. F335.28
N9645 G03 X.221 Y5.297 I.5 J6.679 F1341.12
N9650 G02 Y-5.297 I-.221 J-5.297
N9655 G03 X0 Y-5.31 I.279 J-6.692
N9660 X-.221 Y-5.297 I-.5 J-6.679
N9665 G02 Y5.297 I.221 J5.297
N9670 G03 X0 Y5.31 I-.279 J6.692
N9675 G01 Z-2.25 F335.28
N9680 G02 X-.221 Y5.297 I-.5 J6.679 F1341.12
N9685 G03 Y-5.297 I.221 J-5.297
N9690 G02 X0 Y-5.31 I-.279 J-6.692
N9695 X.221 Y-5.297 I.5 J-6.679
N9700 G03 Y5.297 I-.221 J5.297
N9705 G02 X0 Y5.31 I.279 J6.692
N9710 G01 Z-2.5 F335.28
N9715 G03 X.221 Y5.297 I.5 J6.679 F1341.12
N9720 G02 Y-5.297 I-.221 J-5.297
N9725 G03 X0 Y-5.31 I.279 J-6.692
N9730 X-.221 Y-5.297 I-.5 J-6.679
N9735 G02 Y5.297 I.221 J5.297
N9740 G03 X0 Y5.31 I-.279 J6.692
N9745 G00 Z2.5
N9750 G90 G54 X0 Y5.511
N9755 G01 Z-.25 F335.28
N9760 G02 X-.229 Y5.497 I-.5 J6.479 F1341.12
N9765 G03 Y-5.497 I.229 J-5.497
N9770 G02 X0 Y-5.511 I-.271 J-6.492
N9775 X.229 Y-5.497 I.5 J-6.479
N9780 G03 Y5.497 I-.229 J5.497
N9785 G02 X0 Y5.511 I.271 J6.492
N9790 G01 Z-.5 F335.28
N9795 G03 X.229 Y5.497 I.5 J6.479 F1341.12
N9800 G02 Y-5.497 I-.229 J-5.497
N9805 G03 X0 Y-5.511 I.271 J-6.492
N9810 X-.229 Y-5.497 I-.5 J-6.479
N9815 G02 Y5.497 I.229 J5.497
N9820 G03 X0 Y5.511 I-.271 J6.492
N9825 G01 Z-.75 F335.28
N9830 G02 X-.229 Y5.497 I-.5 J6.479 F1341.12
N9835 G03 Y-5.497 I.229 J-5.497
N9840 G02 X0 Y-5.511 I-.271 J-6.492
N9845 X.229 Y-5.497 I.5 J-6.479
N9850 G03 Y5.497 I-.229 J5.497
N9855 G02 X0 Y5.511 I.271 J6.492
N9860 G01 Z-1. F335.28
N9865 G03 X.229 Y5.497 I.5 J6.479 F1341.12
N9870 G02 Y-5.497 I-.229 J-5.497
N9875 G03 X0 Y-5.511 I.271 J-6.492
N9880 X-.229 Y-5.497 I-.5 J-6.479
N9885 G02 Y5.497 I.229 J5.497
N9890 G03 X0 Y5.511 I-.271 J6.492
N9895 G01 Z-1.25 F335.28
N9900 G02 X-.229 Y5.497 I-.5 J6.479 F1341.12
N9905 G03 Y-5.497 I.229 J-5.497
N9910 G02 X0 Y-5.511 I-.271 J-6.492
N9915 X.229 Y-5.497 I.5 J-6.479
N9920 G03 Y5.497 I-.229 J5.497
N9925 G02 X0 Y5.511 I.271 J6.492
N9930 G01 Z-1.5 F335.28
N9935 G03 X.229 Y5.497 I.5 J6.479 F1341.12
N9940 G02 Y-5.497 I-.229 J-5.497
N9945 G03 X0 Y-5.511 I.271 J-6.492
N9950 X-.229 Y-5.497 I-.5 J-6.479
N9955 G02 Y5.497 I.229 J5.497
N9960 G03 X0 Y5.511 I-.271 J6.492
N9965 G01 Z-1.75 F335.28
N9970 G02 X-.229 Y5.497 I-.5 J6.479 F1341.12
N9975 G03 Y-5.497 I.229 J-5.497
N9980 G02 X0 Y-5.511 I-.271 J-6.492
N9985 X.229 Y-5.497 I.5 J-6.479
N9990 G03 Y5.497 I-.229 J5.497
N9995 G02 X0 Y5.511 I.271 J6.492
N5 G01 Z-2. F335.28
N10 G03 X.229 Y5.497 I.5 J6.479 F1341.12
N15 G02 Y-5.497 I-.229 J-5.497
N20 G03 X0 Y-5.511 I.271 J-6.492
N25 X-.229 Y-5.497 I-.5 J-6.479
N30 G02 Y5.497 I.229 J5.497
N35 G03 X0 Y5.511 I-.271 J6.492
N40 G01 Z-2.25 F335.28
N45 G02 X-.229 Y5.497 I-.5 J6.479 F1341.12
N50 G03 Y-5.497 I.229 J-5.497
N55 G02 X0 Y-5.511 I-.271 J-6.492
N60 X.229 Y-5.497 I.5 J-6.479
N65 G03 Y5.497 I-.229 J5.497
N70 G02 X0 Y5.511 I.271 J6.492
N75 G01 Z-2.5 F335.28
N80 G03 X.229 Y5.497 I.5 J6.479 F1341.12
N85 G02 Y-5.497 I-.229 J-5.497
N90 G03 X0 Y-5.511 I.271 J-6.492
N95 X-.229 Y-5.497 I-.5 J-6.479
N100 G02 Y5.497 I.229 J5.497
N105 G03 X0 Y5.511 I-.271 J6.492
N110 G00 Z2.5
N115 G90 G54 X0 Y5.711
N120 G01 Z-.25 F335.28
N125 G02 X-.238 Y5.697 I-.5 J6.278 F1341.12
N130 G03 Y-5.697 I.238 J-5.697
N135 G02 X0 Y-5.711 I-.262 J-6.293
N140 X.238 Y-5.697 I.5 J-6.278
N145 G03 Y5.697 I-.238 J5.697
N150 G02 X0 Y5.711 I.262 J6.293
N155 G01 Z-.5 F335.28
N160 G03 X.238 Y5.697 I.5 J6.278 F1341.12
N165 G02 Y-5.697 I-.238 J-5.697
N170 G03 X0 Y-5.711 I.262 J-6.293
N175 X-.238 Y-5.697 I-.5 J-6.278
N180 G02 Y5.697 I.238 J5.697
N185 G03 X0 Y5.711 I-.262 J6.293
N190 G01 Z-.75 F335.28
N195 G02 X-.238 Y5.697 I-.5 J6.278 F1341.12
N200 G03 Y-5.697 I.238 J-5.697
N205 G02 X0 Y-5.711 I-.262 J-6.293
N210 X.238 Y-5.697 I.5 J-6.278
N215 G03 Y5.697 I-.238 J5.697
N220 G02 X0 Y5.711 I.262 J6.293
N225 G01 Z-1. F335.28
N230 G03 X.238 Y5.697 I.5 J6.278 F1341.12
N235 G02 Y-5.697 I-.238 J-5.697
N240 G03 X0 Y-5.711 I.262 J-6.293
N245 X-.238 Y-5.697 I-.5 J-6.278
N250 G02 Y5.697 I.238 J5.697
N255 G03 X0 Y5.711 I-.262 J6.293
N260 G01 Z-1.25 F335.28
N265 G02 X-.238 Y5.697 I-.5 J6.278 F1341.12
N270 G03 Y-5.697 I.238 J-5.697
N275 G02 X0 Y-5.711 I-.262 J-6.293
N280 X.238 Y-5.697 I.5 J-6.278
N285 G03 Y5.697 I-.238 J5.697
N290 G02 X0 Y5.711 I.262 J6.293
N295 G01 Z-1.5 F335.28
N300 G03 X.238 Y5.697 I.5 J6.278 F1341.12
N305 G02 Y-5.697 I-.238 J-5.697
N310 G03 X0 Y-5.711 I.262 J-6.293
N315 X-.238 Y-5.697 I-.5 J-6.278
N320 G02 Y5.697 I.238 J5.697
N325 G03 X0 Y5.711 I-.262 J6.293
N330 G01 Z-1.75 F335.28
N335 G02 X-.238 Y5.697 I-.5 J6.278 F1341.12
N340 G03 Y-5.697 I.238 J-5.697
N345 G02 X0 Y-5.711 I-.262 J-6.293
N350 X.238 Y-5.697 I.5 J-6.278
N355 G03 Y5.697 I-.238 J5.697
N360 G02 X0 Y5.711 I.262 J6.293
N365 G01 Z-2. F335.28
N370 G03 X.238 Y5.697 I.5 J6.278 F1341.12
N375 G02 Y-5.697 I-.238 J-5.697
N380 G03 X0 Y-5.711 I.262 J-6.293
N385 X-.238 Y-5.697 I-.5 J-6.278
N390 G02 Y5.697 I.238 J5.697
N395 G03 X0 Y5.711 I-.262 J6.293
N400 G01 Z-2.25 F335.28
N405 G02 X-.238 Y5.697 I-.5 J6.278 F1341.12
N410 G03 Y-5.697 I.238 J-5.697
N415 G02 X0 Y-5.711 I-.262 J-6.293
N420 X.238 Y-5.697 I.5 J-6.278
N425 G03 Y5.697 I-.238 J5.697
N430 G02 X0 Y5.711 I.262 J6.293
N435 G01 Z-2.5 F335.28
N440 G03 X.238 Y5.697 I.5 J6.278 F1341.12
N445 G02 Y-5.697 I-.238 J-5.697
N450 G03 X0 Y-5.711 I.262 J-6.293
N455 X-.238 Y-5.697 I-.5 J-6.278
N460 G02 Y5.697 I.238 J5.697
N465 G03 X0 Y5.711 I-.262 J6.293
N470 G00 Z2.5
N475 G90 G54 X0 Y5.912
N480 G01 Z-.25 F335.28
N485 G02 X-.246 Y5.897 I-.5 J6.078 F1341.12
N490 G03 Y-5.897 I.246 J-5.897
N495 G02 X0 Y-5.912 I-.254 J-6.093
N500 X.246 Y-5.897 I.5 J-6.078
N505 G03 Y5.897 I-.246 J5.897
N510 G02 X0 Y5.912 I.254 J6.093
N515 G01 Z-.5 F335.28
N520 G03 X.246 Y5.897 I.5 J6.078 F1341.12
N525 G02 Y-5.897 I-.246 J-5.897
N530 G03 X0 Y-5.912 I.254 J-6.093
N535 X-.246 Y-5.897 I-.5 J-6.078
N540 G02 Y5.897 I.246 J5.897
N545 G03 X0 Y5.912 I-.254 J6.093
N550 G01 Z-.75 F335.28
N555 G02 X-.246 Y5.897 I-.5 J6.078 F1341.12
N560 G03 Y-5.897 I.246 J-5.897
N565 G02 X0 Y-5.912 I-.254 J-6.093
N570 X.246 Y-5.897 I.5 J-6.078
N575 G03 Y5.897 I-.246 J5.897
N580 G02 X0 Y5.912 I.254 J6.093
N585 G01 Z-1. F335.28
N590 G03 X.246 Y5.897 I.5 J6.078 F1341.12
N595 G02 Y-5.897 I-.246 J-5.897
N600 G03 X0 Y-5.912 I.254 J-6.093
N605 X-.246 Y-5.897 I-.5 J-6.078
N610 G02 Y5.897 I.246 J5.897
N615 G03 X0 Y5.912 I-.254 J6.093
N620 G01 Z-1.25 F335.28
N625 G02 X-.246 Y5.897 I-.5 J6.078 F1341.12
N630 G03 Y-5.897 I.246 J-5.897
N635 G02 X0 Y-5.912 I-.254 J-6.093
N640 X.246 Y-5.897 I.5 J-6.078
N645 G03 Y5.897 I-.246 J5.897
N650 G02 X0 Y5.912 I.254 J6.093
N655 G01 Z-1.5 F335.28
N660 G03 X.246 Y5.897 I.5 J6.078 F1341.12
N665 G02 Y-5.897 I-.246 J-5.897
N670 G03 X0 Y-5.912 I.254 J-6.093
N675 X-.246 Y-5.897 I-.5 J-6.078
N680 G02 Y5.897 I.246 J5.897
N685 G03 X0 Y5.912 I-.254 J6.093
N690 G01 Z-1.75 F335.28
N695 G02 X-.246 Y5.897 I-.5 J6.078 F1341.12
N700 G03 Y-5.897 I.246 J-5.897
N705 G02 X0 Y-5.912 I-.254 J-6.093
N710 X.246 Y-5.897 I.5 J-6.078
N715 G03 Y5.897 I-.246 J5.897
N720 G02 X0 Y5.912 I.254 J6.093
N725 G01 Z-2. F335.28
N730 G03 X.246 Y5.897 I.5 J6.078 F1341.12
N735 G02 Y-5.897 I-.246 J-5.897
N740 G03 X0 Y-5.912 I.254 J-6.093
N745 X-.246 Y-5.897 I-.5 J-6.078
N750 G02 Y5.897 I.246 J5.897
N755 G03 X0 Y5.912 I-.254 J6.093
N760 G01 Z-2.25 F335.28
N765 G02 X-.246 Y5.897 I-.5 J6.078 F1341.12
N770 G03 Y-5.897 I.246 J-5.897
N775 G02 X0 Y-5.912 I-.254 J-6.093
N780 X.246 Y-5.897 I.5 J-6.078
N785 G03 Y5.897 I-.246 J5.897
N790 G02 X0 Y5.912 I.254 J6.093
N795 G01 Z-2.5 F335.28
N800 G03 X.246 Y5.897 I.5 J6.078 F1341.12
N805 G02 Y-5.897 I-.246 J-5.897
N810 G03 X0 Y-5.912 I.254 J-6.093
N815 X-.246 Y-5.897 I-.5 J-6.078
N820 G02 Y5.897 I.246 J5.897
N825 G03 X0 Y5.912 I-.254 J6.093
N830 G00 Z2.5
N835 G90 G54 X0 Y6.113
N840 G01 Z-.25 F335.28
N845 G02 X-.254 Y6.096 I-.5 J5.877 F1341.12
N850 G03 Y-6.096 I.254 J-6.096
N855 G02 X0 Y-6.113 I-.246 J-5.893
N860 X.254 Y-6.096 I.5 J-5.877
N865 G03 Y6.096 I-.254 J6.096
N870 G02 X0 Y6.113 I.246 J5.893
N875 G01 Z-.5 F335.28
N880 G03 X.254 Y6.096 I.5 J5.877 F1341.12
N885 G02 Y-6.096 I-.254 J-6.096
N890 G03 X0 Y-6.113 I.246 J-5.893
N895 X-.254 Y-6.096 I-.5 J-5.877
N900 G02 Y6.096 I.254 J6.096
N905 G03 X0 Y6.113 I-.246 J5.893
N910 G01 Z-.75 F335.28
N915 G02 X-.254 Y6.096 I-.5 J5.877 F1341.12
N920 G03 Y-6.096 I.254 J-6.096
N925 G02 X0 Y-6.113 I-.246 J-5.893
N930 X.254 Y-6.096 I.5 J-5.877
N935 G03 Y6.096 I-.254 J6.096
N940 G02 X0 Y6.113 I.246 J5.893
N945 G01 Z-1. F335.28
N950 G03 X.254 Y6.096 I.5 J5.877 F1341.12
N955 G02 Y-6.096 I-.254 J-6.096
N960 G03 X0 Y-6.113 I.246 J-5.893
N965 X-.254 Y-6.096 I-.5 J-5.877
N970 G02 Y6.096 I.254 J6.096
N975 G03 X0 Y6.113 I-.246 J5.893
N980 G01 Z-1.25 F335.28
N985 G02 X-.254 Y6.096 I-.5 J5.877 F1341.12
N990 G03 Y-6.096 I.254 J-6.096
N995 G02 X0 Y-6.113 I-.246 J-5.893
N1000 X.254 Y-6.096 I.5 J-5.877
N1005 G03 Y6.096 I-.254 J6.096
N1010 G02 X0 Y6.113 I.246 J5.893
N1015 G01 Z-1.5 F335.28
N1020 G03 X.254 Y6.096 I.5 J5.877 F1341.12
N1025 G02 Y-6.096 I-.254 J-6.096
N1030 G03 X0 Y-6.113 I.246 J-5.893
N1035 X-.254 Y-6.096 I-.5 J-5.877
N1040 G02 Y6.096 I.254 J6.096
N1045 G03 X0 Y6.113 I-.246 J5.893
N1050 G01 Z-1.75 F335.28
N1055 G02 X-.254 Y6.096 I-.5 J5.877 F1341.12
N1060 G03 Y-6.096 I.254 J-6.096
N1065 G02 X0 Y-6.113 I-.246 J-5.893
N1070 X.254 Y-6.096 I.5 J-5.877
N1075 G03 Y6.096 I-.254 J6.096
N1080 G02 X0 Y6.113 I.246 J5.893
N1085 G01 Z-2. F335.28
N1090 G03 X.254 Y6.096 I.5 J5.877 F1341.12
N1095 G02 Y-6.096 I-.254 J-6.096
N1100 G03 X0 Y-6.113 I.246 J-5.893
N1105 X-.254 Y-6.096 I-.5 J-5.877
N1110 G02 Y6.096 I.254 J6.096
N1115 G03 X0 Y6.113 I-.246 J5.893
N1120 G01 Z-2.25 F335.28
N1125 G02 X-.254 Y6.096 I-.5 J5.877 F1341.12
N1130 G03 Y-6.096 I.254 J-6.096
N1135 G02 X0 Y-6.113 I-.246 J-5.893
N1140 X.254 Y-6.096 I.5 J-5.877
N1145 G03 Y6.096 I-.254 J6.096
N1150 G02 X0 Y6.113 I.246 J5.893
N1155 G01 Z-2.5 F335.28
N1160 G03 X.254 Y6.096 I.5 J5.877 F1341.12
N1165 G02 Y-6.096 I-.254 J-6.096
N1170 G03 X0 Y-6.113 I.246 J-5.893
N1175 X-.254 Y-6.096 I-.5 J-5.877
N1180 G02 Y6.096 I.254 J6.096
N1185 G03 X0 Y6.113 I-.246 J5.893
N1190 G00 Z2.5
N1195 G90 G54 X0 Y6.313
N1200 G01 Z-.25 F335.28
N1205 G02 X-.263 Y6.296 I-.5 J5.676 F1341.12
N1210 G03 Y-6.296 I.263 J-6.296
N1215 G02 X0 Y-6.313 I-.237 J-5.693
N1220 X.263 Y-6.296 I.5 J-5.676
N1225 G03 Y6.296 I-.263 J6.296
N1230 G02 X0 Y6.313 I.237 J5.693
N1235 G01 Z-.5 F335.28
N1240 G03 X.263 Y6.296 I.5 J5.676 F1341.12
N1245 G02 Y-6.296 I-.263 J-6.296
N1250 G03 X0 Y-6.313 I.237 J-5.693
N1255 X-.263 Y-6.296 I-.5 J-5.676
N1260 G02 Y6.296 I.263 J6.296
N1265 G03 X0 Y6.313 I-.237 J5.693
N1270 G01 Z-.75 F335.28
N1275 G02 X-.263 Y6.296 I-.5 J5.676 F1341.12
N1280 G03 Y-6.296 I.263 J-6.296
N1285 G02 X0 Y-6.313 I-.237 J-5.693
N1290 X.263 Y-6.296 I.5 J-5.676
N1295 G03 Y6.296 I-.263 J6.296
N1300 G02 X0 Y6.313 I.237 J5.693
N1305 G01 Z-1. F335.28
N1310 G03 X.263 Y6.296 I.5 J5.676 F1341.12
N1315 G02 Y-6.296 I-.263 J-6.296
N1320 G03 X0 Y-6.313 I.237 J-5.693
N1325 X-.263 Y-6.296 I-.5 J-5.676
N1330 G02 Y6.296 I.263 J6.296
N1335 G03 X0 Y6.313 I-.237 J5.693
N1340 G01 Z-1.25 F335.28
N1345 G02 X-.263 Y6.296 I-.5 J5.676 F1341.12
N1350 G03 Y-6.296 I.263 J-6.296
N1355 G02 X0 Y-6.313 I-.237 J-5.693
N1360 X.263 Y-6.296 I.5 J-5.676
N1365 G03 Y6.296 I-.263 J6.296
N1370 G02 X0 Y6.313 I.237 J5.693
N1375 G01 Z-1.5 F335.28
N1380 G03 X.263 Y6.296 I.5 J5.676 F1341.12
N1385 G02 Y-6.296 I-.263 J-6.296
N1390 G03 X0 Y-6.313 I.237 J-5.693
N1395 X-.263 Y-6.296 I-.5 J-5.676
N1400 G02 Y6.296 I.263 J6.296
N1405 G03 X0 Y6.313 I-.237 J5.693
N1410 G01 Z-1.75 F335.28
N1415 G02 X-.263 Y6.296 I-.5 J5.676 F1341.12
N1420 G03 Y-6.296 I.263 J-6.296
N1425 G02 X0 Y-6.313 I-.237 J-5.693
N1430 X.263 Y-6.296 I.5 J-5.676
N1435 G03 Y6.296 I-.263 J6.296
N1440 G02 X0 Y6.313 I.237 J5.693
N1445 G01 Z-2. F335.28
N1450 G03 X.263 Y6.296 I.5 J5.676 F1341.12
N1455 G02 Y-6.296 I-.263 J-6.296
N1460 G03 X0 Y-6.313 I.237 J-5.693
N1465 X-.263 Y-6.296 I-.5 J-5.676
N1470 G02 Y6.296 I.263 J6.296
N1475 G03 X0 Y6.313 I-.237 J5.693
N1480 G01 Z-2.25 F335.28
N1485 G02 X-.263 Y6.296 I-.5 J5.676 F1341.12
N1490 G03 Y-6.296 I.263 J-6.296
N1495 G02 X0 Y-6.313 I-.237 J-5.693
N1500 X.263 Y-6.296 I.5 J-5.676
N1505 G03 Y6.296 I-.263 J6.296
N1510 G02 X0 Y6.313 I.237 J5.693
N1515 G01 Z-2.5 F335.28
N1520 G03 X.263 Y6.296 I.5 J5.676 F1341.12
N1525 G02 Y-6.296 I-.263 J-6.296
N1530 G03 X0 Y-6.313 I.237 J-5.693
N1535 X-.263 Y-6.296 I-.5 J-5.676
N1540 G02 Y6.296 I.263 J6.296
N1545 G03 X0 Y6.313 I-.237 J5.693
N1550 G00 Z2.5
N1555 G90 G54 X0 Y6.514
N1560 G01 Z-.25 F335.28
N1565 G02 X-.271 Y6.496 I-.5 J5.476 F1341.12
N1570 G03 Y-6.496 I.271 J-6.496
N1575 G02 X0 Y-6.514 I-.229 J-5.494
N1580 X.271 Y-6.496 I.5 J-5.476
N1585 G03 Y6.496 I-.271 J6.496
N1590 G02 X0 Y6.514 I.229 J5.494
N1595 G01 Z-.5 F335.28
N1600 G03 X.271 Y6.496 I.5 J5.476 F1341.12
N1605 G02 Y-6.496 I-.271 J-6.496
N1610 G03 X0 Y-6.514 I.229 J-5.494
N1615 X-.271 Y-6.496 I-.5 J-5.476
N1620 G02 Y6.496 I.271 J6.496
N1625 G03 X0 Y6.514 I-.229 J5.494
N1630 G01 Z-.75 F335.28
N1635 G02 X-.271 Y6.496 I-.5 J5.476 F1341.12
N1640 G03 Y-6.496 I.271 J-6.496
N1645 G02 X0 Y-6.514 I-.229 J-5.494
N1650 X.271 Y-6.496 I.5 J-5.476
N1655 G03 Y6.496 I-.271 J6.496
N1660 G02 X0 Y6.514 I.229 J5.494
N1665 G01 Z-1. F335.28
N1670 G03 X.271 Y6.496 I.5 J5.476 F1341.12
N1675 G02 Y-6.496 I-.271 J-6.496
N1680 G03 X0 Y-6.514 I.229 J-5.494
N1685 X-.271 Y-6.496 I-.5 J-5.476
N1690 G02 Y6.496 I.271 J6.496
N1695 G03 X0 Y6.514 I-.229 J5.494
N1700 G01 Z-1.25 F335.28
N1705 G02 X-.271 Y6.496 I-.5 J5.476 F1341.12
N1710 G03 Y-6.496 I.271 J-6.496
N1715 G02 X0 Y-6.514 I-.229 J-5.494
N1720 X.271 Y-6.496 I.5 J-5.476
N1725 G03 Y6.496 I-.271 J6.496
N1730 G02 X0 Y6.514 I.229 J5.494
N1735 G01 Z-1.5 F335.28
N1740 G03 X.271 Y6.496 I.5 J5.476 F1341.12
N1745 G02 Y-6.496 I-.271 J-6.496
N1750 G03 X0 Y-6.514 I.229 J-5.494
N1755 X-.271 Y-6.496 I-.5 J-5.476
N1760 G02 Y6.496 I.271 J6.496
N1765 G03 X0 Y6.514 I-.229 J5.494
N1770 G01 Z-1.75 F335.28
N1775 G02 X-.271 Y6.496 I-.5 J5.476 F1341.12
N1780 G03 Y-6.496 I.271 J-6.496
N1785 G02 X0 Y-6.514 I-.229 J-5.494
N1790 X.271 Y-6.496 I.5 J-5.476
N1795 G03 Y6.496 I-.271 J6.496
N1800 G02 X0 Y6.514 I.229 J5.494
N1805 G01 Z-2. F335.28
N1810 G03 X.271 Y6.496 I.5 J5.476 F1341.12
N1815 G02 Y-6.496 I-.271 J-6.496
N1820 G03 X0 Y-6.514 I.229 J-5.494
N1825 X-.271 Y-6.496 I-.5 J-5.476
N1830 G02 Y6.496 I.271 J6.496
N1835 G03 X0 Y6.514 I-.229 J5.494
N1840 G01 Z-2.25 F335.28
N1845 G02 X-.271 Y6.496 I-.5 J5.476 F1341.12
N1850 G03 Y-6.496 I.271 J-6.496
N1855 G02 X0 Y-6.514 I-.229 J-5.494
N1860 X.271 Y-6.496 I.5 J-5.476
N1865 G03 Y6.496 I-.271 J6.496
N1870 G02 X0 Y6.514 I.229 J5.494
N1875 G01 Z-2.5 F335.28
N1880 G03 X.271 Y6.496 I.5 J5.476 F1341.12
N1885 G02 Y-6.496 I-.271 J-6.496
N1890 G03 X0 Y-6.514 I.229 J-5.494
N1895 X-.271 Y-6.496 I-.5 J-5.476
N1900 G02 Y6.496 I.271 J6.496
N1905 G03 X0 Y6.514 I-.229 J5.494
N1910 G00 Z2.5
N1915 G90 G54 X0 Y6.715
N1920 G01 Z-.25 F335.28
N1925 G02 X-.279 Y6.696 I-.5 J5.275 F1341.12
N1930 G03 Y-6.696 I.279 J-6.696
N1935 G02 X0 Y-6.715 I-.221 J-5.294
N1940 X.279 Y-6.696 I.5 J-5.275
N1945 G03 Y6.696 I-.279 J6.696
N1950 G02 X0 Y6.715 I.221 J5.294
N1955 G01 Z-.5 F335.28
N1960 G03 X.279 Y6.696 I.5 J5.275 F1341.12
N1965 G02 Y-6.696 I-.279 J-6.696
N1970 G03 X0 Y-6.715 I.221 J-5.294
N1975 X-.279 Y-6.696 I-.5 J-5.275
N1980 G02 Y6.696 I.279 J6.696
N1985 G03 X0 Y6.715 I-.221 J5.294
N1990 G01 Z-.75 F335.28
N1995 G02 X-.279 Y6.696 I-.5 J5.275 F1341.12
N2000 G03 Y-6.696 I.279 J-6.696
N2005 G02 X0 Y-6.715 I-.221 J-5.294
N2010 X.279 Y-6.696 I.5 J-5.275
N2015 G03 Y6.696 I-.279 J6.696
N2020 G02 X0 Y6.715 I.221 J5.294
N2025 G01 Z-1. F335.28
N2030 G03 X.279 Y6.696 I.5 J5.275 F1341.12
N2035 G02 Y-6.696 I-.279 J-6.696
N2040 G03 X0 Y-6.715 I.221 J-5.294
N2045 X-.279 Y-6.696 I-.5 J-5.275
N2050 G02 Y6.696 I.279 J6.696
N2055 G03 X0 Y6.715 I-.221 J5.294
N2060 G01 Z-1.25 F335.28
N2065 G02 X-.279 Y6.696 I-.5 J5.275 F1341.12
N2070 G03 Y-6.696 I.279 J-6.696
N2075 G02 X0 Y-6.715 I-.221 J-5.294
N2080 X.279 Y-6.696 I.5 J-5.275
N2085 G03 Y6.696 I-.279 J6.696
N2090 G02 X0 Y6.715 I.221 J5.294
N2095 G01 Z-1.5 F335.28
N2100 G03 X.279 Y6.696 I.5 J5.275 F1341.12
N2105 G02 Y-6.696 I-.279 J-6.696
N2110 G03 X0 Y-6.715 I.221 J-5.294
N2115 X-.279 Y-6.696 I-.5 J-5.275
N2120 G02 Y6.696 I.279 J6.696
N2125 G03 X0 Y6.715 I-.221 J5.294
N2130 G01 Z-1.75 F335.28
N2135 G02 X-.279 Y6.696 I-.5 J5.275 F1341.12
N2140 G03 Y-6.696 I.279 J-6.696
N2145 G02 X0 Y-6.715 I-.221 J-5.294
N2150 X.279 Y-6.696 I.5 J-5.275
N2155 G03 Y6.696 I-.279 J6.696
N2160 G02 X0 Y6.715 I.221 J5.294
N2165 G01 Z-2. F335.28
N2170 G03 X.279 Y6.696 I.5 J5.275 F1341.12
N2175 G02 Y-6.696 I-.279 J-6.696
N2180 G03 X0 Y-6.715 I.221 J-5.294
N2185 X-.279 Y-6.696 I-.5 J-5.275
N2190 G02 Y6.696 I.279 J6.696
N2195 G03 X0 Y6.715 I-.221 J5.294
N2200 G01 Z-2.25 F335.28
N2205 G02 X-.279 Y6.696 I-.5 J5.275 F1341.12
N2210 G03 Y-6.696 I.279 J-6.696
N2215 G02 X0 Y-6.715 I-.221 J-5.294
N2220 X.279 Y-6.696 I.5 J-5.275
N2225 G03 Y6.696 I-.279 J6.696
N2230 G02 X0 Y6.715 I.221 J5.294
N2235 G01 Z-2.5 F335.28
N2240 G03 X.279 Y6.696 I.5 J5.275 F1341.12
N2245 G02 Y-6.696 I-.279 J-6.696
N2250 G03 X0 Y-6.715 I.221 J-5.294
N2255 X-.279 Y-6.696 I-.5 J-5.275
N2260 G02 Y6.696 I.279 J6.696
N2265 G03 X0 Y6.715 I-.221 J5.294
N2270 G00 Z2.5
N2275 G90 G54 X0 Y6.916
N2280 G01 Z-.25 F335.28
N2285 G02 X-.288 Y6.895 I-.5 J5.074 F1341.12
N2290 G03 Y-6.895 I.288 J-6.895
N2295 G02 X0 Y-6.916 I-.212 J-5.094
N2300 X.288 Y-6.895 I.5 J-5.074
N2305 G03 Y6.895 I-.288 J6.895
N2310 G02 X0 Y6.916 I.212 J5.094
N2315 G01 Z-.5 F335.28
N2320 G03 X.288 Y6.895 I.5 J5.074 F1341.12
N2325 G02 Y-6.895 I-.288 J-6.895
N2330 G03 X0 Y-6.916 I.212 J-5.094
N2335 X-.288 Y-6.895 I-.5 J-5.074
N2340 G02 Y6.895 I.288 J6.895
N2345 G03 X0 Y6.916 I-.212 J5.094
N2350 G01 Z-.75 F335.28
N2355 G02 X-.288 Y6.895 I-.5 J5.074 F1341.12
N2360 G03 Y-6.895 I.288 J-6.895
N2365 G02 X0 Y-6.916 I-.212 J-5.094
N2370 X.288 Y-6.895 I.5 J-5.074
N2375 G03 Y6.895 I-.288 J6.895
N2380 G02 X0 Y6.916 I.212 J5.094
N2385 G01 Z-1. F335.28
N2390 G03 X.288 Y6.895 I.5 J5.074 F1341.12
N2395 G02 Y-6.895 I-.288 J-6.895
N2400 G03 X0 Y-6.916 I.212 J-5.094
N2405 X-.288 Y-6.895 I-.5 J-5.074
N2410 G02 Y6.895 I.288 J6.895
N2415 G03 X0 Y6.916 I-.212 J5.094
N2420 G01 Z-1.25 F335.28
N2425 G02 X-.288 Y6.895 I-.5 J5.074 F1341.12
N2430 G03 Y-6.895 I.288 J-6.895
N2435 G02 X0 Y-6.916 I-.212 J-5.094
N2440 X.288 Y-6.895 I.5 J-5.074
N2445 G03 Y6.895 I-.288 J6.895
N2450 G02 X0 Y6.916 I.212 J5.094
N2455 G01 Z-1.5 F335.28
N2460 G03 X.288 Y6.895 I.5 J5.074 F1341.12
N2465 G02 Y-6.895 I-.288 J-6.895
N2470 G03 X0 Y-6.916 I.212 J-5.094
N2475 X-.288 Y-6.895 I-.5 J-5.074
N2480 G02 Y6.895 I.288 J6.895
N2485 G03 X0 Y6.916 I-.212 J5.094
N2490 G01 Z-1.75 F335.28
N2495 G02 X-.288 Y6.895 I-.5 J5.074 F1341.12
N2500 G03 Y-6.895 I.288 J-6.895
N2505 G02 X0 Y-6.916 I-.212 J-5.094
N2510 X.288 Y-6.895 I.5 J-5.074
N2515 G03 Y6.895 I-.288 J6.895
N2520 G02 X0 Y6.916 I.212 J5.094
N2525 G01 Z-2. F335.28
N2530 G03 X.288 Y6.895 I.5 J5.074 F1341.12
N2535 G02 Y-6.895 I-.288 J-6.895
N2540 G03 X0 Y-6.916 I.212 J-5.094
N2545 X-.288 Y-6.895 I-.5 J-5.074
N2550 G02 Y6.895 I.288 J6.895
N2555 G03 X0 Y6.916 I-.212 J5.094
N2560 G01 Z-2.25 F335.28
N2565 G02 X-.288 Y6.895 I-.5 J5.074 F1341.12
N2570 G03 Y-6.895 I.288 J-6.895
N2575 G02 X0 Y-6.916 I-.212 J-5.094
N2580 X.288 Y-6.895 I.5 J-5.074
N2585 G03 Y6.895 I-.288 J6.895
N2590 G02 X0 Y6.916 I.212 J5.094
N2595 G01 Z-2.5 F335.28
N2600 G03 X.288 Y6.895 I.5 J5.074 F1341.12
N2605 G02 Y-6.895 I-.288 J-6.895
N2610 G03 X0 Y-6.916 I.212 J-5.094
N2615 X-.288 Y-6.895 I-.5 J-5.074
N2620 G02 Y6.895 I.288 J6.895
N2625 G03 X0 Y6.916 I-.212 J5.094
N2630 G00 Z2.5
N2635 G90 G54 X0 Y7.117
N2640 G01 Z-.25 F335.28
N2645 G02 X-.296 Y7.095 I-.5 J4.873 F1341.12
N2650 G03 Y-7.095 I.296 J-7.095
N2655 G02 X0 Y-7.117 I-.204 J-4.894
N2660 X.296 Y-7.095 I.5 J-4.873
N2665 G03 Y7.095 I-.296 J7.095
N2670 G02 X0 Y7.117 I.204 J4.894
N2675 G01 Z-.5 F335.28
N2680 G03 X.296 Y7.095 I.5 J4.873 F1341.12
N2685 G02 Y-7.095 I-.296 J-7.095
N2690 G03 X0 Y-7.117 I.204 J-4.894
N2695 X-.296 Y-7.095 I-.5 J-4.873
N2700 G02 Y7.095 I.296 J7.095
N2705 G03 X0 Y7.117 I-.204 J4.894
N2710 G01 Z-.75 F335.28
N2715 G02 X-.296 Y7.095 I-.5 J4.873 F1341.12
N2720 G03 Y-7.095 I.296 J-7.095
N2725 G02 X0 Y-7.117 I-.204 J-4.894
N2730 X.296 Y-7.095 I.5 J-4.873
N2735 G03 Y7.095 I-.296 J7.095
N2740 G02 X0 Y7.117 I.204 J4.894
N2745 G01 Z-1. F335.28
N2750 G03 X.296 Y7.095 I.5 J4.873 F1341.12
N2755 G02 Y-7.095 I-.296 J-7.095
N2760 G03 X0 Y-7.117 I.204 J-4.894
N2765 X-.296 Y-7.095 I-.5 J-4.873
N2770 G02 Y7.095 I.296 J7.095
N2775 G03 X0 Y7.117 I-.204 J4.894
N2780 G01 Z-1.25 F335.28
N2785 G02 X-.296 Y7.095 I-.5 J4.873 F1341.12
N2790 G03 Y-7.095 I.296 J-7.095
N2795 G02 X0 Y-7.117 I-.204 J-4.894
N2800 X.296 Y-7.095 I.5 J-4.873
N2805 G03 Y7.095 I-.296 J7.095
N2810 G02 X0 Y7.117 I.204 J4.894
N2815 G01 Z-1.5 F335.28
N2820 G03 X.296 Y7.095 I.5 J4.873 F1341.12
N2825 G02 Y-7.095 I-.296 J-7.095
N2830 G03 X0 Y-7.117 I.204 J-4.894
N2835 X-.296 Y-7.095 I-.5 J-4.873
N2840 G02 Y7.095 I.296 J7.095
N2845 G03 X0 Y7.117 I-.204 J4.894
N2850 G01 Z-1.75 F335.28
N2855 G02 X-.296 Y7.095 I-.5 J4.873 F1341.12
N2860 G03 Y-7.095 I.296 J-7.095
N2865 G02 X0 Y-7.117 I-.204 J-4.894
N2870 X.296 Y-7.095 I.5 J-4.873
N2875 G03 Y7.095 I-.296 J7.095
N2880 G02 X0 Y7.117 I.204 J4.894
N2885 G01 Z-2. F335.28
N2890 G03 X.296 Y7.095 I.5 J4.873 F1341.12
N2895 G02 Y-7.095 I-.296 J-7.095
N2900 G03 X0 Y-7.117 I.204 J-4.894
N2905 X-.296 Y-7.095 I-.5 J-4.873
N2910 G02 Y7.095 I.296 J7.095
N2915 G03 X0 Y7.117 I-.204 J4.894
N2920 G01 Z-2.25 F335.28
N2925 G02 X-.296 Y7.095 I-.5 J4.873 F1341.12
N2930 G03 Y-7.095 I.296 J-7.095
N2935 G02 X0 Y-7.117 I-.204 J-4.894
N2940 X.296 Y-7.095 I.5 J-4.873
N2945 G03 Y7.095 I-.296 J7.095
N2950 G02 X0 Y7.117 I.204 J4.894
N2955 G01 Z-2.5 F335.28
N2960 G03 X.296 Y7.095 I.5 J4.873 F1341.12
N2965 G02 Y-7.095 I-.296 J-7.095
N2970 G03 X0 Y-7.117 I.204 J-4.894
N2975 X-.296 Y-7.095 I-.5 J-4.873
N2980 G02 Y7.095 I.296 J7.095
N2985 G03 X0 Y7.117 I-.204 J4.894
N2990 G00 Z2.5
N2995 G90 G54 X0 Y7.318
N3000 G01 Z-.25 F335.28
N3005 G02 X-.304 Y7.295 I-.5 J4.672 F1341.12
N3010 G03 Y-7.295 I.304 J-7.295
N3015 G02 X0 Y-7.318 I-.196 J-4.695
N3020 X.304 Y-7.295 I.5 J-4.672
N3025 G03 Y7.295 I-.304 J7.295
N3030 G02 X0 Y7.318 I.196 J4.695
N3035 G01 Z-.5 F335.28
N3040 G03 X.304 Y7.295 I.5 J4.672 F1341.12
N3045 G02 Y-7.295 I-.304 J-7.295
N3050 G03 X0 Y-7.318 I.196 J-4.695
N3055 X-.304 Y-7.295 I-.5 J-4.672
N3060 G02 Y7.295 I.304 J7.295
N3065 G03 X0 Y7.318 I-.196 J4.695
N3070 G01 Z-.75 F335.28
N3075 G02 X-.304 Y7.295 I-.5 J4.672 F1341.12
N3080 G03 Y-7.295 I.304 J-7.295
N3085 G02 X0 Y-7.318 I-.196 J-4.695
N3090 X.304 Y-7.295 I.5 J-4.672
N3095 G03 Y7.295 I-.304 J7.295
N3100 G02 X0 Y7.318 I.196 J4.695
N3105 G01 Z-1. F335.28
N3110 G03 X.304 Y7.295 I.5 J4.672 F1341.12
N3115 G02 Y-7.295 I-.304 J-7.295
N3120 G03 X0 Y-7.318 I.196 J-4.695
N3125 X-.304 Y-7.295 I-.5 J-4.672
N3130 G02 Y7.295 I.304 J7.295
N3135 G03 X0 Y7.318 I-.196 J4.695
N3140 G01 Z-1.25 F335.28
N3145 G02 X-.304 Y7.295 I-.5 J4.672 F1341.12
N3150 G03 Y-7.295 I.304 J-7.295
N3155 G02 X0 Y-7.318 I-.196 J-4.695
N3160 X.304 Y-7.295 I.5 J-4.672
N3165 G03 Y7.295 I-.304 J7.295
N3170 G02 X0 Y7.318 I.196 J4.695
N3175 G01 Z-1.5 F335.28
N3180 G03 X.304 Y7.295 I.5 J4.672 F1341.12
N3185 G02 Y-7.295 I-.304 J-7.295
N3190 G03 X0 Y-7.318 I.196 J-4.695
N3195 X-.304 Y-7.295 I-.5 J-4.672
N3200 G02 Y7.295 I.304 J7.295
N3205 G03 X0 Y7.318 I-.196 J4.695
N3210 G01 Z-1.75 F335.28
N3215 G02 X-.304 Y7.295 I-.5 J4.672 F1341.12
N3220 G03 Y-7.295 I.304 J-7.295
N3225 G02 X0 Y-7.318 I-.196 J-4.695
N3230 X.304 Y-7.295 I.5 J-4.672
N3235 G03 Y7.295 I-.304 J7.295
N3240 G02 X0 Y7.318 I.196 J4.695
N3245 G01 Z-2. F335.28
N3250 G03 X.304 Y7.295 I.5 J4.672 F1341.12
N3255 G02 Y-7.295 I-.304 J-7.295
N3260 G03 X0 Y-7.318 I.196 J-4.695
N3265 X-.304 Y-7.295 I-.5 J-4.672
N3270 G02 Y7.295 I.304 J7.295
N3275 G03 X0 Y7.318 I-.196 J4.695
N3280 G01 Z-2.25 F335.28
N3285 G02 X-.304 Y7.295 I-.5 J4.672 F1341.12
N3290 G03 Y-7.295 I.304 J-7.295
N3295 G02 X0 Y-7.318 I-.196 J-4.695
N3300 X.304 Y-7.295 I.5 J-4.672
N3305 G03 Y7.295 I-.304 J7.295
N3310 G02 X0 Y7.318 I.196 J4.695
N3315 G01 Z-2.5 F335.28
N3320 G03 X.304 Y7.295 I.5 J4.672 F1341.12
N3325 G02 Y-7.295 I-.304 J-7.295
N3330 G03 X0 Y-7.318 I.196 J-4.695
N3335 X-.304 Y-7.295 I-.5 J-4.672
N3340 G02 Y7.295 I.304 J7.295
N3345 G03 X0 Y7.318 I-.196 J4.695
N3350 G00 Z2.5
N3355 G90 G54 X0 Y7.519
N3360 G01 Z-.25 F335.28
N3365 G02 X-.313 Y7.495 I-.5 J4.471 F1341.12
N3370 G03 Y-7.495 I.313 J-7.495
N3375 G02 X0 Y-7.519 I-.187 J-4.495
N3380 X.313 Y-7.495 I.5 J-4.471
N3385 G03 Y7.495 I-.313 J7.495
N3390 G02 X0 Y7.519 I.187 J4.495
N3395 G01 Z-.5 F335.28
N3400 G03 X.313 Y7.495 I.5 J4.471 F1341.12
N3405 G02 Y-7.495 I-.313 J-7.495
N3410 G03 X0 Y-7.519 I.187 J-4.495
N3415 X-.313 Y-7.495 I-.5 J-4.471
N3420 G02 Y7.495 I.313 J7.495
N3425 G03 X0 Y7.519 I-.187 J4.495
N3430 G01 Z-.75 F335.28
N3435 G02 X-.313 Y7.495 I-.5 J4.471 F1341.12
N3440 G03 Y-7.495 I.313 J-7.495
N3445 G02 X0 Y-7.519 I-.187 J-4.495
N3450 X.313 Y-7.495 I.5 J-4.471
N3455 G03 Y7.495 I-.313 J7.495
N3460 G02 X0 Y7.519 I.187 J4.495
N3465 G01 Z-1. F335.28
N3470 G03 X.313 Y7.495 I.5 J4.471 F1341.12
N3475 G02 Y-7.495 I-.313 J-7.495
N3480 G03 X0 Y-7.519 I.187 J-4.495
N3485 X-.313 Y-7.495 I-.5 J-4.471
N3490 G02 Y7.495 I.313 J7.495
N3495 G03 X0 Y7.519 I-.187 J4.495
N3500 G01 Z-1.25 F335.28
N3505 G02 X-.313 Y7.495 I-.5 J4.471 F1341.12
N3510 G03 Y-7.495 I.313 J-7.495
N3515 G02 X0 Y-7.519 I-.187 J-4.495
N3520 X.313 Y-7.495 I.5 J-4.471
N3525 G03 Y7.495 I-.313 J7.495
N3530 G02 X0 Y7.519 I.187 J4.495
N3535 G01 Z-1.5 F335.28
N3540 G03 X.313 Y7.495 I.5 J4.471 F1341.12
N3545 G02 Y-7.495 I-.313 J-7.495
N3550 G03 X0 Y-7.519 I.187 J-4.495
N3555 X-.313 Y-7.495 I-.5 J-4.471
N3560 G02 Y7.495 I.313 J7.495
N3565 G03 X0 Y7.519 I-.187 J4.495
N3570 G01 Z-1.75 F335.28
N3575 G02 X-.313 Y7.495 I-.5 J4.471 F1341.12
N3580 G03 Y-7.495 I.313 J-7.495
N3585 G02 X0 Y-7.519 I-.187 J-4.495
N3590 X.313 Y-7.495 I.5 J-4.471
N3595 G03 Y7.495 I-.313 J7.495
N3600 G02 X0 Y7.519 I.187 J4.495
N3605 G01 Z-2. F335.28
N3610 G03 X.313 Y7.495 I.5 J4.471 F1341.12
N3615 G02 Y-7.495 I-.313 J-7.495
N3620 G03 X0 Y-7.519 I.187 J-4.495
N3625 X-.313 Y-7.495 I-.5 J-4.471
N3630 G02 Y7.495 I.313 J7.495
N3635 G03 X0 Y7.519 I-.187 J4.495
N3640 G01 Z-2.25 F335.28
N3645 G02 X-.313 Y7.495 I-.5 J4.471 F1341.12
N3650 G03 Y-7.495 I.313 J-7.495
N3655 G02 X0 Y-7.519 I-.187 J-4.495
N3660 X.313 Y-7.495 I.5 J-4.471
N3665 G03 Y7.495 I-.313 J7.495
N3670 G02 X0 Y7.519 I.187 J4.495
N3675 G01 Z-2.5 F335.28
N3680 G03 X.313 Y7.495 I.5 J4.471 F1341.12
N3685 G02 Y-7.495 I-.313 J-7.495
N3690 G03 X0 Y-7.519 I.187 J-4.495
N3695 X-.313 Y-7.495 I-.5 J-4.471
N3700 G02 Y7.495 I.313 J7.495
N3705 G03 X0 Y7.519 I-.187 J4.495
N3710 G00 Z2.5
N3715 G90 G54 X0 Y7.72
N3720 G01 Z-.25 F335.28
N3725 G02 X-.321 Y7.695 I-.5 J4.27 F1341.12
N3730 G03 Y-7.695 I.321 J-7.695
N3735 G02 X0 Y-7.72 I-.179 J-4.295
N3740 X.321 Y-7.695 I.5 J-4.27
N3745 G03 Y7.695 I-.321 J7.695
N3750 G02 X0 Y7.72 I.179 J4.295
N3755 G01 Z-.5 F335.28
N3760 G03 X.321 Y7.695 I.5 J4.27 F1341.12
N3765 G02 Y-7.695 I-.321 J-7.695
N3770 G03 X0 Y-7.72 I.179 J-4.295
N3775 X-.321 Y-7.695 I-.5 J-4.27
N3780 G02 Y7.695 I.321 J7.695
N3785 G03 X0 Y7.72 I-.179 J4.295
N3790 G01 Z-.75 F335.28
N3795 G02 X-.321 Y7.695 I-.5 J4.27 F1341.12
N3800 G03 Y-7.695 I.321 J-7.695
N3805 G02 X0 Y-7.72 I-.179 J-4.295
N3810 X.321 Y-7.695 I.5 J-4.27
N3815 G03 Y7.695 I-.321 J7.695
N3820 G02 X0 Y7.72 I.179 J4.295
N3825 G01 Z-1. F335.28
N3830 G03 X.321 Y7.695 I.5 J4.27 F1341.12
N3835 G02 Y-7.695 I-.321 J-7.695
N3840 G03 X0 Y-7.72 I.179 J-4.295
N3845 X-.321 Y-7.695 I-.5 J-4.27
N3850 G02 Y7.695 I.321 J7.695
N3855 G03 X0 Y7.72 I-.179 J4.295
N3860 G01 Z-1.25 F335.28
N3865 G02 X-.321 Y7.695 I-.5 J4.27 F1341.12
N3870 G03 Y-7.695 I.321 J-7.695
N3875 G02 X0 Y-7.72 I-.179 J-4.295
N3880 X.321 Y-7.695 I.5 J-4.27
N3885 G03 Y7.695 I-.321 J7.695
N3890 G02 X0 Y7.72 I.179 J4.295
N3895 G01 Z-1.5 F335.28
N3900 G03 X.321 Y7.695 I.5 J4.27 F1341.12
N3905 G02 Y-7.695 I-.321 J-7.695
N3910 G03 X0 Y-7.72 I.179 J-4.295
N3915 X-.321 Y-7.695 I-.5 J-4.27
N3920 G02 Y7.695 I.321 J7.695
N3925 G03 X0 Y7.72 I-.179 J4.295
N3930 G01 Z-1.75 F335.28
N3935 G02 X-.321 Y7.695 I-.5 J4.27 F1341.12
N3940 G03 Y-7.695 I.321 J-7.695
N3945 G02 X0 Y-7.72 I-.179 J-4.295
N3950 X.321 Y-7.695 I.5 J-4.27
N3955 G03 Y7.695 I-.321 J7.695
N3960 G02 X0 Y7.72 I.179 J4.295
N3965 G01 Z-2. F335.28
N3970 G03 X.321 Y7.695 I.5 J4.27 F1341.12
N3975 G02 Y-7.695 I-.321 J-7.695
N3980 G03 X0 Y-7.72 I.179 J-4.295
N3985 X-.321 Y-7.695 I-.5 J-4.27
N3990 G02 Y7.695 I.321 J7.695
N3995 G03 X0 Y7.72 I-.179 J4.295
N4000 G01 Z-2.25 F335.28
N4005 G02 X-.321 Y7.695 I-.5 J4.27 F1341.12
N4010 G03 Y-7.695 I.321 J-7.695
N4015 G02 X0 Y-7.72 I-.179 J-4.295
N4020 X.321 Y-7.695 I.5 J-4.27
N4025 G03 Y7.695 I-.321 J7.695
N4030 G02 X0 Y7.72 I.179 J4.295
N4035 G01 Z-2.5 F335.28
N4040 G03 X.321 Y7.695 I.5 J4.27 F1341.12
N4045 G02 Y-7.695 I-.321 J-7.695
N4050 G03 X0 Y-7.72 I.179 J-4.295
N4055 X-.321 Y-7.695 I-.5 J-4.27
N4060 G02 Y7.695 I.321 J7.695
N4065 G03 X0 Y7.72 I-.179 J4.295
N4070 G00 Z2.5
N4075 G90 G54 X0 Y7.921
N4080 G01 Z-.25 F335.28
N4085 G02 X-.329 Y7.894 I-.5 J4.068 F1341.12
N4090 G03 Y-7.894 I.329 J-7.894
N4095 G02 X0 Y-7.921 I-.171 J-4.095
N4100 X.329 Y-7.894 I.5 J-4.068
N4105 G03 Y7.894 I-.329 J7.894
N4110 G02 X0 Y7.921 I.171 J4.095
N4115 G01 Z-.5 F335.28
N4120 G03 X.329 Y7.894 I.5 J4.068 F1341.12
N4125 G02 Y-7.894 I-.329 J-7.894
N4130 G03 X0 Y-7.921 I.171 J-4.095
N4135 X-.329 Y-7.894 I-.5 J-4.068
N4140 G02 Y7.894 I.329 J7.894
N4145 G03 X0 Y7.921 I-.171 J4.095
N4150 G01 Z-.75 F335.28
N4155 G02 X-.329 Y7.894 I-.5 J4.068 F1341.12
N4160 G03 Y-7.894 I.329 J-7.894
N4165 G02 X0 Y-7.921 I-.171 J-4.095
N4170 X.329 Y-7.894 I.5 J-4.068
N4175 G03 Y7.894 I-.329 J7.894
N4180 G02 X0 Y7.921 I.171 J4.095
N4185 G01 Z-1. F335.28
N4190 G03 X.329 Y7.894 I.5 J4.068 F1341.12
N4195 G02 Y-7.894 I-.329 J-7.894
N4200 G03 X0 Y-7.921 I.171 J-4.095
N4205 X-.329 Y-7.894 I-.5 J-4.068
N4210 G02 Y7.894 I.329 J7.894
N4215 G03 X0 Y7.921 I-.171 J4.095
N4220 G01 Z-1.25 F335.28
N4225 G02 X-.329 Y7.894 I-.5 J4.068 F1341.12
N4230 G03 Y-7.894 I.329 J-7.894
N4235 G02 X0 Y-7.921 I-.171 J-4.095
N4240 X.329 Y-7.894 I.5 J-4.068
N4245 G03 Y7.894 I-.329 J7.894
N4250 G02 X0 Y7.921 I.171 J4.095
N4255 G01 Z-1.5 F335.28
N4260 G03 X.329 Y7.894 I.5 J4.068 F1341.12
N4265 G02 Y-7.894 I-.329 J-7.894
N4270 G03 X0 Y-7.921 I.171 J-4.095
N4275 X-.329 Y-7.894 I-.5 J-4.068
N4280 G02 Y7.894 I.329 J7.894
N4285 G03 X0 Y7.921 I-.171 J4.095
N4290 G01 Z-1.75 F335.28
N4295 G02 X-.329 Y7.894 I-.5 J4.068 F1341.12
N4300 G03 Y-7.894 I.329 J-7.894
N4305 G02 X0 Y-7.921 I-.171 J-4.095
N4310 X.329 Y-7.894 I.5 J-4.068
N4315 G03 Y7.894 I-.329 J7.894
N4320 G02 X0 Y7.921 I.171 J4.095
N4325 G01 Z-2. F335.28
N4330 G03 X.329 Y7.894 I.5 J4.068 F1341.12
N4335 G02 Y-7.894 I-.329 J-7.894
N4340 G03 X0 Y-7.921 I.171 J-4.095
N4345 X-.329 Y-7.894 I-.5 J-4.068
N4350 G02 Y7.894 I.329 J7.894
N4355 G03 X0 Y7.921 I-.171 J4.095
N4360 G01 Z-2.25 F335.28
N4365 G02 X-.329 Y7.894 I-.5 J4.068 F1341.12
N4370 G03 Y-7.894 I.329 J-7.894
N4375 G02 X0 Y-7.921 I-.171 J-4.095
N4380 X.329 Y-7.894 I.5 J-4.068
N4385 G03 Y7.894 I-.329 J7.894
N4390 G02 X0 Y7.921 I.171 J4.095
N4395 G01 Z-2.5 F335.28
N4400 G03 X.329 Y7.894 I.5 J4.068 F1341.12
N4405 G02 Y-7.894 I-.329 J-7.894
N4410 G03 X0 Y-7.921 I.171 J-4.095
N4415 X-.329 Y-7.894 I-.5 J-4.068
N4420 G02 Y7.894 I.329 J7.894
N4425 G03 X0 Y7.921 I-.171 J4.095
N4430 G00 Z2.5
N4435 G90 G54 X0 Y8.123
N4440 G01 Z-.25 F335.28
N4445 G02 X-.338 Y8.094 I-.5 J3.867 F1341.12
N4450 G03 Y-8.094 I.338 J-8.094
N4455 G02 X0 Y-8.123 I-.162 J-3.896
N4460 X.338 Y-8.094 I.5 J-3.867
N4465 G03 Y8.094 I-.338 J8.094
N4470 G02 X0 Y8.123 I.162 J3.896
N4475 G01 Z-.5 F335.28
N4480 G03 X.338 Y8.094 I.5 J3.867 F1341.12
N4485 G02 Y-8.094 I-.338 J-8.094
N4490 G03 X0 Y-8.123 I.162 J-3.896
N4495 X-.338 Y-8.094 I-.5 J-3.867
N4500 G02 Y8.094 I.338 J8.094
N4505 G03 X0 Y8.123 I-.162 J3.896
N4510 G01 Z-.75 F335.28
N4515 G02 X-.338 Y8.094 I-.5 J3.867 F1341.12
N4520 G03 Y-8.094 I.338 J-8.094
N4525 G02 X0 Y-8.123 I-.162 J-3.896
N4530 X.338 Y-8.094 I.5 J-3.867
N4535 G03 Y8.094 I-.338 J8.094
N4540 G02 X0 Y8.123 I.162 J3.896
N4545 G01 Z-1. F335.28
N4550 G03 X.338 Y8.094 I.5 J3.867 F1341.12
N4555 G02 Y-8.094 I-.338 J-8.094
N4560 G03 X0 Y-8.123 I.162 J-3.896
N4565 X-.338 Y-8.094 I-.5 J-3.867
N4570 G02 Y8.094 I.338 J8.094
N4575 G03 X0 Y8.123 I-.162 J3.896
N4580 G01 Z-1.25 F335.28
N4585 G02 X-.338 Y8.094 I-.5 J3.867 F1341.12
N4590 G03 Y-8.094 I.338 J-8.094
N4595 G02 X0 Y-8.123 I-.162 J-3.896
N4600 X.338 Y-8.094 I.5 J-3.867
N4605 G03 Y8.094 I-.338 J8.094
N4610 G02 X0 Y8.123 I.162 J3.896
N4615 G01 Z-1.5 F335.28
N4620 G03 X.338 Y8.094 I.5 J3.867 F1341.12
N4625 G02 Y-8.094 I-.338 J-8.094
N4630 G03 X0 Y-8.123 I.162 J-3.896
N4635 X-.338 Y-8.094 I-.5 J-3.867
N4640 G02 Y8.094 I.338 J8.094
N4645 G03 X0 Y8.123 I-.162 J3.896
N4650 G01 Z-1.75 F335.28
N4655 G02 X-.338 Y8.094 I-.5 J3.867 F1341.12
N4660 G03 Y-8.094 I.338 J-8.094
N4665 G02 X0 Y-8.123 I-.162 J-3.896
N4670 X.338 Y-8.094 I.5 J-3.867
N4675 G03 Y8.094 I-.338 J8.094
N4680 G02 X0 Y8.123 I.162 J3.896
N4685 G01 Z-2. F335.28
N4690 G03 X.338 Y8.094 I.5 J3.867 F1341.12
N4695 G02 Y-8.094 I-.338 J-8.094
N4700 G03 X0 Y-8.123 I.162 J-3.896
N4705 X-.338 Y-8.094 I-.5 J-3.867
N4710 G02 Y8.094 I.338 J8.094
N4715 G03 X0 Y8.123 I-.162 J3.896
N4720 G01 Z-2.25 F335.28
N4725 G02 X-.338 Y8.094 I-.5 J3.867 F1341.12
N4730 G03 Y-8.094 I.338 J-8.094
N4735 G02 X0 Y-8.123 I-.162 J-3.896
N4740 X.338 Y-8.094 I.5 J-3.867
N4745 G03 Y8.094 I-.338 J8.094
N4750 G02 X0 Y8.123 I.162 J3.896
N4755 G01 Z-2.5 F335.28
N4760 G03 X.338 Y8.094 I.5 J3.867 F1341.12
N4765 G02 Y-8.094 I-.338 J-8.094
N4770 G03 X0 Y-8.123 I.162 J-3.896
N4775 X-.338 Y-8.094 I-.5 J-3.867
N4780 G02 Y8.094 I.338 J8.094
N4785 G03 X0 Y8.123 I-.162 J3.896
N4790 G00 Z2.5
N4795 G90 G54 X0 Y8.325
N4800 G01 Z-.25 F335.28
N4805 G02 X-.346 Y8.294 I-.5 J3.665 F1341.12
N4810 G03 Y-8.294 I.346 J-8.294
N4815 G02 X0 Y-8.325 I-.154 J-3.696
N4820 X.346 Y-8.294 I.5 J-3.665
N4825 G03 Y8.294 I-.346 J8.294
N4830 G02 X0 Y8.325 I.154 J3.696
N4835 G01 Z-.5 F335.28
N4840 G03 X.346 Y8.294 I.5 J3.665 F1341.12
N4845 G02 Y-8.294 I-.346 J-8.294
N4850 G03 X0 Y-8.325 I.154 J-3.696
N4855 X-.346 Y-8.294 I-.5 J-3.665
N4860 G02 Y8.294 I.346 J8.294
N4865 G03 X0 Y8.325 I-.154 J3.696
N4870 G01 Z-.75 F335.28
N4875 G02 X-.346 Y8.294 I-.5 J3.665 F1341.12
N4880 G03 Y-8.294 I.346 J-8.294
N4885 G02 X0 Y-8.325 I-.154 J-3.696
N4890 X.346 Y-8.294 I.5 J-3.665
N4895 G03 Y8.294 I-.346 J8.294
N4900 G02 X0 Y8.325 I.154 J3.696
N4905 G01 Z-1. F335.28
