%
O00001
(This Post Processor is distributed on an "AS IS" BASIS, )
(WITHOUT WARRANTIES OR CONDITIONS OF ANY KIND, either express or implied. )
N5 G21 G17 G40 G80 G90
N10 T05 M06 (25MM CRB 2FL 38 LOC)
N15 G54 G90 G94
N20 S1141 M03
N25 G00 G90 X-380.92 Y-350.25
N30 G43 H05 Z2.5 M08
N35 G01 Z-25. F69.553
N40 X-390.78 F278.213
N45 G03 X-370.732 Y-371.405 I390.78 J350.25
N50 G02 X-380.92 Y-350.25 I718.232 J358.905
N55 G01 X-362.775 Y-341.837
N60 G02 X-368.034 Y-330.25 I710.275 J329.337
N65 G01 X-433.255
N70 G03 X-297.378 Y-456.444 I433.255 J330.25
N75 G02 X-362.775 Y-341.837 I644.878 J443.944
N80 G01 X-344.631 Y-333.424
N85 G02 X-354.912 Y-310.25 I692.131 J320.924
N90 G01 X-471.922
N95 G03 X-223.207 Y-518.791 I471.922 J310.25
N100 G02 X-344.631 Y-333.424 I570.707 J506.291
N105 G01 X-326.486 Y-325.011
N110 G02 X-341.54 Y-290.25 I673.986 J312.511
N115 G01 X-507.653
N120 G03 X-148.477 Y-565.607 I507.653 J290.25
N125 G02 X-326.486 Y-325.011 I495.977 J553.107
N130 G01 X-308.342 Y-316.598
N135 G02 X-327.903 Y-270.25 I655.842 J304.098
N140 G01 X-541.029
N145 G03 X-73.312 Y-600.31 I541.029 J270.25
N150 G02 X-308.342 Y-316.598 I420.812 J587.81
N155 G01 X-290.198 Y-308.184
N160 G02 X-313.985 Y-250.25 I637.698 J295.684
N165 G01 X-572.462
N170 G03 X2.221 Y-624.766 I572.462 J250.25
N175 G02 X-290.198 Y-308.184 I345.279 J612.266
N180 G01 X-272.053 Y-299.771
N185 G02 X-299.768 Y-230.25 I619.553 J287.271
N190 G01 X-602.257
N195 G03 X78.086 Y-640.025 I602.257 J230.25
N200 G02 X-272.053 Y-299.771 I269.414 J627.525
N205 G01 X-253.909 Y-291.358
N210 G02 X-285.232 Y-210.25 I601.409 J278.858
N215 G01 X-630.646
N220 G03 X154.262 Y-646.624 I630.646 J210.25
N225 G02 X-253.909 Y-291.358 I193.238 J634.124
N230 G01 X-235.764 Y-282.945
N235 G02 X-270.353 Y-190.25 I583.264 J270.445
N240 G01 X-657.811
N245 G03 X230.744 Y-644.723 I657.811 J190.25
N250 G02 X-235.764 Y-282.945 I116.756 J632.223
N255 G01 X-217.62 Y-274.532
N260 G02 X-255.108 Y-170.25 I565.12 J262.032
N265 G01 X-683.898
N270 G03 X267.999 Y-651.826 I683.898 J170.25
N275 X272.718 Y-630.908 I-48.046 J21.828
N280 G02 X-217.62 Y-274.532 I74.782 J618.408
N285 G01 X-199.476 Y-266.119
N290 G02 X-239.467 Y-150.25 I546.976 J253.619
N295 G01 X-709.025
N300 G03 X282.299 Y-667.532 I709.025 J150.25
N305 X290.646 Y-612.727 I-62.345 J37.534
N310 G02 X-199.476 Y-266.119 I56.854 J600.227
N315 G01 X-181.331 Y-257.706
N320 G02 X-223.397 Y-130.25 I528.831 J245.206
N325 G01 X-733.293
N330 G03 X295.71 Y-683.549 I733.293 J130.25
N335 X305.411 Y-593.892 I-75.756 J53.55
N340 G02 X-181.331 Y-257.706 I42.089 J581.392
N345 G01 X-163.187 Y-249.293
N350 G02 X-206.861 Y-110.25 I510.687 J236.793
N355 G01 X-756.782
N360 G03 X308.557 Y-699.762 I756.782 J110.25
N365 X318.209 Y-574.651 I-88.603 J69.763
N370 G02 X-163.187 Y-249.293 I29.291 J562.151
N375 G01 X-145.042 Y-240.88
N380 G02 X-189.818 Y-90.25 I492.542 J228.38
N385 G01 X-779.564
N390 G03 X321.013 Y-716.111 I779.564 J90.25
N395 X329.595 Y-555.118 I-101.059 J86.113
N400 G02 X-145.042 Y-240.88 I17.905 J542.618
N405 G01 X-126.898 Y-232.466
N410 G02 X-172.215 Y-70.25 I474.398 J219.966
N415 G01 X-801.698
N420 G03 X333.179 Y-732.562 I801.698 J70.25
N425 X339.88 Y-535.358 I-113.225 J102.564
N430 G02 X-126.898 Y-232.466 I7.62 J522.858
N435 G01 X-108.753 Y-224.053
N440 G02 X-152.821 Y-63.504 I456.253 J211.553
N445 G03 X-167.495 Y-50.25 I-14.674 J-1.496
N450 G01 X-807.408
N455 G03 X-822.111 Y-66.184 I0 J-14.75
N460 X342.458 Y-750.313 I822.111 J66.184
N465 X347.196 Y-746.872 I-6.124 J13.418
N470 X353.855 Y-520.818 I-127.242 J116.873
N475 X342.568 Y-515.389 I-11.432 J-9.321
N480 G02 X-152.821 Y-63.504 I4.932 J502.889
N485 G03 X-167.495 Y-50.25 I-14.674 J-1.496
N490 G01 X-807.408
N495 G03 X-822.111 Y-66.184 I0 J-14.75
N500 X342.458 Y-750.313 I822.111 J66.184
N505 X347.196 Y-746.872 I-6.124 J13.418
N510 X353.855 Y-520.818 I-127.242 J116.873
N515 X342.568 Y-515.389 I-11.432 J-9.321
N520 G02 X-108.753 Y-224.053 I4.932 J502.889
N525 G00 Z2.5
N530 G90 G54 X-380.92 Y-350.25
N535 Z-22.5
N540 G01 Z-46.583 F69.553
N545 X-390.78 F278.213
N550 G03 X-370.732 Y-371.405 I390.78 J350.25
N555 G02 X-380.92 Y-350.25 I718.232 J358.905
N560 G01 X-362.775 Y-341.837
N565 G02 X-368.034 Y-330.25 I710.275 J329.337
N570 G01 X-433.255
N575 G03 X-297.378 Y-456.444 I433.255 J330.25
N580 G02 X-362.775 Y-341.837 I644.878 J443.944
N585 G01 X-344.631 Y-333.424
N590 G02 X-354.912 Y-310.25 I692.131 J320.924
N595 G01 X-471.922
N600 G03 X-223.207 Y-518.791 I471.922 J310.25
N605 G02 X-344.631 Y-333.424 I570.707 J506.291
N610 G01 X-326.486 Y-325.011
N615 G02 X-341.54 Y-290.25 I673.986 J312.511
N620 G01 X-507.653
N625 G03 X-148.477 Y-565.607 I507.653 J290.25
N630 G02 X-326.486 Y-325.011 I495.977 J553.107
N635 G01 X-308.342 Y-316.598
N640 G02 X-327.903 Y-270.25 I655.842 J304.098
N645 G01 X-541.029
N650 G03 X-73.312 Y-600.31 I541.029 J270.25
N655 G02 X-308.342 Y-316.598 I420.812 J587.81
N660 G01 X-290.198 Y-308.184
N665 G02 X-313.985 Y-250.25 I637.698 J295.684
N670 G01 X-572.462
N675 G03 X2.221 Y-624.766 I572.462 J250.25
N680 G02 X-290.198 Y-308.184 I345.279 J612.266
N685 G01 X-272.053 Y-299.771
N690 G02 X-299.768 Y-230.25 I619.553 J287.271
N695 G01 X-602.257
N700 G03 X78.086 Y-640.025 I602.257 J230.25
N705 G02 X-272.053 Y-299.771 I269.414 J627.525
N710 G01 X-253.909 Y-291.358
N715 G02 X-285.232 Y-210.25 I601.409 J278.858
N720 G01 X-630.646
N725 G03 X154.262 Y-646.624 I630.646 J210.25
N730 G02 X-253.909 Y-291.358 I193.238 J634.124
N735 G01 X-235.764 Y-282.945
N740 G02 X-270.353 Y-190.25 I583.264 J270.445
N745 G01 X-657.811
N750 G03 X230.744 Y-644.723 I657.811 J190.25
N755 G02 X-235.764 Y-282.945 I116.756 J632.223
N760 G01 X-217.62 Y-274.532
N765 G02 X-255.108 Y-170.25 I565.12 J262.032
N770 G01 X-683.898
N775 G03 X267.999 Y-651.826 I683.898 J170.25
N780 X272.718 Y-630.908 I-48.046 J21.828
N785 G02 X-217.62 Y-274.532 I74.782 J618.408
N790 G01 X-199.476 Y-266.119
N795 G02 X-239.467 Y-150.25 I546.976 J253.619
N800 G01 X-709.025
N805 G03 X282.299 Y-667.532 I709.025 J150.25
N810 X290.646 Y-612.727 I-62.345 J37.534
N815 G02 X-199.476 Y-266.119 I56.854 J600.227
N820 G01 X-181.331 Y-257.706
N825 G02 X-223.397 Y-130.25 I528.831 J245.206
N830 G01 X-733.293
N835 G03 X295.71 Y-683.549 I733.293 J130.25
N840 X305.411 Y-593.892 I-75.756 J53.55
N845 G02 X-181.331 Y-257.706 I42.089 J581.392
N850 G01 X-163.187 Y-249.293
N855 G02 X-206.861 Y-110.25 I510.687 J236.793
N860 G01 X-756.782
N865 G03 X308.557 Y-699.762 I756.782 J110.25
N870 X318.209 Y-574.651 I-88.603 J69.763
N875 G02 X-163.187 Y-249.293 I29.291 J562.151
N880 G01 X-145.042 Y-240.88
N885 G02 X-189.818 Y-90.25 I492.542 J228.38
N890 G01 X-779.564
N895 G03 X321.013 Y-716.111 I779.564 J90.25
N900 X329.595 Y-555.118 I-101.059 J86.113
N905 G02 X-145.042 Y-240.88 I17.905 J542.618
N910 G01 X-126.898 Y-232.466
N915 G02 X-172.215 Y-70.25 I474.398 J219.966
N920 G01 X-801.698
N925 G03 X333.179 Y-732.562 I801.698 J70.25
N930 X339.88 Y-535.358 I-113.225 J102.564
N935 G02 X-126.898 Y-232.466 I7.62 J522.858
N940 G01 X-108.753 Y-224.053
N945 G02 X-152.821 Y-63.504 I456.253 J211.553
N950 G03 X-167.495 Y-50.25 I-14.674 J-1.496
N955 G01 X-807.408
N960 G03 X-822.111 Y-66.184 I0 J-14.75
N965 X342.458 Y-750.313 I822.111 J66.184
N970 X347.196 Y-746.872 I-6.124 J13.418
N975 X353.855 Y-520.818 I-127.242 J116.873
N980 X342.568 Y-515.389 I-11.432 J-9.321
N985 G02 X-152.821 Y-63.504 I4.932 J502.889
N990 G03 X-167.495 Y-50.25 I-14.674 J-1.496
N995 G01 X-807.408
N1000 G03 X-822.111 Y-66.184 I0 J-14.75
N1005 X342.458 Y-750.313 I822.111 J66.184
N1010 X347.196 Y-746.872 I-6.124 J13.418
N1015 X353.855 Y-520.818 I-127.242 J116.873
N1020 X342.568 Y-515.389 I-11.432 J-9.321
N1025 G02 X-108.753 Y-224.053 I4.932 J502.889
N1030 G00 Z2.5
N1035 G90 G54 X-380.92 Y-350.25
N1040 Z-44.083
N1045 G01 Z-68.167 F69.553
N1050 X-390.78 F278.213
N1055 G03 X-370.732 Y-371.405 I390.78 J350.25
N1060 G02 X-380.92 Y-350.25 I718.232 J358.905
N1065 G01 X-362.775 Y-341.837
N1070 G02 X-368.034 Y-330.25 I710.275 J329.337
N1075 G01 X-433.255
N1080 G03 X-297.378 Y-456.444 I433.255 J330.25
N1085 G02 X-362.775 Y-341.837 I644.878 J443.944
N1090 G01 X-344.631 Y-333.424
N1095 G02 X-354.912 Y-310.25 I692.131 J320.924
N1100 G01 X-471.922
N1105 G03 X-223.207 Y-518.791 I471.922 J310.25
N1110 G02 X-344.631 Y-333.424 I570.707 J506.291
N1115 G01 X-326.486 Y-325.011
N1120 G02 X-341.54 Y-290.25 I673.986 J312.511
N1125 G01 X-507.653
N1130 G03 X-148.477 Y-565.607 I507.653 J290.25
N1135 G02 X-326.486 Y-325.011 I495.977 J553.107
N1140 G01 X-308.342 Y-316.598
N1145 G02 X-327.903 Y-270.25 I655.842 J304.098
N1150 G01 X-541.029
N1155 G03 X-73.312 Y-600.31 I541.029 J270.25
N1160 G02 X-308.342 Y-316.598 I420.812 J587.81
N1165 G01 X-290.198 Y-308.184
N1170 G02 X-313.985 Y-250.25 I637.698 J295.684
N1175 G01 X-572.462
N1180 G03 X2.221 Y-624.766 I572.462 J250.25
N1185 G02 X-290.198 Y-308.184 I345.279 J612.266
N1190 G01 X-272.053 Y-299.771
N1195 G02 X-299.768 Y-230.25 I619.553 J287.271
N1200 G01 X-602.257
N1205 G03 X78.086 Y-640.025 I602.257 J230.25
N1210 G02 X-272.053 Y-299.771 I269.414 J627.525
N1215 G01 X-253.909 Y-291.358
N1220 G02 X-285.232 Y-210.25 I601.409 J278.858
N1225 G01 X-630.646
N1230 G03 X154.262 Y-646.624 I630.646 J210.25
N1235 G02 X-253.909 Y-291.358 I193.238 J634.124
N1240 G01 X-235.764 Y-282.945
N1245 G02 X-270.353 Y-190.25 I583.264 J270.445
N1250 G01 X-657.811
N1255 G03 X230.744 Y-644.723 I657.811 J190.25
N1260 G02 X-235.764 Y-282.945 I116.756 J632.223
N1265 G01 X-217.62 Y-274.532
N1270 G02 X-255.108 Y-170.25 I565.12 J262.032
N1275 G01 X-683.898
N1280 G03 X267.999 Y-651.826 I683.898 J170.25
N1285 X272.718 Y-630.908 I-48.046 J21.828
N1290 G02 X-217.62 Y-274.532 I74.782 J618.408
N1295 G01 X-199.476 Y-266.119
N1300 G02 X-239.467 Y-150.25 I546.976 J253.619
N1305 G01 X-709.025
N1310 G03 X282.299 Y-667.532 I709.025 J150.25
N1315 X290.646 Y-612.727 I-62.345 J37.534
N1320 G02 X-199.476 Y-266.119 I56.854 J600.227
N1325 G01 X-181.331 Y-257.706
N1330 G02 X-223.397 Y-130.25 I528.831 J245.206
N1335 G01 X-733.293
N1340 G03 X295.71 Y-683.549 I733.293 J130.25
N1345 X305.411 Y-593.892 I-75.756 J53.55
N1350 G02 X-181.331 Y-257.706 I42.089 J581.392
N1355 G01 X-163.187 Y-249.293
N1360 G02 X-206.861 Y-110.25 I510.687 J236.793
N1365 G01 X-756.782
N1370 G03 X308.557 Y-699.762 I756.782 J110.25
N1375 X318.209 Y-574.651 I-88.603 J69.763
N1380 G02 X-163.187 Y-249.293 I29.291 J562.151
N1385 G01 X-145.042 Y-240.88
N1390 G02 X-189.818 Y-90.25 I492.542 J228.38
N1395 G01 X-779.564
N1400 G03 X321.013 Y-716.111 I779.564 J90.25
N1405 X329.595 Y-555.118 I-101.059 J86.113
N1410 G02 X-145.042 Y-240.88 I17.905 J542.618
N1415 G01 X-126.898 Y-232.466
N1420 G02 X-172.215 Y-70.25 I474.398 J219.966
N1425 G01 X-801.698
N1430 G03 X333.179 Y-732.562 I801.698 J70.25
N1435 X339.88 Y-535.358 I-113.225 J102.564
N1440 G02 X-126.898 Y-232.466 I7.62 J522.858
N1445 G01 X-108.753 Y-224.053
N1450 G02 X-152.821 Y-63.504 I456.253 J211.553
N1455 G03 X-167.495 Y-50.25 I-14.674 J-1.496
N1460 G01 X-807.408
N1465 G03 X-822.111 Y-66.184 I0 J-14.75
N1470 X342.458 Y-750.313 I822.111 J66.184
N1475 X347.196 Y-746.872 I-6.124 J13.418
N1480 X353.855 Y-520.818 I-127.242 J116.873
N1485 X342.568 Y-515.389 I-11.432 J-9.321
N1490 G02 X-152.821 Y-63.504 I4.932 J502.889
N1495 G03 X-167.495 Y-50.25 I-14.674 J-1.496
N1500 G01 X-807.408
N1505 G03 X-822.111 Y-66.184 I0 J-14.75
N1510 X342.458 Y-750.313 I822.111 J66.184
N1515 X347.196 Y-746.872 I-6.124 J13.418
N1520 X353.855 Y-520.818 I-127.242 J116.873
N1525 X342.568 Y-515.389 I-11.432 J-9.321
N1530 G02 X-108.753 Y-224.053 I4.932 J502.889
N1535 G00 Z2.5
N1540 G90 G54 X-380.92 Y-350.25
N1545 Z-65.667
N1550 G01 Z-89.75 F69.553
N1555 X-390.78 F278.213
N1560 G03 X-370.732 Y-371.405 I390.78 J350.25
N1565 G02 X-380.92 Y-350.25 I718.232 J358.905
N1570 G01 X-362.775 Y-341.837
N1575 G02 X-368.034 Y-330.25 I710.275 J329.337
N1580 G01 X-433.255
N1585 G03 X-297.378 Y-456.444 I433.255 J330.25
N1590 G02 X-362.775 Y-341.837 I644.878 J443.944
N1595 G01 X-344.631 Y-333.424
N1600 G02 X-354.912 Y-310.25 I692.131 J320.924
N1605 G01 X-471.922
N1610 G03 X-223.207 Y-518.791 I471.922 J310.25
N1615 G02 X-344.631 Y-333.424 I570.707 J506.291
N1620 G01 X-326.486 Y-325.011
N1625 G02 X-341.54 Y-290.25 I673.986 J312.511
N1630 G01 X-507.653
N1635 G03 X-148.477 Y-565.607 I507.653 J290.25
N1640 G02 X-326.486 Y-325.011 I495.977 J553.107
N1645 G01 X-308.342 Y-316.598
N1650 G02 X-327.903 Y-270.25 I655.842 J304.098
N1655 G01 X-541.029
N1660 G03 X-73.312 Y-600.31 I541.029 J270.25
N1665 G02 X-308.342 Y-316.598 I420.812 J587.81
N1670 G01 X-290.198 Y-308.184
N1675 G02 X-313.985 Y-250.25 I637.698 J295.684
N1680 G01 X-572.462
N1685 G03 X2.221 Y-624.766 I572.462 J250.25
N1690 G02 X-290.198 Y-308.184 I345.279 J612.266
N1695 G01 X-272.053 Y-299.771
N1700 G02 X-299.768 Y-230.25 I619.553 J287.271
N1705 G01 X-602.257
N1710 G03 X78.086 Y-640.025 I602.257 J230.25
N1715 G02 X-272.053 Y-299.771 I269.414 J627.525
N1720 G01 X-253.909 Y-291.358
N1725 G02 X-285.232 Y-210.25 I601.409 J278.858
N1730 G01 X-630.646
N1735 G03 X154.262 Y-646.624 I630.646 J210.25
N1740 G02 X-253.909 Y-291.358 I193.238 J634.124
N1745 G01 X-235.764 Y-282.945
N1750 G02 X-270.353 Y-190.25 I583.264 J270.445
N1755 G01 X-657.811
N1760 G03 X230.744 Y-644.723 I657.811 J190.25
N1765 G02 X-235.764 Y-282.945 I116.756 J632.223
N1770 G01 X-217.62 Y-274.532
N1775 G02 X-255.108 Y-170.25 I565.12 J262.032
N1780 G01 X-683.898
N1785 G03 X267.999 Y-651.826 I683.898 J170.25
N1790 X272.718 Y-630.908 I-48.046 J21.828
N1795 G02 X-217.62 Y-274.532 I74.782 J618.408
N1800 G01 X-199.476 Y-266.119
N1805 G02 X-239.467 Y-150.25 I546.976 J253.619
N1810 G01 X-709.025
N1815 G03 X282.299 Y-667.532 I709.025 J150.25
N1820 X290.646 Y-612.727 I-62.345 J37.534
N1825 G02 X-199.476 Y-266.119 I56.854 J600.227
N1830 G01 X-181.331 Y-257.706
N1835 G02 X-223.397 Y-130.25 I528.831 J245.206
N1840 G01 X-733.293
N1845 G03 X295.71 Y-683.549 I733.293 J130.25
N1850 X305.411 Y-593.892 I-75.756 J53.55
N1855 G02 X-181.331 Y-257.706 I42.089 J581.392
N1860 G01 X-163.187 Y-249.293
N1865 G02 X-206.861 Y-110.25 I510.687 J236.793
N1870 G01 X-756.782
N1875 G03 X308.557 Y-699.762 I756.782 J110.25
N1880 X318.209 Y-574.651 I-88.603 J69.763
N1885 G02 X-163.187 Y-249.293 I29.291 J562.151
N1890 G01 X-145.042 Y-240.88
N1895 G02 X-189.818 Y-90.25 I492.542 J228.38
N1900 G01 X-779.564
N1905 G03 X321.013 Y-716.111 I779.564 J90.25
N1910 X329.595 Y-555.118 I-101.059 J86.113
N1915 G02 X-145.042 Y-240.88 I17.905 J542.618
N1920 G01 X-126.898 Y-232.466
N1925 G02 X-172.215 Y-70.25 I474.398 J219.966
N1930 G01 X-801.698
N1935 G03 X333.179 Y-732.562 I801.698 J70.25
N1940 X339.88 Y-535.358 I-113.225 J102.564
N1945 G02 X-126.898 Y-232.466 I7.62 J522.858
N1950 G01 X-108.753 Y-224.053
N1955 G02 X-152.821 Y-63.504 I456.253 J211.553
N1960 G03 X-167.495 Y-50.25 I-14.674 J-1.496
N1965 G01 X-807.408
N1970 G03 X-822.111 Y-66.184 I0 J-14.75
N1975 X342.458 Y-750.313 I822.111 J66.184
N1980 X347.196 Y-746.872 I-6.124 J13.418
N1985 X353.855 Y-520.818 I-127.242 J116.873
N1990 X342.568 Y-515.389 I-11.432 J-9.321
N1995 G02 X-152.821 Y-63.504 I4.932 J502.889
N2000 G03 X-167.495 Y-50.25 I-14.674 J-1.496
N2005 G01 X-807.408
N2010 G03 X-822.111 Y-66.184 I0 J-14.75
N2015 X342.458 Y-750.313 I822.111 J66.184
N2020 X347.196 Y-746.872 I-6.124 J13.418
N2025 X353.855 Y-520.818 I-127.242 J116.873
N2030 X342.568 Y-515.389 I-11.432 J-9.321
N2035 G02 X-108.753 Y-224.053 I4.932 J502.889
N2040 G00 Z2.5
N2045 G90 G54 X-380.92 Y-350.25
N2050 Z-87.25
N2055 G01 Z-90. F69.553
N2060 X-390.78 F278.213
N2065 G03 X-370.732 Y-371.405 I390.78 J350.25
N2070 G02 X-380.92 Y-350.25 I718.232 J358.905
N2075 G01 X-362.775 Y-341.837
N2080 G02 X-368.034 Y-330.25 I710.275 J329.337
N2085 G01 X-433.255
N2090 G03 X-297.378 Y-456.444 I433.255 J330.25
N2095 G02 X-362.775 Y-341.837 I644.878 J443.944
N2100 G01 X-344.631 Y-333.424
N2105 G02 X-354.912 Y-310.25 I692.131 J320.924
N2110 G01 X-471.922
N2115 G03 X-223.207 Y-518.791 I471.922 J310.25
N2120 G02 X-344.631 Y-333.424 I570.707 J506.291
N2125 G01 X-326.486 Y-325.011
N2130 G02 X-341.54 Y-290.25 I673.986 J312.511
N2135 G01 X-507.653
N2140 G03 X-148.477 Y-565.607 I507.653 J290.25
N2145 G02 X-326.486 Y-325.011 I495.977 J553.107
N2150 G01 X-308.342 Y-316.598
N2155 G02 X-327.903 Y-270.25 I655.842 J304.098
N2160 G01 X-541.029
N2165 G03 X-73.312 Y-600.31 I541.029 J270.25
N2170 G02 X-308.342 Y-316.598 I420.812 J587.81
N2175 G01 X-290.198 Y-308.184
N2180 G02 X-313.985 Y-250.25 I637.698 J295.684
N2185 G01 X-572.462
N2190 G03 X2.221 Y-624.766 I572.462 J250.25
N2195 G02 X-290.198 Y-308.184 I345.279 J612.266
N2200 G01 X-272.053 Y-299.771
N2205 G02 X-299.768 Y-230.25 I619.553 J287.271
N2210 G01 X-602.257
N2215 G03 X78.086 Y-640.025 I602.257 J230.25
N2220 G02 X-272.053 Y-299.771 I269.414 J627.525
N2225 G01 X-253.909 Y-291.358
N2230 G02 X-285.232 Y-210.25 I601.409 J278.858
N2235 G01 X-630.646
N2240 G03 X154.262 Y-646.624 I630.646 J210.25
N2245 G02 X-253.909 Y-291.358 I193.238 J634.124
N2250 G01 X-235.764 Y-282.945
N2255 G02 X-270.353 Y-190.25 I583.264 J270.445
N2260 G01 X-657.811
N2265 G03 X230.744 Y-644.723 I657.811 J190.25
N2270 G02 X-235.764 Y-282.945 I116.756 J632.223
N2275 G01 X-217.62 Y-274.532
N2280 G02 X-255.108 Y-170.25 I565.12 J262.032
N2285 G01 X-683.898
N2290 G03 X267.999 Y-651.826 I683.898 J170.25
N2295 X272.718 Y-630.908 I-48.046 J21.828
N2300 G02 X-217.62 Y-274.532 I74.782 J618.408
N2305 G01 X-199.476 Y-266.119
N2310 G02 X-239.467 Y-150.25 I546.976 J253.619
N2315 G01 X-709.025
N2320 G03 X282.299 Y-667.532 I709.025 J150.25
N2325 X290.646 Y-612.727 I-62.345 J37.534
N2330 G02 X-199.476 Y-266.119 I56.854 J600.227
N2335 G01 X-181.331 Y-257.706
N2340 G02 X-223.397 Y-130.25 I528.831 J245.206
N2345 G01 X-733.293
N2350 G03 X295.71 Y-683.549 I733.293 J130.25
N2355 X305.411 Y-593.892 I-75.756 J53.55
N2360 G02 X-181.331 Y-257.706 I42.089 J581.392
N2365 G01 X-163.187 Y-249.293
N2370 G02 X-206.861 Y-110.25 I510.687 J236.793
N2375 G01 X-756.782
N2380 G03 X308.557 Y-699.762 I756.782 J110.25
N2385 X318.209 Y-574.651 I-88.603 J69.763
N2390 G02 X-163.187 Y-249.293 I29.291 J562.151
N2395 G01 X-145.042 Y-240.88
N2400 G02 X-189.818 Y-90.25 I492.542 J228.38
N2405 G01 X-779.564
N2410 G03 X321.013 Y-716.111 I779.564 J90.25
N2415 X329.595 Y-555.118 I-101.059 J86.113
N2420 G02 X-145.042 Y-240.88 I17.905 J542.618
N2425 G01 X-126.898 Y-232.466
N2430 G02 X-172.215 Y-70.25 I474.398 J219.966
N2435 G01 X-801.698
N2440 G03 X333.179 Y-732.562 I801.698 J70.25
N2445 X339.88 Y-535.358 I-113.225 J102.564
N2450 G02 X-126.898 Y-232.466 I7.62 J522.858
N2455 G01 X-108.753 Y-224.053
N2460 G02 X-152.821 Y-63.504 I456.253 J211.553
N2465 G03 X-167.495 Y-50.25 I-14.674 J-1.496
N2470 G01 X-807.408
N2475 G03 X-822.111 Y-66.184 I0 J-14.75
N2480 X342.458 Y-750.313 I822.111 J66.184
N2485 X347.196 Y-746.872 I-6.124 J13.418
N2490 X353.855 Y-520.818 I-127.242 J116.873
N2495 X342.568 Y-515.389 I-11.432 J-9.321
N2500 G02 X-152.821 Y-63.504 I4.932 J502.889
N2505 G03 X-167.495 Y-50.25 I-14.674 J-1.496
N2510 G01 X-807.408
N2515 G03 X-822.111 Y-66.184 I0 J-14.75
N2520 X342.458 Y-750.313 I822.111 J66.184
N2525 X347.196 Y-746.872 I-6.124 J13.418
N2530 X353.855 Y-520.818 I-127.242 J116.873
N2535 X342.568 Y-515.389 I-11.432 J-9.321
N2540 G02 X-108.753 Y-224.053 I4.932 J502.889
N2545 G00 Z2.5
N2550 Z25.
N2555 G90 G54 X-167.495 Y-50.25
N2560 Z2.5
N2565 G01 Z-25. F69.553
N2570 X-176.893 F278.213
N2575 G02 X-151.823 Y-72.488 I0 J-25.25
N2580 X-152.821 Y-63.504 I499.323 J59.988
N2585 G03 X-167.495 Y-50.25 I-14.674 J-1.496
N2590 G00 Z2.5
N2595 Z-22.5
N2600 G01 Z-46.583 F69.553
N2605 X-176.893 F278.213
N2610 G02 X-151.823 Y-72.488 I0 J-25.25
N2615 X-152.821 Y-63.504 I499.323 J59.988
N2620 G03 X-167.495 Y-50.25 I-14.674 J-1.496
N2625 G00 Z2.5
N2630 Z-44.083
N2635 G01 Z-68.167 F69.553
N2640 X-176.893 F278.213
N2645 G02 X-151.823 Y-72.488 I0 J-25.25
N2650 X-152.821 Y-63.504 I499.323 J59.988
N2655 G03 X-167.495 Y-50.25 I-14.674 J-1.496
N2660 G00 Z2.5
N2665 Z-65.667
N2670 G01 Z-89.75 F69.553
N2675 X-176.893 F278.213
N2680 G02 X-151.823 Y-72.488 I0 J-25.25
N2685 X-152.821 Y-63.504 I499.323 J59.988
N2690 G03 X-167.495 Y-50.25 I-14.674 J-1.496
N2695 G00 Z2.5
N2700 Z-87.25
N2705 G01 Z-90. F69.553
N2710 X-176.893 F278.213
N2715 G02 X-151.823 Y-72.488 I0 J-25.25
N2720 X-152.821 Y-63.504 I499.323 J59.988
N2725 G03 X-167.495 Y-50.25 I-14.674 J-1.496
N2730 G00 Z2.5
N2735 G90 G54 X-821.085 Y-77.884
N2740 G01 Z-25. F69.553
N2745 G02 X-795.948 Y-50.25 I25.137 J2.384 F278.213
N2750 G01 X-807.408
N2755 G03 X-822.111 Y-66.184 I0 J-14.75
N2760 X-821.085 Y-77.884 I822.111 J66.184
N2765 G00 Z2.5
N2770 Z-22.5
N2775 G01 Z-46.583 F69.553
N2780 G02 X-795.948 Y-50.25 I25.137 J2.384 F278.213
N2785 G01 X-807.408
N2790 G03 X-822.111 Y-66.184 I0 J-14.75
N2795 X-821.085 Y-77.884 I822.111 J66.184
N2800 G00 Z2.5
N2805 Z-44.083
N2810 G01 Z-68.167 F69.553
N2815 G02 X-795.948 Y-50.25 I25.137 J2.384 F278.213
N2820 G01 X-807.408
N2825 G03 X-822.111 Y-66.184 I0 J-14.75
N2830 X-821.085 Y-77.884 I822.111 J66.184
N2835 G00 Z2.5
N2840 Z-65.667
N2845 G01 Z-89.75 F69.553
N2850 G02 X-795.948 Y-50.25 I25.137 J2.384 F278.213
N2855 G01 X-807.408
N2860 G03 X-822.111 Y-66.184 I0 J-14.75
N2865 X-821.085 Y-77.884 I822.111 J66.184
N2870 G00 Z2.5
N2875 Z-87.25
N2880 G01 Z-90. F69.553
N2885 G02 X-795.948 Y-50.25 I25.137 J2.384 F278.213
N2890 G01 X-807.408
N2895 G03 X-822.111 Y-66.184 I0 J-14.75
N2900 X-821.085 Y-77.884 I822.111 J66.184
N2905 G00 Z2.5
N2910 G90 G54 X348.846 Y-745.05
N2915 G01 Z-25. F69.553
N2920 G02 X340.431 Y-751.234 I-18.837 J16.814 F278.213
N2925 G03 X342.458 Y-750.313 I-340.431 J751.234
N2930 X347.196 Y-746.872 I-6.124 J13.418
N2935 X348.846 Y-745.05 I-127.242 J116.873
N2940 G00 Z2.5
N2945 Z-22.5
N2950 G01 Z-46.583 F69.553
N2955 G02 X340.431 Y-751.234 I-18.837 J16.814 F278.213
N2960 G03 X342.458 Y-750.313 I-340.431 J751.234
N2965 X347.196 Y-746.872 I-6.124 J13.418
N2970 X348.846 Y-745.05 I-127.242 J116.873
N2975 G00 Z2.5
N2980 Z-44.083
N2985 G01 Z-68.167 F69.553
N2990 G02 X340.431 Y-751.234 I-18.837 J16.814 F278.213
N2995 G03 X342.458 Y-750.313 I-340.431 J751.234
N3000 X347.196 Y-746.872 I-6.124 J13.418
N3005 X348.846 Y-745.05 I-127.242 J116.873
N3010 G00 Z2.5
N3015 Z-65.667
N3020 G01 Z-89.75 F69.553
N3025 G02 X340.431 Y-751.234 I-18.837 J16.814 F278.213
N3030 G03 X342.458 Y-750.313 I-340.431 J751.234
N3035 X347.196 Y-746.872 I-6.124 J13.418
N3040 X348.846 Y-745.05 I-127.242 J116.873
N3045 G00 Z2.5
N3050 Z-87.25
N3055 G01 Z-90. F69.553
N3060 G02 X340.431 Y-751.234 I-18.837 J16.814 F278.213
N3065 G03 X342.458 Y-750.313 I-340.431 J751.234
N3070 X347.196 Y-746.872 I-6.124 J13.418
N3075 X348.846 Y-745.05 I-127.242 J116.873
N3080 G00 Z2.5
N3085 G90 G54 X337.763 Y-515.319
N3090 G01 Z-25. F69.553
N3095 G02 X357.355 Y-525.257 I-.489 J-25.245 F278.213
N3100 G03 X353.855 Y-520.818 I-137.402 J-104.742
N3105 X342.568 Y-515.389 I-11.432 J-9.321
N3110 G02 X337.763 Y-515.319 I4.932 J502.889
N3115 G00 Z2.5
N3120 Z-22.5
N3125 G01 Z-46.583 F69.553
N3130 G02 X357.355 Y-525.257 I-.489 J-25.245 F278.213
N3135 G03 X353.855 Y-520.818 I-137.402 J-104.742
N3140 X342.568 Y-515.389 I-11.432 J-9.321
N3145 G02 X337.763 Y-515.319 I4.932 J502.889
N3150 G00 Z2.5
N3155 Z-44.083
N3160 G01 Z-68.167 F69.553
N3165 G02 X357.355 Y-525.257 I-.489 J-25.245 F278.213
N3170 G03 X353.855 Y-520.818 I-137.402 J-104.742
N3175 X342.568 Y-515.389 I-11.432 J-9.321
N3180 G02 X337.763 Y-515.319 I4.932 J502.889
N3185 G00 Z2.5
N3190 Z-65.667
N3195 G01 Z-89.75 F69.553
N3200 G02 X357.355 Y-525.257 I-.489 J-25.245 F278.213
N3205 G03 X353.855 Y-520.818 I-137.402 J-104.742
N3210 X342.568 Y-515.389 I-11.432 J-9.321
N3215 G02 X337.763 Y-515.319 I4.932 J502.889
N3220 G00 Z2.5
N3225 Z-87.25
N3230 G01 Z-90. F69.553
N3235 G02 X357.355 Y-525.257 I-.489 J-25.245 F278.213
N3240 G03 X353.855 Y-520.818 I-137.402 J-104.742
N3245 X342.568 Y-515.389 I-11.432 J-9.321
N3250 G02 X337.763 Y-515.319 I4.932 J502.889
N3255 G00 Z2.5
N3260 Z25.
N3265 G90 G54 X-460.531 Y-69.849
N3270 Z3.
N3275 G01 Z-25. F69.553
N3280 G90 G41 X-478.916 Y-51.464 D05 F208.66
N3285 G03 X-482.451 Y-50. I-3.536 J-3.536
N3290 G01 X-807.408 F278.213
N3295 G03 X-822.36 Y-66.204 I0 J-15.
N3300 X342.561 Y-750.54 I822.36 J66.204
N3305 X347.38 Y-747.041 I-6.228 J13.646
N3310 X354.049 Y-520.66 I-127.426 J117.043
N3315 X342.571 Y-515.139 I-11.625 J-9.479
N3320 G02 X-152.572 Y-63.479 I4.929 J502.639
N3325 G03 X-167.495 Y-50. I-14.923 J-1.521
N3330 G01 X-492.451
N3335 G03 X-495.987 Y-51.464 I0 J-5.
N3340 G40 G01 X-514.372 Y-69.849
N3345 G00 Z3.
N3350 G90 G54 X-460.531 Y-69.849
N3355 Z-22.
N3360 G01 Z-46.667 F69.553
N3365 G90 G41 X-478.916 Y-51.464 D05 F208.66
N3370 G03 X-482.451 Y-50. I-3.536 J-3.536
N3375 G01 X-807.408 F278.213
N3380 G03 X-822.36 Y-66.204 I0 J-15.
N3385 X342.561 Y-750.54 I822.36 J66.204
N3390 X347.38 Y-747.041 I-6.228 J13.646
N3395 X354.049 Y-520.66 I-127.426 J117.043
N3400 X342.571 Y-515.139 I-11.625 J-9.479
N3405 G02 X-152.572 Y-63.479 I4.929 J502.639
N3410 G03 X-167.495 Y-50. I-14.923 J-1.521
N3415 G01 X-492.451
N3420 G03 X-495.987 Y-51.464 I0 J-5.
N3425 G40 G01 X-514.372 Y-69.849
N3430 G00 Z3.
N3435 G90 G54 X-460.531 Y-69.849
N3440 Z-43.667
N3445 G01 Z-68.333 F69.553
N3450 G90 G41 X-478.916 Y-51.464 D05 F208.66
N3455 G03 X-482.451 Y-50. I-3.536 J-3.536
N3460 G01 X-807.408 F278.213
N3465 G03 X-822.36 Y-66.204 I0 J-15.
N3470 X342.561 Y-750.54 I822.36 J66.204
N3475 X347.38 Y-747.041 I-6.228 J13.646
N3480 X354.049 Y-520.66 I-127.426 J117.043
N3485 X342.571 Y-515.139 I-11.625 J-9.479
N3490 G02 X-152.572 Y-63.479 I4.929 J502.639
N3495 G03 X-167.495 Y-50. I-14.923 J-1.521
N3500 G01 X-492.451
N3505 G03 X-495.987 Y-51.464 I0 J-5.
N3510 G40 G01 X-514.372 Y-69.849
N3515 G00 Z3.
N3520 G90 G54 X-460.531 Y-69.849
N3525 Z-65.333
N3530 G01 Z-90. F69.553
N3535 G90 G41 X-478.916 Y-51.464 D05 F208.66
N3540 G03 X-482.451 Y-50. I-3.536 J-3.536
N3545 G01 X-807.408 F278.213
N3550 G03 X-822.36 Y-66.204 I0 J-15.
N3555 X342.561 Y-750.54 I822.36 J66.204
N3560 X347.38 Y-747.041 I-6.228 J13.646
N3565 X354.049 Y-520.66 I-127.426 J117.043
N3570 X342.571 Y-515.139 I-11.625 J-9.479
N3575 G02 X-152.572 Y-63.479 I4.929 J502.639
N3580 G03 X-167.495 Y-50. I-14.923 J-1.521
N3585 G01 X-492.451
N3590 G03 X-495.987 Y-51.464 I0 J-5.
N3595 G40 G01 X-514.372 Y-69.849
N3600 G00 Z3.
N3605 Z25.
N3610 G90 G54 X-390.78 Y350.25
N3615 Z2.5
N3620 G01 Z-25. F69.553
N3625 X-380.92 F278.213
N3630 G02 X-370.732 Y371.405 I728.42 J-337.75
N3635 G03 X-390.78 Y350.25 I370.732 J-371.405
N3640 G01 X-405.673 Y363.599
N3645 G03 X-433.255 Y330.25 I405.673 J-363.599
N3650 G01 X-368.034
N3655 G02 X-297.378 Y456.444 I715.534 J-317.75
N3660 G03 X-405.673 Y363.599 I297.378 J-456.444
N3665 G01 X-420.567 Y376.947
N3670 G03 X-471.922 Y310.25 I420.567 J-376.947
N3675 G01 X-354.912
N3680 G02 X-223.207 Y518.791 I702.412 J-297.75
N3685 G03 X-420.567 Y376.947 I223.207 J-518.791
N3690 G01 X-435.46 Y390.296
N3695 G03 X-507.653 Y290.25 I435.46 J-390.296
N3700 G01 X-341.54
N3705 G02 X-148.477 Y565.607 I689.04 J-277.75
N3710 G03 X-435.46 Y390.296 I148.477 J-565.607
N3715 G01 X-450.353 Y403.645
N3720 G03 X-541.029 Y270.25 I450.353 J-403.645
N3725 G01 X-327.903
N3730 G02 X-73.312 Y600.31 I675.403 J-257.75
N3735 G03 X-450.353 Y403.645 I73.312 J-600.31
N3740 G01 X-465.247 Y416.993
N3745 G03 X-572.462 Y250.25 I465.247 J-416.993
N3750 G01 X-313.985
N3755 G02 X2.221 Y624.766 I661.485 J-237.75
N3760 G03 X-465.247 Y416.993 I-2.221 J-624.766
N3765 G01 X-480.14 Y430.342
N3770 G03 X-602.257 Y230.25 I480.14 J-430.342
N3775 G01 X-299.768
N3780 G02 X78.086 Y640.025 I647.268 J-217.75
N3785 G03 X-480.14 Y430.342 I-78.086 J-640.025
N3790 G01 X-495.033 Y443.691
N3795 G03 X-630.646 Y210.25 I495.033 J-443.691
N3800 G01 X-285.232
N3805 G02 X154.262 Y646.624 I632.732 J-197.75
N3810 G03 X-495.033 Y443.691 I-154.262 J-646.624
N3815 G01 X-509.927 Y457.04
N3820 G03 X-657.811 Y190.25 I509.927 J-457.04
N3825 G01 X-270.353
N3830 G02 X230.744 Y644.723 I617.853 J-177.75
N3835 G03 X-509.927 Y457.04 I-230.744 J-644.723
N3840 G01 X-524.82 Y470.388
N3845 G03 X-683.898 Y170.25 I524.82 J-470.388
N3850 G01 X-255.108
N3855 G02 X272.718 Y630.908 I602.608 J-157.75
N3860 G03 X267.999 Y651.826 I-52.764 J-.91
N3865 X-524.82 Y470.388 I-267.999 J-651.826
N3870 G01 X-539.714 Y483.737
N3875 G03 X-709.025 Y150.25 I539.714 J-483.737
N3880 G01 X-239.467
N3885 G02 X290.646 Y612.727 I586.967 J-137.75
N3890 G03 X282.299 Y667.532 I-70.692 J17.272
N3895 X-539.714 Y483.737 I-282.299 J-667.532
N3900 G01 X-554.607 Y497.086
N3905 G03 X-733.293 Y130.25 I554.607 J-497.086
N3910 G01 X-223.397
N3915 G02 X305.411 Y593.892 I570.897 J-117.75
N3920 G03 X295.71 Y683.549 I-85.457 J36.107
N3925 X-554.607 Y497.086 I-295.71 J-683.549
N3930 G01 X-569.5 Y510.434
N3935 G03 X-756.782 Y110.25 I569.5 J-510.434
N3940 G01 X-206.861
N3945 G02 X318.209 Y574.651 I554.361 J-97.75
N3950 G03 X308.557 Y699.762 I-98.255 J55.348
N3955 X-569.5 Y510.434 I-308.557 J-699.762
N3960 G01 X-584.394 Y523.783
N3965 G03 X-779.564 Y90.25 I584.394 J-523.783
N3970 G01 X-189.818
N3975 G02 X329.595 Y555.118 I537.318 J-77.75
N3980 G03 X321.013 Y716.111 I-109.641 J74.88
N3985 X-584.394 Y523.783 I-321.013 J-716.111
N3990 G01 X-599.287 Y537.132
N3995 G03 X-801.698 Y70.25 I599.287 J-537.132
N4000 G01 X-172.215
N4005 G02 X339.88 Y535.358 I519.715 J-57.75
N4010 G03 X333.179 Y732.562 I-119.926 J94.641
N4015 X-599.287 Y537.132 I-333.179 J-732.562
N4020 G01 X-614.18 Y550.48
N4025 G03 X-822.111 Y66.184 I614.18 J-550.48
N4030 X-807.408 Y50.25 I14.702 J-1.184
N4035 G01 X-167.495
N4040 G03 X-152.821 Y63.504 I0 J14.75
N4045 G02 X342.568 Y515.389 I500.321 J-51.004
N4050 G03 X353.855 Y520.818 I-.145 J14.749
N4055 X347.196 Y746.872 I-133.901 J109.181
N4060 X342.458 Y750.313 I-10.863 J-9.978
N4065 X-822.111 Y66.184 I-342.458 J-750.313
N4070 X-807.408 Y50.25 I14.702 J-1.184
N4075 G01 X-167.495
N4080 G03 X-152.821 Y63.504 I0 J14.75
N4085 G02 X342.568 Y515.389 I500.321 J-51.004
N4090 G03 X353.855 Y520.818 I-.145 J14.749
N4095 X347.196 Y746.872 I-133.901 J109.181
N4100 X342.458 Y750.313 I-10.863 J-9.978
N4105 X-614.18 Y550.48 I-342.458 J-750.313
N4110 G00 Z2.5
N4115 G90 G54 X-390.78 Y350.25
N4120 Z-22.5
N4125 G01 Z-46.583 F69.553
N4130 X-380.92 F278.213
N4135 G02 X-370.732 Y371.405 I728.42 J-337.75
N4140 G03 X-390.78 Y350.25 I370.732 J-371.405
N4145 G01 X-405.673 Y363.599
N4150 G03 X-433.255 Y330.25 I405.673 J-363.599
N4155 G01 X-368.034
N4160 G02 X-297.378 Y456.444 I715.534 J-317.75
N4165 G03 X-405.673 Y363.599 I297.378 J-456.444
N4170 G01 X-420.567 Y376.947
N4175 G03 X-471.922 Y310.25 I420.567 J-376.947
N4180 G01 X-354.912
N4185 G02 X-223.207 Y518.791 I702.412 J-297.75
N4190 G03 X-420.567 Y376.947 I223.207 J-518.791
N4195 G01 X-435.46 Y390.296
N4200 G03 X-507.653 Y290.25 I435.46 J-390.296
N4205 G01 X-341.54
N4210 G02 X-148.477 Y565.607 I689.04 J-277.75
N4215 G03 X-435.46 Y390.296 I148.477 J-565.607
N4220 G01 X-450.353 Y403.645
N4225 G03 X-541.029 Y270.25 I450.353 J-403.645
N4230 G01 X-327.903
N4235 G02 X-73.312 Y600.31 I675.403 J-257.75
N4240 G03 X-450.353 Y403.645 I73.312 J-600.31
N4245 G01 X-465.247 Y416.993
N4250 G03 X-572.462 Y250.25 I465.247 J-416.993
N4255 G01 X-313.985
N4260 G02 X2.221 Y624.766 I661.485 J-237.75
N4265 G03 X-465.247 Y416.993 I-2.221 J-624.766
N4270 G01 X-480.14 Y430.342
N4275 G03 X-602.257 Y230.25 I480.14 J-430.342
N4280 G01 X-299.768
N4285 G02 X78.086 Y640.025 I647.268 J-217.75
N4290 G03 X-480.14 Y430.342 I-78.086 J-640.025
N4295 G01 X-495.033 Y443.691
N4300 G03 X-630.646 Y210.25 I495.033 J-443.691
N4305 G01 X-285.232
N4310 G02 X154.262 Y646.624 I632.732 J-197.75
N4315 G03 X-495.033 Y443.691 I-154.262 J-646.624
N4320 G01 X-509.927 Y457.04
N4325 G03 X-657.811 Y190.25 I509.927 J-457.04
N4330 G01 X-270.353
N4335 G02 X230.744 Y644.723 I617.853 J-177.75
N4340 G03 X-509.927 Y457.04 I-230.744 J-644.723
N4345 G01 X-524.82 Y470.388
N4350 G03 X-683.898 Y170.25 I524.82 J-470.388
N4355 G01 X-255.108
N4360 G02 X272.718 Y630.908 I602.608 J-157.75
N4365 G03 X267.999 Y651.826 I-52.764 J-.91
N4370 X-524.82 Y470.388 I-267.999 J-651.826
N4375 G01 X-539.714 Y483.737
N4380 G03 X-709.025 Y150.25 I539.714 J-483.737
N4385 G01 X-239.467
N4390 G02 X290.646 Y612.727 I586.967 J-137.75
N4395 G03 X282.299 Y667.532 I-70.692 J17.272
N4400 X-539.714 Y483.737 I-282.299 J-667.532
N4405 G01 X-554.607 Y497.086
N4410 G03 X-733.293 Y130.25 I554.607 J-497.086
N4415 G01 X-223.397
N4420 G02 X305.411 Y593.892 I570.897 J-117.75
N4425 G03 X295.71 Y683.549 I-85.457 J36.107
N4430 X-554.607 Y497.086 I-295.71 J-683.549
N4435 G01 X-569.5 Y510.434
N4440 G03 X-756.782 Y110.25 I569.5 J-510.434
N4445 G01 X-206.861
N4450 G02 X318.209 Y574.651 I554.361 J-97.75
N4455 G03 X308.557 Y699.762 I-98.255 J55.348
N4460 X-569.5 Y510.434 I-308.557 J-699.762
N4465 G01 X-584.394 Y523.783
N4470 G03 X-779.564 Y90.25 I584.394 J-523.783
N4475 G01 X-189.818
N4480 G02 X329.595 Y555.118 I537.318 J-77.75
N4485 G03 X321.013 Y716.111 I-109.641 J74.88
N4490 X-584.394 Y523.783 I-321.013 J-716.111
N4495 G01 X-599.287 Y537.132
N4500 G03 X-801.698 Y70.25 I599.287 J-537.132
N4505 G01 X-172.215
N4510 G02 X339.88 Y535.358 I519.715 J-57.75
N4515 G03 X333.179 Y732.562 I-119.926 J94.641
N4520 X-599.287 Y537.132 I-333.179 J-732.562
N4525 G01 X-614.18 Y550.48
N4530 G03 X-822.111 Y66.184 I614.18 J-550.48
N4535 X-807.408 Y50.25 I14.702 J-1.184
N4540 G01 X-167.495
N4545 G03 X-152.821 Y63.504 I0 J14.75
N4550 G02 X342.568 Y515.389 I500.321 J-51.004
N4555 G03 X353.855 Y520.818 I-.145 J14.749
N4560 X347.196 Y746.872 I-133.901 J109.181
N4565 X342.458 Y750.313 I-10.863 J-9.978
N4570 X-822.111 Y66.184 I-342.458 J-750.313
N4575 X-807.408 Y50.25 I14.702 J-1.184
N4580 G01 X-167.495
N4585 G03 X-152.821 Y63.504 I0 J14.75
N4590 G02 X342.568 Y515.389 I500.321 J-51.004
N4595 G03 X353.855 Y520.818 I-.145 J14.749
N4600 X347.196 Y746.872 I-133.901 J109.181
N4605 X342.458 Y750.313 I-10.863 J-9.978
N4610 X-614.18 Y550.48 I-342.458 J-750.313
N4615 G00 Z2.5
N4620 G90 G54 X-390.78 Y350.25
N4625 Z-44.083
N4630 G01 Z-68.167 F69.553
N4635 X-380.92 F278.213
N4640 G02 X-370.732 Y371.405 I728.42 J-337.75
N4645 G03 X-390.78 Y350.25 I370.732 J-371.405
N4650 G01 X-405.673 Y363.599
N4655 G03 X-433.255 Y330.25 I405.673 J-363.599
N4660 G01 X-368.034
N4665 G02 X-297.378 Y456.444 I715.534 J-317.75
N4670 G03 X-405.673 Y363.599 I297.378 J-456.444
N4675 G01 X-420.567 Y376.947
N4680 G03 X-471.922 Y310.25 I420.567 J-376.947
N4685 G01 X-354.912
N4690 G02 X-223.207 Y518.791 I702.412 J-297.75
N4695 G03 X-420.567 Y376.947 I223.207 J-518.791
N4700 G01 X-435.46 Y390.296
N4705 G03 X-507.653 Y290.25 I435.46 J-390.296
N4710 G01 X-341.54
N4715 G02 X-148.477 Y565.607 I689.04 J-277.75
N4720 G03 X-435.46 Y390.296 I148.477 J-565.607
N4725 G01 X-450.353 Y403.645
N4730 G03 X-541.029 Y270.25 I450.353 J-403.645
N4735 G01 X-327.903
N4740 G02 X-73.312 Y600.31 I675.403 J-257.75
N4745 G03 X-450.353 Y403.645 I73.312 J-600.31
N4750 G01 X-465.247 Y416.993
N4755 G03 X-572.462 Y250.25 I465.247 J-416.993
N4760 G01 X-313.985
N4765 G02 X2.221 Y624.766 I661.485 J-237.75
N4770 G03 X-465.247 Y416.993 I-2.221 J-624.766
N4775 G01 X-480.14 Y430.342
N4780 G03 X-602.257 Y230.25 I480.14 J-430.342
N4785 G01 X-299.768
N4790 G02 X78.086 Y640.025 I647.268 J-217.75
N4795 G03 X-480.14 Y430.342 I-78.086 J-640.025
N4800 G01 X-495.033 Y443.691
N4805 G03 X-630.646 Y210.25 I495.033 J-443.691
N4810 G01 X-285.232
N4815 G02 X154.262 Y646.624 I632.732 J-197.75
N4820 G03 X-495.033 Y443.691 I-154.262 J-646.624
N4825 G01 X-509.927 Y457.04
N4830 G03 X-657.811 Y190.25 I509.927 J-457.04
N4835 G01 X-270.353
N4840 G02 X230.744 Y644.723 I617.853 J-177.75
N4845 G03 X-509.927 Y457.04 I-230.744 J-644.723
N4850 G01 X-524.82 Y470.388
N4855 G03 X-683.898 Y170.25 I524.82 J-470.388
N4860 G01 X-255.108
N4865 G02 X272.718 Y630.908 I602.608 J-157.75
N4870 G03 X267.999 Y651.826 I-52.764 J-.91
N4875 X-524.82 Y470.388 I-267.999 J-651.826
N4880 G01 X-539.714 Y483.737
N4885 G03 X-709.025 Y150.25 I539.714 J-483.737
N4890 G01 X-239.467
N4895 G02 X290.646 Y612.727 I586.967 J-137.75
N4900 G03 X282.299 Y667.532 I-70.692 J17.272
N4905 X-539.714 Y483.737 I-282.299 J-667.532
N4910 G01 X-554.607 Y497.086
N4915 G03 X-733.293 Y130.25 I554.607 J-497.086
N4920 G01 X-223.397
N4925 G02 X305.411 Y593.892 I570.897 J-117.75
N4930 G03 X295.71 Y683.549 I-85.457 J36.107
N4935 X-554.607 Y497.086 I-295.71 J-683.549
N4940 G01 X-569.5 Y510.434
N4945 G03 X-756.782 Y110.25 I569.5 J-510.434
N4950 G01 X-206.861
N4955 G02 X318.209 Y574.651 I554.361 J-97.75
N4960 G03 X308.557 Y699.762 I-98.255 J55.348
N4965 X-569.5 Y510.434 I-308.557 J-699.762
N4970 G01 X-584.394 Y523.783
N4975 G03 X-779.564 Y90.25 I584.394 J-523.783
N4980 G01 X-189.818
N4985 G02 X329.595 Y555.118 I537.318 J-77.75
N4990 G03 X321.013 Y716.111 I-109.641 J74.88
N4995 X-584.394 Y523.783 I-321.013 J-716.111
N5000 G01 X-599.287 Y537.132
N5005 G03 X-801.698 Y70.25 I599.287 J-537.132
N5010 G01 X-172.215
N5015 G02 X339.88 Y535.358 I519.715 J-57.75
N5020 G03 X333.179 Y732.562 I-119.926 J94.641
N5025 X-599.287 Y537.132 I-333.179 J-732.562
N5030 G01 X-614.18 Y550.48
N5035 G03 X-822.111 Y66.184 I614.18 J-550.48
N5040 X-807.408 Y50.25 I14.702 J-1.184
N5045 G01 X-167.495
N5050 G03 X-152.821 Y63.504 I0 J14.75
N5055 G02 X342.568 Y515.389 I500.321 J-51.004
N5060 G03 X353.855 Y520.818 I-.145 J14.749
N5065 X347.196 Y746.872 I-133.901 J109.181
N5070 X342.458 Y750.313 I-10.863 J-9.978
N5075 X-822.111 Y66.184 I-342.458 J-750.313
N5080 X-807.408 Y50.25 I14.702 J-1.184
N5085 G01 X-167.495
N5090 G03 X-152.821 Y63.504 I0 J14.75
N5095 G02 X342.568 Y515.389 I500.321 J-51.004
N5100 G03 X353.855 Y520.818 I-.145 J14.749
N5105 X347.196 Y746.872 I-133.901 J109.181
N5110 X342.458 Y750.313 I-10.863 J-9.978
N5115 X-614.18 Y550.48 I-342.458 J-750.313
N5120 G00 Z2.5
N5125 G90 G54 X-390.78 Y350.25
N5130 Z-65.667
N5135 G01 Z-89.75 F69.553
N5140 X-380.92 F278.213
N5145 G02 X-370.732 Y371.405 I728.42 J-337.75
N5150 G03 X-390.78 Y350.25 I370.732 J-371.405
N5155 G01 X-405.673 Y363.599
N5160 G03 X-433.255 Y330.25 I405.673 J-363.599
N5165 G01 X-368.034
N5170 G02 X-297.378 Y456.444 I715.534 J-317.75
N5175 G03 X-405.673 Y363.599 I297.378 J-456.444
N5180 G01 X-420.567 Y376.947
N5185 G03 X-471.922 Y310.25 I420.567 J-376.947
N5190 G01 X-354.912
N5195 G02 X-223.207 Y518.791 I702.412 J-297.75
N5200 G03 X-420.567 Y376.947 I223.207 J-518.791
N5205 G01 X-435.46 Y390.296
N5210 G03 X-507.653 Y290.25 I435.46 J-390.296
N5215 G01 X-341.54
N5220 G02 X-148.477 Y565.607 I689.04 J-277.75
N5225 G03 X-435.46 Y390.296 I148.477 J-565.607
N5230 G01 X-450.353 Y403.645
N5235 G03 X-541.029 Y270.25 I450.353 J-403.645
N5240 G01 X-327.903
N5245 G02 X-73.312 Y600.31 I675.403 J-257.75
N5250 G03 X-450.353 Y403.645 I73.312 J-600.31
N5255 G01 X-465.247 Y416.993
N5260 G03 X-572.462 Y250.25 I465.247 J-416.993
N5265 G01 X-313.985
N5270 G02 X2.221 Y624.766 I661.485 J-237.75
N5275 G03 X-465.247 Y416.993 I-2.221 J-624.766
N5280 G01 X-480.14 Y430.342
N5285 G03 X-602.257 Y230.25 I480.14 J-430.342
N5290 G01 X-299.768
N5295 G02 X78.086 Y640.025 I647.268 J-217.75
N5300 G03 X-480.14 Y430.342 I-78.086 J-640.025
N5305 G01 X-495.033 Y443.691
N5310 G03 X-630.646 Y210.25 I495.033 J-443.691
N5315 G01 X-285.232
N5320 G02 X154.262 Y646.624 I632.732 J-197.75
N5325 G03 X-495.033 Y443.691 I-154.262 J-646.624
N5330 G01 X-509.927 Y457.04
N5335 G03 X-657.811 Y190.25 I509.927 J-457.04
N5340 G01 X-270.353
N5345 G02 X230.744 Y644.723 I617.853 J-177.75
N5350 G03 X-509.927 Y457.04 I-230.744 J-644.723
N5355 G01 X-524.82 Y470.388
N5360 G03 X-683.898 Y170.25 I524.82 J-470.388
N5365 G01 X-255.108
N5370 G02 X272.718 Y630.908 I602.608 J-157.75
N5375 G03 X267.999 Y651.826 I-52.764 J-.91
N5380 X-524.82 Y470.388 I-267.999 J-651.826
N5385 G01 X-539.714 Y483.737
N5390 G03 X-709.025 Y150.25 I539.714 J-483.737
N5395 G01 X-239.467
N5400 G02 X290.646 Y612.727 I586.967 J-137.75
N5405 G03 X282.299 Y667.532 I-70.692 J17.272
N5410 X-539.714 Y483.737 I-282.299 J-667.532
N5415 G01 X-554.607 Y497.086
N5420 G03 X-733.293 Y130.25 I554.607 J-497.086
N5425 G01 X-223.397
N5430 G02 X305.411 Y593.892 I570.897 J-117.75
N5435 G03 X295.71 Y683.549 I-85.457 J36.107
N5440 X-554.607 Y497.086 I-295.71 J-683.549
N5445 G01 X-569.5 Y510.434
N5450 G03 X-756.782 Y110.25 I569.5 J-510.434
N5455 G01 X-206.861
N5460 G02 X318.209 Y574.651 I554.361 J-97.75
N5465 G03 X308.557 Y699.762 I-98.255 J55.348
N5470 X-569.5 Y510.434 I-308.557 J-699.762
N5475 G01 X-584.394 Y523.783
N5480 G03 X-779.564 Y90.25 I584.394 J-523.783
N5485 G01 X-189.818
N5490 G02 X329.595 Y555.118 I537.318 J-77.75
N5495 G03 X321.013 Y716.111 I-109.641 J74.88
N5500 X-584.394 Y523.783 I-321.013 J-716.111
N5505 G01 X-599.287 Y537.132
N5510 G03 X-801.698 Y70.25 I599.287 J-537.132
N5515 G01 X-172.215
N5520 G02 X339.88 Y535.358 I519.715 J-57.75
N5525 G03 X333.179 Y732.562 I-119.926 J94.641
N5530 X-599.287 Y537.132 I-333.179 J-732.562
N5535 G01 X-614.18 Y550.48
N5540 G03 X-822.111 Y66.184 I614.18 J-550.48
N5545 X-807.408 Y50.25 I14.702 J-1.184
N5550 G01 X-167.495
N5555 G03 X-152.821 Y63.504 I0 J14.75
N5560 G02 X342.568 Y515.389 I500.321 J-51.004
N5565 G03 X353.855 Y520.818 I-.145 J14.749
N5570 X347.196 Y746.872 I-133.901 J109.181
N5575 X342.458 Y750.313 I-10.863 J-9.978
N5580 X-822.111 Y66.184 I-342.458 J-750.313
N5585 X-807.408 Y50.25 I14.702 J-1.184
N5590 G01 X-167.495
N5595 G03 X-152.821 Y63.504 I0 J14.75
N5600 G02 X342.568 Y515.389 I500.321 J-51.004
N5605 G03 X353.855 Y520.818 I-.145 J14.749
N5610 X347.196 Y746.872 I-133.901 J109.181
N5615 X342.458 Y750.313 I-10.863 J-9.978
N5620 X-614.18 Y550.48 I-342.458 J-750.313
N5625 G00 Z2.5
N5630 G90 G54 X-390.78 Y350.25
N5635 Z-87.25
N5640 G01 Z-90. F69.553
N5645 X-380.92 F278.213
N5650 G02 X-370.732 Y371.405 I728.42 J-337.75
N5655 G03 X-390.78 Y350.25 I370.732 J-371.405
N5660 G01 X-405.673 Y363.599
N5665 G03 X-433.255 Y330.25 I405.673 J-363.599
N5670 G01 X-368.034
N5675 G02 X-297.378 Y456.444 I715.534 J-317.75
N5680 G03 X-405.673 Y363.599 I297.378 J-456.444
N5685 G01 X-420.567 Y376.947
N5690 G03 X-471.922 Y310.25 I420.567 J-376.947
N5695 G01 X-354.912
N5700 G02 X-223.207 Y518.791 I702.412 J-297.75
N5705 G03 X-420.567 Y376.947 I223.207 J-518.791
N5710 G01 X-435.46 Y390.296
N5715 G03 X-507.653 Y290.25 I435.46 J-390.296
N5720 G01 X-341.54
N5725 G02 X-148.477 Y565.607 I689.04 J-277.75
N5730 G03 X-435.46 Y390.296 I148.477 J-565.607
N5735 G01 X-450.353 Y403.645
N5740 G03 X-541.029 Y270.25 I450.353 J-403.645
N5745 G01 X-327.903
N5750 G02 X-73.312 Y600.31 I675.403 J-257.75
N5755 G03 X-450.353 Y403.645 I73.312 J-600.31
N5760 G01 X-465.247 Y416.993
N5765 G03 X-572.462 Y250.25 I465.247 J-416.993
N5770 G01 X-313.985
N5775 G02 X2.221 Y624.766 I661.485 J-237.75
N5780 G03 X-465.247 Y416.993 I-2.221 J-624.766
N5785 G01 X-480.14 Y430.342
N5790 G03 X-602.257 Y230.25 I480.14 J-430.342
N5795 G01 X-299.768
N5800 G02 X78.086 Y640.025 I647.268 J-217.75
N5805 G03 X-480.14 Y430.342 I-78.086 J-640.025
N5810 G01 X-495.033 Y443.691
N5815 G03 X-630.646 Y210.25 I495.033 J-443.691
N5820 G01 X-285.232
N5825 G02 X154.262 Y646.624 I632.732 J-197.75
N5830 G03 X-495.033 Y443.691 I-154.262 J-646.624
N5835 G01 X-509.927 Y457.04
N5840 G03 X-657.811 Y190.25 I509.927 J-457.04
N5845 G01 X-270.353
N5850 G02 X230.744 Y644.723 I617.853 J-177.75
N5855 G03 X-509.927 Y457.04 I-230.744 J-644.723
N5860 G01 X-524.82 Y470.388
N5865 G03 X-683.898 Y170.25 I524.82 J-470.388
N5870 G01 X-255.108
N5875 G02 X272.718 Y630.908 I602.608 J-157.75
N5880 G03 X267.999 Y651.826 I-52.764 J-.91
N5885 X-524.82 Y470.388 I-267.999 J-651.826
N5890 G01 X-539.714 Y483.737
N5895 G03 X-709.025 Y150.25 I539.714 J-483.737
N5900 G01 X-239.467
N5905 G02 X290.646 Y612.727 I586.967 J-137.75
N5910 G03 X282.299 Y667.532 I-70.692 J17.272
N5915 X-539.714 Y483.737 I-282.299 J-667.532
N5920 G01 X-554.607 Y497.086
N5925 G03 X-733.293 Y130.25 I554.607 J-497.086
N5930 G01 X-223.397
N5935 G02 X305.411 Y593.892 I570.897 J-117.75
N5940 G03 X295.71 Y683.549 I-85.457 J36.107
N5945 X-554.607 Y497.086 I-295.71 J-683.549
N5950 G01 X-569.5 Y510.434
N5955 G03 X-756.782 Y110.25 I569.5 J-510.434
N5960 G01 X-206.861
N5965 G02 X318.209 Y574.651 I554.361 J-97.75
N5970 G03 X308.557 Y699.762 I-98.255 J55.348
N5975 X-569.5 Y510.434 I-308.557 J-699.762
N5980 G01 X-584.394 Y523.783
N5985 G03 X-779.564 Y90.25 I584.394 J-523.783
N5990 G01 X-189.818
N5995 G02 X329.595 Y555.118 I537.318 J-77.75
N6000 G03 X321.013 Y716.111 I-109.641 J74.88
N6005 X-584.394 Y523.783 I-321.013 J-716.111
N6010 G01 X-599.287 Y537.132
N6015 G03 X-801.698 Y70.25 I599.287 J-537.132
N6020 G01 X-172.215
N6025 G02 X339.88 Y535.358 I519.715 J-57.75
N6030 G03 X333.179 Y732.562 I-119.926 J94.641
N6035 X-599.287 Y537.132 I-333.179 J-732.562
N6040 G01 X-614.18 Y550.48
N6045 G03 X-822.111 Y66.184 I614.18 J-550.48
N6050 X-807.408 Y50.25 I14.702 J-1.184
N6055 G01 X-167.495
N6060 G03 X-152.821 Y63.504 I0 J14.75
N6065 G02 X342.568 Y515.389 I500.321 J-51.004
N6070 G03 X353.855 Y520.818 I-.145 J14.749
N6075 X347.196 Y746.872 I-133.901 J109.181
N6080 X342.458 Y750.313 I-10.863 J-9.978
N6085 X-822.111 Y66.184 I-342.458 J-750.313
N6090 X-807.408 Y50.25 I14.702 J-1.184
N6095 G01 X-167.495
N6100 G03 X-152.821 Y63.504 I0 J14.75
N6105 G02 X342.568 Y515.389 I500.321 J-51.004
N6110 G03 X353.855 Y520.818 I-.145 J14.749
N6115 X347.196 Y746.872 I-133.901 J109.181
N6120 X342.458 Y750.313 I-10.863 J-9.978
N6125 X-614.18 Y550.48 I-342.458 J-750.313
N6130 G00 Z2.5
N6135 Z25.
N6140 G90 G54 X-822.111 Y66.184
N6145 Z2.5
N6150 G01 Z-25. F69.553
N6155 G03 X-807.408 Y50.25 I14.702 J-1.184 F278.213
N6160 G01 X-795.948
N6165 G02 X-821.085 Y77.884 I0 J25.25
N6170 G03 X-822.111 Y66.184 I821.085 J-77.884
N6175 G00 Z2.5
N6180 Z-22.5
N6185 G01 Z-46.583 F69.553
N6190 G03 X-807.408 Y50.25 I14.702 J-1.184 F278.213
N6195 G01 X-795.948
N6200 G02 X-821.085 Y77.884 I0 J25.25
N6205 G03 X-822.111 Y66.184 I821.085 J-77.884
N6210 G00 Z2.5
N6215 Z-44.083
N6220 G01 Z-68.167 F69.553
N6225 G03 X-807.408 Y50.25 I14.702 J-1.184 F278.213
N6230 G01 X-795.948
N6235 G02 X-821.085 Y77.884 I0 J25.25
N6240 G03 X-822.111 Y66.184 I821.085 J-77.884
N6245 G00 Z2.5
N6250 Z-65.667
N6255 G01 Z-89.75 F69.553
N6260 G03 X-807.408 Y50.25 I14.702 J-1.184 F278.213
N6265 G01 X-795.948
N6270 G02 X-821.085 Y77.884 I0 J25.25
N6275 G03 X-822.111 Y66.184 I821.085 J-77.884
N6280 G00 Z2.5
N6285 Z-87.25
N6290 G01 Z-90. F69.553
N6295 G03 X-807.408 Y50.25 I14.702 J-1.184 F278.213
N6300 G01 X-795.948
N6305 G02 X-821.085 Y77.884 I0 J25.25
N6310 G03 X-822.111 Y66.184 I821.085 J-77.884
N6315 G00 Z2.5
N6320 G90 G54 X-151.823 Y72.488
N6325 G01 Z-25. F69.553
N6330 G02 X-176.893 Y50.25 I-25.07 J3.012 F278.213
N6335 G01 X-167.495
N6340 G03 X-152.821 Y63.504 I0 J14.75
N6345 G02 X-151.823 Y72.488 I500.321 J-51.004
N6350 G00 Z2.5
N6355 Z-22.5
N6360 G01 Z-46.583 F69.553
N6365 G02 X-176.893 Y50.25 I-25.07 J3.012 F278.213
N6370 G01 X-167.495
N6375 G03 X-152.821 Y63.504 I0 J14.75
N6380 G02 X-151.823 Y72.488 I500.321 J-51.004
N6385 G00 Z2.5
N6390 Z-44.083
N6395 G01 Z-68.167 F69.553
N6400 G02 X-176.893 Y50.25 I-25.07 J3.012 F278.213
N6405 G01 X-167.495
N6410 G03 X-152.821 Y63.504 I0 J14.75
N6415 G02 X-151.823 Y72.488 I500.321 J-51.004
N6420 G00 Z2.5
N6425 Z-65.667
N6430 G01 Z-89.75 F69.553
N6435 G02 X-176.893 Y50.25 I-25.07 J3.012 F278.213
N6440 G01 X-167.495
N6445 G03 X-152.821 Y63.504 I0 J14.75
N6450 G02 X-151.823 Y72.488 I500.321 J-51.004
N6455 G00 Z2.5
N6460 Z-87.25
N6465 G01 Z-90. F69.553
N6470 G02 X-176.893 Y50.25 I-25.07 J3.012 F278.213
N6475 G01 X-167.495
N6480 G03 X-152.821 Y63.504 I0 J14.75
N6485 G02 X-151.823 Y72.488 I500.321 J-51.004
N6490 G00 Z2.5
N6495 G90 G54 X357.355 Y525.257
N6500 G01 Z-25. F69.553
N6505 G02 X337.763 Y515.319 I-20.081 J15.308 F278.213
N6510 X342.568 Y515.389 I9.737 J-502.819
N6515 G03 X353.855 Y520.818 I-.145 J14.749
N6520 X357.355 Y525.257 I-133.901 J109.181
N6525 G00 Z2.5
N6530 Z-22.5
N6535 G01 Z-46.583 F69.553
N6540 G02 X337.763 Y515.319 I-20.081 J15.308 F278.213
N6545 X342.568 Y515.389 I9.737 J-502.819
N6550 G03 X353.855 Y520.818 I-.145 J14.749
N6555 X357.355 Y525.257 I-133.901 J109.181
N6560 G00 Z2.5
N6565 Z-44.083
N6570 G01 Z-68.167 F69.553
N6575 G02 X337.763 Y515.319 I-20.081 J15.308 F278.213
N6580 X342.568 Y515.389 I9.737 J-502.819
N6585 G03 X353.855 Y520.818 I-.145 J14.749
N6590 X357.355 Y525.257 I-133.901 J109.181
N6595 G00 Z2.5
N6600 Z-65.667
N6605 G01 Z-89.75 F69.553
N6610 G02 X337.763 Y515.319 I-20.081 J15.308 F278.213
N6615 X342.568 Y515.389 I9.737 J-502.819
N6620 G03 X353.855 Y520.818 I-.145 J14.749
N6625 X357.355 Y525.257 I-133.901 J109.181
N6630 G00 Z2.5
N6635 Z-87.25
N6640 G01 Z-90. F69.553
N6645 G02 X337.763 Y515.319 I-20.081 J15.308 F278.213
N6650 X342.568 Y515.389 I9.737 J-502.819
N6655 G03 X353.855 Y520.818 I-.145 J14.749
N6660 X357.355 Y525.257 I-133.901 J109.181
N6665 G00 Z2.5
N6670 G90 G54 X340.431 Y751.234
N6675 G01 Z-25. F69.553
N6680 G02 X348.846 Y745.05 I-10.422 J-22.999 F278.213
N6685 G03 X347.196 Y746.872 I-128.892 J-115.051
N6690 X342.458 Y750.313 I-10.863 J-9.978
N6695 X340.431 Y751.234 I-342.458 J-750.313
N6700 G00 Z2.5
N6705 Z-22.5
N6710 G01 Z-46.583 F69.553
N6715 G02 X348.846 Y745.05 I-10.422 J-22.999 F278.213
N6720 G03 X347.196 Y746.872 I-128.892 J-115.051
N6725 X342.458 Y750.313 I-10.863 J-9.978
N6730 X340.431 Y751.234 I-342.458 J-750.313
N6735 G00 Z2.5
N6740 Z-44.083
N6745 G01 Z-68.167 F69.553
N6750 G02 X348.846 Y745.05 I-10.422 J-22.999 F278.213
N6755 G03 X347.196 Y746.872 I-128.892 J-115.051
N6760 X342.458 Y750.313 I-10.863 J-9.978
N6765 X340.431 Y751.234 I-342.458 J-750.313
N6770 G00 Z2.5
N6775 Z-65.667
N6780 G01 Z-89.75 F69.553
N6785 G02 X348.846 Y745.05 I-10.422 J-22.999 F278.213
N6790 G03 X347.196 Y746.872 I-128.892 J-115.051
N6795 X342.458 Y750.313 I-10.863 J-9.978
N6800 X340.431 Y751.234 I-342.458 J-750.313
N6805 G00 Z2.5
N6810 Z-87.25
N6815 G01 Z-90. F69.553
N6820 G02 X348.846 Y745.05 I-10.422 J-22.999 F278.213
N6825 G03 X347.196 Y746.872 I-128.892 J-115.051
N6830 X342.458 Y750.313 I-10.863 J-9.978
N6835 X340.431 Y751.234 I-342.458 J-750.313
N6840 G00 Z2.5
N6845 Z25.
N6850 G90 G54 X-514.372 Y69.849
N6855 Z3.
N6860 G01 Z-25. F69.553
N6865 G90 G41 X-495.987 Y51.464 D05 F208.66
N6870 G03 X-492.451 Y50. I3.536 J3.536
N6875 G01 X-167.495 F278.213
N6880 G03 X-152.572 Y63.479 I0 J15.
N6885 G02 X342.571 Y515.139 I500.072 J-50.979
N6890 G03 X354.049 Y520.66 I-.147 J14.999
N6895 X347.38 Y747.041 I-134.095 J109.339
N6900 X342.561 Y750.54 I-11.047 J-10.147
N6905 X-822.36 Y66.204 I-342.561 J-750.54
N6910 X-807.408 Y50. I14.952 J-1.204
N6915 G01 X-482.451
N6920 G03 X-478.916 Y51.464 I0 J5.
N6925 G40 G01 X-460.531 Y69.849
N6930 G00 Z3.
N6935 G90 G54 X-514.372 Y69.849
N6940 Z-22.
N6945 G01 Z-46.667 F69.553
N6950 G90 G41 X-495.987 Y51.464 D05 F208.66
N6955 G03 X-492.451 Y50. I3.536 J3.536
N6960 G01 X-167.495 F278.213
N6965 G03 X-152.572 Y63.479 I0 J15.
N6970 G02 X342.571 Y515.139 I500.072 J-50.979
N6975 G03 X354.049 Y520.66 I-.147 J14.999
N6980 X347.38 Y747.041 I-134.095 J109.339
N6985 X342.561 Y750.54 I-11.047 J-10.147
N6990 X-822.36 Y66.204 I-342.561 J-750.54
N6995 X-807.408 Y50. I14.952 J-1.204
N7000 G01 X-482.451
N7005 G03 X-478.916 Y51.464 I0 J5.
N7010 G40 G01 X-460.531 Y69.849
N7015 G00 Z3.
N7020 G90 G54 X-514.372 Y69.849
N7025 Z-43.667
N7030 G01 Z-68.333 F69.553
N7035 G90 G41 X-495.987 Y51.464 D05 F208.66
N7040 G03 X-492.451 Y50. I3.536 J3.536
N7045 G01 X-167.495 F278.213
N7050 G03 X-152.572 Y63.479 I0 J15.
N7055 G02 X342.571 Y515.139 I500.072 J-50.979
N7060 G03 X354.049 Y520.66 I-.147 J14.999
N7065 X347.38 Y747.041 I-134.095 J109.339
N7070 X342.561 Y750.54 I-11.047 J-10.147
N7075 X-822.36 Y66.204 I-342.561 J-750.54
N7080 X-807.408 Y50. I14.952 J-1.204
N7085 G01 X-482.451
N7090 G03 X-478.916 Y51.464 I0 J5.
N7095 G40 G01 X-460.531 Y69.849
N7100 G00 Z3.
N7105 G90 G54 X-514.372 Y69.849
N7110 Z-65.333
N7115 G01 Z-90. F69.553
N7120 G90 G41 X-495.987 Y51.464 D05 F208.66
N7125 G03 X-492.451 Y50. I3.536 J3.536
N7130 G01 X-167.495 F278.213
N7135 G03 X-152.572 Y63.479 I0 J15.
N7140 G02 X342.571 Y515.139 I500.072 J-50.979
N7145 G03 X354.049 Y520.66 I-.147 J14.999
N7150 X347.38 Y747.041 I-134.095 J109.339
N7155 X342.561 Y750.54 I-11.047 J-10.147
N7160 X-822.36 Y66.204 I-342.561 J-750.54
N7165 X-807.408 Y50. I14.952 J-1.204
N7170 G01 X-482.451
N7175 G03 X-478.916 Y51.464 I0 J5.
N7180 G40 G01 X-460.531 Y69.849
N7185 G00 Z3.
N7190 Z25.
N7195 G90 G54 X229.835 Y270.291
N7200 Z2.5
N7205 G01 Z-25. F69.553
N7210 X244.585 F139.106
N7215 G03 I-14.75 J0 F278.213
N7220 G01 X264.585
N7225 G03 I-34.75 J0
N7230 G01 X284.585
N7235 G03 I-54.75 J0
N7240 I-54.75 J0
N7245 G01 X229.835
N7250 G00 Z2.5
N7255 Z-22.5
N7260 G01 Z-46.583 F69.553
N7265 X244.585 F139.106
N7270 G03 I-14.75 J0 F278.213
N7275 G01 X264.585
N7280 G03 I-34.75 J0
N7285 G01 X284.585
N7290 G03 I-54.75 J0
N7295 I-54.75 J0
N7300 G01 X229.835
N7305 G00 Z2.5
N7310 Z-44.083
N7315 G01 Z-68.167 F69.553
N7320 X244.585 F139.106
N7325 G03 I-14.75 J0 F278.213
N7330 G01 X264.585
N7335 G03 I-34.75 J0
N7340 G01 X284.585
N7345 G03 I-54.75 J0
N7350 I-54.75 J0
N7355 G01 X229.835
N7360 G00 Z2.5
N7365 Z-65.667
N7370 G01 Z-89.75 F69.553
N7375 X244.585 F139.106
N7380 G03 I-14.75 J0 F278.213
N7385 G01 X264.585
N7390 G03 I-34.75 J0
N7395 G01 X284.585
N7400 G03 I-54.75 J0
N7405 I-54.75 J0
N7410 G01 X229.835
N7415 G00 Z2.5
N7420 Z-87.25
N7425 G01 Z-90. F69.553
N7430 X244.585 F139.106
N7435 G03 I-14.75 J0 F278.213
N7440 G01 X264.585
N7445 G03 I-34.75 J0
N7450 G01 X284.585
N7455 G03 I-54.75 J0
N7460 I-54.75 J0
N7465 G01 X229.835
N7470 G00 Z2.5
N7475 Z25.
N7480 G90 G54 X67.522 Y66.756
N7485 Z2.5
N7490 G01 Z-25. F69.553
N7495 X82.272 F139.106
N7500 G03 I-14.75 J0 F278.213
N7505 G01 X102.272
N7510 G03 I-34.75 J0
N7515 G01 X122.272
N7520 G03 I-54.75 J0
N7525 I-54.75 J0
N7530 G01 X67.522
N7535 G00 Z2.5
N7540 Z-22.5
N7545 G01 Z-46.583 F69.553
N7550 X82.272 F139.106
N7555 G03 I-14.75 J0 F278.213
N7560 G01 X102.272
N7565 G03 I-34.75 J0
N7570 G01 X122.272
N7575 G03 I-54.75 J0
N7580 I-54.75 J0
N7585 G01 X67.522
N7590 G00 Z2.5
N7595 Z-44.083
N7600 G01 Z-68.167 F69.553
N7605 X82.272 F139.106
N7610 G03 I-14.75 J0 F278.213
N7615 G01 X102.272
N7620 G03 I-34.75 J0
N7625 G01 X122.272
N7630 G03 I-54.75 J0
N7635 I-54.75 J0
N7640 G01 X67.522
N7645 G00 Z2.5
N7650 Z-65.667
N7655 G01 Z-89.75 F69.553
N7660 X82.272 F139.106
N7665 G03 I-14.75 J0 F278.213
N7670 G01 X102.272
N7675 G03 I-34.75 J0
N7680 G01 X122.272
N7685 G03 I-54.75 J0
N7690 I-54.75 J0
N7695 G01 X67.522
N7700 G00 Z2.5
N7705 Z-87.25
N7710 G01 Z-90. F69.553
N7715 X82.272 F139.106
N7720 G03 I-14.75 J0 F278.213
N7725 G01 X102.272
N7730 G03 I-34.75 J0
N7735 G01 X122.272
N7740 G03 I-54.75 J0
N7745 I-54.75 J0
N7750 G01 X67.522
N7755 G00 Z2.5
N7760 Z25.
N7765 G90 G54 X125.451 Y-187.047
N7770 Z2.5
N7775 G01 Z-25. F69.553
N7780 X140.201 F139.106
N7785 G03 I-14.75 J0 F278.213
N7790 G01 X160.201
N7795 G03 I-34.75 J0
N7800 G01 X180.201
N7805 G03 I-54.75 J0
N7810 I-54.75 J0
N7815 G01 X125.451
N7820 G00 Z2.5
N7825 Z-22.5
N7830 G01 Z-46.583 F69.553
N7835 X140.201 F139.106
N7840 G03 I-14.75 J0 F278.213
N7845 G01 X160.201
N7850 G03 I-34.75 J0
N7855 G01 X180.201
N7860 G03 I-54.75 J0
N7865 I-54.75 J0
N7870 G01 X125.451
N7875 G00 Z2.5
N7880 Z-44.083
N7885 G01 Z-68.167 F69.553
N7890 X140.201 F139.106
N7895 G03 I-14.75 J0 F278.213
N7900 G01 X160.201
N7905 G03 I-34.75 J0
N7910 G01 X180.201
N7915 G03 I-54.75 J0
N7920 I-54.75 J0
N7925 G01 X125.451
N7930 G00 Z2.5
N7935 Z-65.667
N7940 G01 Z-89.75 F69.553
N7945 X140.201 F139.106
N7950 G03 I-14.75 J0 F278.213
N7955 G01 X160.201
N7960 G03 I-34.75 J0
N7965 G01 X180.201
N7970 G03 I-54.75 J0
N7975 I-54.75 J0
N7980 G01 X125.451
N7985 G00 Z2.5
N7990 Z-87.25
N7995 G01 Z-90. F69.553
N8000 X140.201 F139.106
N8005 G03 I-14.75 J0 F278.213
N8010 G01 X160.201
N8015 G03 I-34.75 J0
N8020 G01 X180.201
N8025 G03 I-54.75 J0
N8030 I-54.75 J0
N8035 G01 X125.451
N8040 G00 Z2.5
N8045 Z25.
N8050 G90 G54 X360. Y-300.
N8055 Z2.5
N8060 G01 Z-25. F69.553
N8065 X374.75 F139.106
N8070 G03 I-14.75 J0 F278.213
N8075 G01 X394.75
N8080 G03 I-34.75 J0
N8085 G01 X414.75
N8090 G03 I-54.75 J0
N8095 I-54.75 J0
N8100 G01 X360.
N8105 G00 Z2.5
N8110 Z-22.5
N8115 G01 Z-46.583 F69.553
N8120 X374.75 F139.106
N8125 G03 I-14.75 J0 F278.213
N8130 G01 X394.75
N8135 G03 I-34.75 J0
N8140 G01 X414.75
N8145 G03 I-54.75 J0
N8150 I-54.75 J0
N8155 G01 X360.
N8160 G00 Z2.5
N8165 Z-44.083
N8170 G01 Z-68.167 F69.553
N8175 X374.75 F139.106
N8180 G03 I-14.75 J0 F278.213
N8185 G01 X394.75
N8190 G03 I-34.75 J0
N8195 G01 X414.75
N8200 G03 I-54.75 J0
N8205 I-54.75 J0
N8210 G01 X360.
N8215 G00 Z2.5
N8220 Z-65.667
N8225 G01 Z-89.75 F69.553
N8230 X374.75 F139.106
N8235 G03 I-14.75 J0 F278.213
N8240 G01 X394.75
N8245 G03 I-34.75 J0
N8250 G01 X414.75
N8255 G03 I-54.75 J0
N8260 I-54.75 J0
N8265 G01 X360.
N8270 G00 Z2.5
N8275 Z-87.25
N8280 G01 Z-90. F69.553
N8285 X374.75 F139.106
N8290 G03 I-14.75 J0 F278.213
N8295 G01 X394.75
N8300 G03 I-34.75 J0
N8305 G01 X414.75
N8310 G03 I-54.75 J0
N8315 I-54.75 J0
N8320 G01 X360.
N8325 G00 Z2.5
N8330 Z25.
N8335 G90 G54 X594.549 Y-187.047
N8340 Z2.5
N8345 G01 Z-25. F69.553
N8350 X609.299 F139.106
N8355 G03 I-14.75 J0 F278.213
N8360 G01 X629.299
N8365 G03 I-34.75 J0
N8370 G01 X649.299
N8375 G03 I-54.75 J0
N8380 I-54.75 J0
N8385 G01 X594.549
N8390 G00 Z2.5
N8395 Z-22.5
N8400 G01 Z-46.583 F69.553
N8405 X609.299 F139.106
N8410 G03 I-14.75 J0 F278.213
N8415 G01 X629.299
N8420 G03 I-34.75 J0
N8425 G01 X649.299
N8430 G03 I-54.75 J0
N8435 I-54.75 J0
N8440 G01 X594.549
N8445 G00 Z2.5
N8450 Z-44.083
N8455 G01 Z-68.167 F69.553
N8460 X609.299 F139.106
N8465 G03 I-14.75 J0 F278.213
N8470 G01 X629.299
N8475 G03 I-34.75 J0
N8480 G01 X649.299
N8485 G03 I-54.75 J0
N8490 I-54.75 J0
N8495 G01 X594.549
N8500 G00 Z2.5
N8505 Z-65.667
N8510 G01 Z-89.75 F69.553
N8515 X609.299 F139.106
N8520 G03 I-14.75 J0 F278.213
N8525 G01 X629.299
N8530 G03 I-34.75 J0
N8535 G01 X649.299
N8540 G03 I-54.75 J0
N8545 I-54.75 J0
N8550 G01 X594.549
N8555 G00 Z2.5
N8560 Z-87.25
N8565 G01 Z-90. F69.553
N8570 X609.299 F139.106
N8575 G03 I-14.75 J0 F278.213
N8580 G01 X629.299
N8585 G03 I-34.75 J0
N8590 G01 X649.299
N8595 G03 I-54.75 J0
N8600 I-54.75 J0
N8605 G01 X594.549
N8610 G00 Z2.5
N8615 Z25.
N8620 G90 G54 X652.478 Y66.756
N8625 Z2.5
N8630 G01 Z-25. F69.553
N8635 X667.228 F139.106
N8640 G03 I-14.75 J0 F278.213
N8645 G01 X687.228
N8650 G03 I-34.75 J0
N8655 G01 X707.228
N8660 G03 I-54.75 J0
N8665 I-54.75 J0
N8670 G01 X652.478
N8675 G00 Z2.5
N8680 Z-22.5
N8685 G01 Z-46.583 F69.553
N8690 X667.228 F139.106
N8695 G03 I-14.75 J0 F278.213
N8700 G01 X687.228
N8705 G03 I-34.75 J0
N8710 G01 X707.228
N8715 G03 I-54.75 J0
N8720 I-54.75 J0
N8725 G01 X652.478
N8730 G00 Z2.5
N8735 Z-44.083
N8740 G01 Z-68.167 F69.553
N8745 X667.228 F139.106
N8750 G03 I-14.75 J0 F278.213
N8755 G01 X687.228
N8760 G03 I-34.75 J0
N8765 G01 X707.228
N8770 G03 I-54.75 J0
N8775 I-54.75 J0
N8780 G01 X652.478
N8785 G00 Z2.5
N8790 Z-65.667
N8795 G01 Z-89.75 F69.553
N8800 X667.228 F139.106
N8805 G03 I-14.75 J0 F278.213
N8810 G01 X687.228
N8815 G03 I-34.75 J0
N8820 G01 X707.228
N8825 G03 I-54.75 J0
N8830 I-54.75 J0
N8835 G01 X652.478
N8840 G00 Z2.5
N8845 Z-87.25
N8850 G01 Z-90. F69.553
N8855 X667.228 F139.106
N8860 G03 I-14.75 J0 F278.213
N8865 G01 X687.228
N8870 G03 I-34.75 J0
N8875 G01 X707.228
N8880 G03 I-54.75 J0
N8885 I-54.75 J0
N8890 G01 X652.478
N8895 G00 Z2.5
N8900 Z25.
N8905 G90 G54 X490.165 Y270.291
N8910 Z2.5
N8915 G01 Z-25. F69.553
N8920 X504.915 F139.106
N8925 G03 I-14.75 J0 F278.213
N8930 G01 X524.915
N8935 G03 I-34.75 J0
N8940 G01 X544.915
N8945 G03 I-54.75 J0
N8950 I-54.75 J0
N8955 G01 X490.165
N8960 G00 Z2.5
N8965 Z-22.5
N8970 G01 Z-46.583 F69.553
N8975 X504.915 F139.106
N8980 G03 I-14.75 J0 F278.213
N8985 G01 X524.915
N8990 G03 I-34.75 J0
N8995 G01 X544.915
N9000 G03 I-54.75 J0
N9005 I-54.75 J0
N9010 G01 X490.165
N9015 G00 Z2.5
N9020 Z-44.083
N9025 G01 Z-68.167 F69.553
N9030 X504.915 F139.106
N9035 G03 I-14.75 J0 F278.213
N9040 G01 X524.915
N9045 G03 I-34.75 J0
N9050 G01 X544.915
N9055 G03 I-54.75 J0
N9060 I-54.75 J0
N9065 G01 X490.165
N9070 G00 Z2.5
N9075 Z-65.667
N9080 G01 Z-89.75 F69.553
N9085 X504.915 F139.106
N9090 G03 I-14.75 J0 F278.213
N9095 G01 X524.915
N9100 G03 I-34.75 J0
N9105 G01 X544.915
N9110 G03 I-54.75 J0
N9115 I-54.75 J0
N9120 G01 X490.165
N9125 G00 Z2.5
N9130 Z-87.25
N9135 G01 Z-90. F69.553
N9140 X504.915 F139.106
N9145 G03 I-14.75 J0 F278.213
N9150 G01 X524.915
N9155 G03 I-34.75 J0
N9160 G01 X544.915
N9165 G03 I-54.75 J0
N9170 I-54.75 J0
N9175 G01 X490.165
N9180 G00 Z2.5
N9185 G01 Z25. F500. M09
N9190 G00 G90 G53 G49 H0 Z0 M05
N9195 T06 M06 (25MM CRB 2FL 38 LOC)
N9200 G54 G90 G94
N9205 S1141 M03
N9210 G90 X229.835
N9215 G43 H06 Z3. M08
N9220 G01 Z-25. F69.553
N9225 G90 G41 X196.819 Y295.312 D06 F208.66
N9230 X176.841 Y278.672
N9235 G03 X175.062 Y275.284 I3.2 J-3.842
N9240 X174.835 Y270.291 I54.773 J-4.993 F278.213
N9245 I55. J0
N9250 X175.062 Y265.298 I55. J0
N9255 X176.841 Y261.91 I4.979 J.454
N9260 G40 G01 X196.819 Y245.27
N9265 G00 Z3.
N9270 G90 G54 X229.835 Y270.291
N9275 Z-22.
N9280 G01 Z-46.667 F69.553
N9285 G90 G41 X196.819 Y295.312 D06 F208.66
N9290 X176.841 Y278.672
N9295 G03 X175.062 Y275.284 I3.2 J-3.842
N9300 X174.835 Y270.291 I54.773 J-4.993 F278.213
N9305 I55. J0
N9310 X175.062 Y265.298 I55. J0
N9315 X176.841 Y261.91 I4.979 J.454
N9320 G40 G01 X196.819 Y245.27
N9325 G00 Z3.
N9330 G90 G54 X229.835 Y270.291
N9335 Z-43.667
N9340 G01 Z-68.333 F69.553
N9345 G90 G41 X196.819 Y295.312 D06 F208.66
N9350 X176.841 Y278.672
N9355 G03 X175.062 Y275.284 I3.2 J-3.842
N9360 X174.835 Y270.291 I54.773 J-4.993 F278.213
N9365 I55. J0
N9370 X175.062 Y265.298 I55. J0
N9375 X176.841 Y261.91 I4.979 J.454
N9380 G40 G01 X196.819 Y245.27
N9385 G00 Z3.
N9390 G90 G54 X229.835 Y270.291
N9395 Z-65.333
N9400 G01 Z-90. F69.553
N9405 G90 G41 X196.819 Y295.312 D06 F208.66
N9410 X176.841 Y278.672
N9415 G03 X175.062 Y275.284 I3.2 J-3.842
N9420 X174.835 Y270.291 I54.773 J-4.993 F278.213
N9425 I55. J0
N9430 X175.062 Y265.298 I55. J0
N9435 X176.841 Y261.91 I4.979 J.454
N9440 G40 G01 X196.819 Y245.27
N9445 G00 Z3.
N9450 Z25.
N9455 G90 G54 X67.522 Y66.756
N9460 Z3.
N9465 G01 Z-25. F69.553
N9470 G90 G41 X34.506 Y91.777 D06 F208.66
N9475 X14.528 Y75.137
N9480 G03 X12.749 Y71.749 I3.2 J-3.842
N9485 X12.522 Y66.756 I54.773 J-4.993 F278.213
N9490 I55. J0
N9495 X12.749 Y61.763 I55. J0
N9500 X14.528 Y58.375 I4.979 J.454
N9505 G40 G01 X34.506 Y41.735
N9510 G00 Z3.
N9515 G90 G54 X67.522 Y66.756
N9520 Z-22.
N9525 G01 Z-46.667 F69.553
N9530 G90 G41 X34.506 Y91.777 D06 F208.66
N9535 X14.528 Y75.137
N9540 G03 X12.749 Y71.749 I3.2 J-3.842
N9545 X12.522 Y66.756 I54.773 J-4.993 F278.213
N9550 I55. J0
N9555 X12.749 Y61.763 I55. J0
N9560 X14.528 Y58.375 I4.979 J.454
N9565 G40 G01 X34.506 Y41.735
N9570 G00 Z3.
N9575 G90 G54 X67.522 Y66.756
N9580 Z-43.667
N9585 G01 Z-68.333 F69.553
N9590 G90 G41 X34.506 Y91.777 D06 F208.66
N9595 X14.528 Y75.137
N9600 G03 X12.749 Y71.749 I3.2 J-3.842
N9605 X12.522 Y66.756 I54.773 J-4.993 F278.213
N9610 I55. J0
N9615 X12.749 Y61.763 I55. J0
N9620 X14.528 Y58.375 I4.979 J.454
N9625 G40 G01 X34.506 Y41.735
N9630 G00 Z3.
N9635 G90 G54 X67.522 Y66.756
N9640 Z-65.333
N9645 G01 Z-90. F69.553
N9650 G90 G41 X34.506 Y91.777 D06 F208.66
N9655 X14.528 Y75.137
N9660 G03 X12.749 Y71.749 I3.2 J-3.842
N9665 X12.522 Y66.756 I54.773 J-4.993 F278.213
N9670 I55. J0
N9675 X12.749 Y61.763 I55. J0
N9680 X14.528 Y58.375 I4.979 J.454
N9685 G40 G01 X34.506 Y41.735
N9690 G00 Z3.
N9695 Z25.
N9700 G90 G54 X125.451 Y-187.047
N9705 Z3.
N9710 G01 Z-25. F69.553
N9715 G90 G41 X92.435 Y-162.026 D06 F208.66
N9720 X72.457 Y-178.666
N9725 G03 X70.678 Y-182.054 I3.2 J-3.842
N9730 X70.451 Y-187.047 I54.773 J-4.993 F278.213
N9735 I55. J0
N9740 X70.678 Y-192.04 I55. J0
N9745 X72.457 Y-195.428 I4.979 J.454
N9750 G40 G01 X92.435 Y-212.068
N9755 G00 Z3.
N9760 G90 G54 X125.451 Y-187.047
N9765 Z-22.
N9770 G01 Z-46.667 F69.553
N9775 G90 G41 X92.435 Y-162.026 D06 F208.66
N9780 X72.457 Y-178.666
N9785 G03 X70.678 Y-182.054 I3.2 J-3.842
N9790 X70.451 Y-187.047 I54.773 J-4.993 F278.213
N9795 I55. J0
N9800 X70.678 Y-192.04 I55. J0
N9805 X72.457 Y-195.428 I4.979 J.454
N9810 G40 G01 X92.435 Y-212.068
N9815 G00 Z3.
N9820 G90 G54 X125.451 Y-187.047
N9825 Z-43.667
N9830 G01 Z-68.333 F69.553
N9835 G90 G41 X92.435 Y-162.026 D06 F208.66
N9840 X72.457 Y-178.666
N9845 G03 X70.678 Y-182.054 I3.2 J-3.842
N9850 X70.451 Y-187.047 I54.773 J-4.993 F278.213
N9855 I55. J0
N9860 X70.678 Y-192.04 I55. J0
N9865 X72.457 Y-195.428 I4.979 J.454
N9870 G40 G01 X92.435 Y-212.068
N9875 G00 Z3.
N9880 G90 G54 X125.451 Y-187.047
N9885 Z-65.333
N9890 G01 Z-90. F69.553
N9895 G90 G41 X92.435 Y-162.026 D06 F208.66
N9900 X72.457 Y-178.666
N9905 G03 X70.678 Y-182.054 I3.2 J-3.842
N9910 X70.451 Y-187.047 I54.773 J-4.993 F278.213
N9915 I55. J0
N9920 X70.678 Y-192.04 I55. J0
N9925 X72.457 Y-195.428 I4.979 J.454
N9930 G40 G01 X92.435 Y-212.068
N9935 G00 Z3.
N9940 Z25.
N9945 G90 G54 X360. Y-300.
N9950 Z3.
N9955 G01 Z-25. F69.553
N9960 G90 G41 X326.984 Y-274.979 D06 F208.66
N9965 X307.007 Y-291.619
N9970 G03 X305.227 Y-295.007 I3.2 J-3.842
N9975 X305. Y-300. I54.773 J-4.993 F278.213
N9980 I55. J0
N9985 X305.227 Y-304.993 I55. J0
N9990 X307.007 Y-308.381 I4.979 J.454
N9995 G40 G01 X326.984 Y-325.021
N5 G00 Z3.
N10 G90 G54 X360. Y-300.
N15 Z-22.
N20 G01 Z-46.667 F69.553
N25 G90 G41 X326.984 Y-274.979 D06 F208.66
N30 X307.007 Y-291.619
N35 G03 X305.227 Y-295.007 I3.2 J-3.842
N40 X305. Y-300. I54.773 J-4.993 F278.213
N45 I55. J0
N50 X305.227 Y-304.993 I55. J0
N55 X307.007 Y-308.381 I4.979 J.454
N60 G40 G01 X326.984 Y-325.021
N65 G00 Z3.
N70 G90 G54 X360. Y-300.
N75 Z-43.667
N80 G01 Z-68.333 F69.553
N85 G90 G41 X326.984 Y-274.979 D06 F208.66
N90 X307.007 Y-291.619
N95 G03 X305.227 Y-295.007 I3.2 J-3.842
N100 X305. Y-300. I54.773 J-4.993 F278.213
N105 I55. J0
N110 X305.227 Y-304.993 I55. J0
N115 X307.007 Y-308.381 I4.979 J.454
N120 G40 G01 X326.984 Y-325.021
N125 G00 Z3.
N130 G90 G54 X360. Y-300.
N135 Z-65.333
N140 G01 Z-90. F69.553
N145 G90 G41 X326.984 Y-274.979 D06 F208.66
N150 X307.007 Y-291.619
N155 G03 X305.227 Y-295.007 I3.2 J-3.842
N160 X305. Y-300. I54.773 J-4.993 F278.213
N165 I55. J0
N170 X305.227 Y-304.993 I55. J0
N175 X307.007 Y-308.381 I4.979 J.454
N180 G40 G01 X326.984 Y-325.021
N185 G00 Z3.
N190 Z25.
N195 G90 G54 X594.549 Y-187.047
N200 Z3.
N205 G01 Z-25. F69.553
N210 G90 G41 X561.534 Y-162.026 D06 F208.66
N215 X541.556 Y-178.666
N220 G03 X539.777 Y-182.054 I3.2 J-3.842
N225 X539.549 Y-187.047 I54.773 J-4.993 F278.213
N230 I55. J0
N235 X539.777 Y-192.04 I55. J0
N240 X541.556 Y-195.428 I4.979 J.454
N245 G40 G01 X561.534 Y-212.068
N250 G00 Z3.
N255 G90 G54 X594.549 Y-187.047
N260 Z-22.
N265 G01 Z-46.667 F69.553
N270 G90 G41 X561.534 Y-162.026 D06 F208.66
N275 X541.556 Y-178.666
N280 G03 X539.777 Y-182.054 I3.2 J-3.842
N285 X539.549 Y-187.047 I54.773 J-4.993 F278.213
N290 I55. J0
N295 X539.777 Y-192.04 I55. J0
N300 X541.556 Y-195.428 I4.979 J.454
N305 G40 G01 X561.534 Y-212.068
N310 G00 Z3.
N315 G90 G54 X594.549 Y-187.047
N320 Z-43.667
N325 G01 Z-68.333 F69.553
N330 G90 G41 X561.534 Y-162.026 D06 F208.66
N335 X541.556 Y-178.666
N340 G03 X539.777 Y-182.054 I3.2 J-3.842
N345 X539.549 Y-187.047 I54.773 J-4.993 F278.213
N350 I55. J0
N355 X539.777 Y-192.04 I55. J0
N360 X541.556 Y-195.428 I4.979 J.454
N365 G40 G01 X561.534 Y-212.068
N370 G00 Z3.
N375 G90 G54 X594.549 Y-187.047
N380 Z-65.333
N385 G01 Z-90. F69.553
N390 G90 G41 X561.534 Y-162.026 D06 F208.66
N395 X541.556 Y-178.666
N400 G03 X539.777 Y-182.054 I3.2 J-3.842
N405 X539.549 Y-187.047 I54.773 J-4.993 F278.213
N410 I55. J0
N415 X539.777 Y-192.04 I55. J0
N420 X541.556 Y-195.428 I4.979 J.454
N425 G40 G01 X561.534 Y-212.068
N430 G00 Z3.
N435 Z25.
N440 G90 G54 X652.478 Y66.756
N445 Z3.
N450 G01 Z-25. F69.553
N455 G90 G41 X619.463 Y91.777 D06 F208.66
N460 X599.485 Y75.137
N465 G03 X597.705 Y71.749 I3.2 J-3.842
N470 X597.478 Y66.756 I54.773 J-4.993 F278.213
N475 I55. J0
N480 X597.705 Y61.763 I55. J0
N485 X599.485 Y58.375 I4.979 J.454
N490 G40 G01 X619.463 Y41.735
N495 G00 Z3.
N500 G90 G54 X652.478 Y66.756
N505 Z-22.
N510 G01 Z-46.667 F69.553
N515 G90 G41 X619.463 Y91.777 D06 F208.66
N520 X599.485 Y75.137
N525 G03 X597.705 Y71.749 I3.2 J-3.842
N530 X597.478 Y66.756 I54.773 J-4.993 F278.213
N535 I55. J0
N540 X597.705 Y61.763 I55. J0
N545 X599.485 Y58.375 I4.979 J.454
N550 G40 G01 X619.463 Y41.735
N555 G00 Z3.
N560 G90 G54 X652.478 Y66.756
N565 Z-43.667
N570 G01 Z-68.333 F69.553
N575 G90 G41 X619.463 Y91.777 D06 F208.66
N580 X599.485 Y75.137
N585 G03 X597.705 Y71.749 I3.2 J-3.842
N590 X597.478 Y66.756 I54.773 J-4.993 F278.213
N595 I55. J0
N600 X597.705 Y61.763 I55. J0
N605 X599.485 Y58.375 I4.979 J.454
N610 G40 G01 X619.463 Y41.735
N615 G00 Z3.
N620 G90 G54 X652.478 Y66.756
N625 Z-65.333
N630 G01 Z-90. F69.553
N635 G90 G41 X619.463 Y91.777 D06 F208.66
N640 X599.485 Y75.137
N645 G03 X597.705 Y71.749 I3.2 J-3.842
N650 X597.478 Y66.756 I54.773 J-4.993 F278.213
N655 I55. J0
N660 X597.705 Y61.763 I55. J0
N665 X599.485 Y58.375 I4.979 J.454
N670 G40 G01 X619.463 Y41.735
N675 G00 Z3.
N680 Z25.
N685 G90 G54 X490.165 Y270.291
N690 Z3.
N695 G01 Z-25. F69.553
N700 G90 G41 X457.15 Y295.312 D06 F208.66
N705 X437.172 Y278.672
N710 G03 X435.392 Y275.284 I3.2 J-3.842
N715 X435.165 Y270.291 I54.773 J-4.993 F278.213
N720 I55. J0
N725 X435.392 Y265.298 I55. J0
N730 X437.172 Y261.91 I4.979 J.454
N735 G40 G01 X457.15 Y245.27
N740 G00 Z3.
N745 G90 G54 X490.165 Y270.291
N750 Z-22.
N755 G01 Z-46.667 F69.553
N760 G90 G41 X457.15 Y295.312 D06 F208.66
N765 X437.172 Y278.672
N770 G03 X435.392 Y275.284 I3.2 J-3.842
N775 X435.165 Y270.291 I54.773 J-4.993 F278.213
N780 I55. J0
N785 X435.392 Y265.298 I55. J0
N790 X437.172 Y261.91 I4.979 J.454
N795 G40 G01 X457.15 Y245.27
N800 G00 Z3.
N805 G90 G54 X490.165 Y270.291
N810 Z-43.667
N815 G01 Z-68.333 F69.553
N820 G90 G41 X457.15 Y295.312 D06 F208.66
N825 X437.172 Y278.672
N830 G03 X435.392 Y275.284 I3.2 J-3.842
N835 X435.165 Y270.291 I54.773 J-4.993 F278.213
N840 I55. J0
N845 X435.392 Y265.298 I55. J0
N850 X437.172 Y261.91 I4.979 J.454
N855 G40 G01 X457.15 Y245.27
N860 G00 Z3.
N865 G90 G54 X490.165 Y270.291
N870 Z-65.333
N875 G01 Z-90. F69.553
N880 G90 G41 X457.15 Y295.312 D06 F208.66
N885 X437.172 Y278.672
N890 G03 X435.392 Y275.284 I3.2 J-3.842
N895 X435.165 Y270.291 I54.773 J-4.993 F278.213
N900 I55. J0
N905 X435.392 Y265.298 I55. J0
N910 X437.172 Y261.91 I4.979 J.454
N915 G40 G01 X457.15 Y245.27
N920 G00 Z3.
N925 G01 Z25. F500. M09
N930 G00 G90 G53 G49 H0 Z0 M05
N935 T05 M06 (25MM CRB 2FL 38 LOC)
N940 G54 G90 G94
N945 S1141 M03
N950 G90 X1744.505 Y-1709.721
N955 G43 H05 Z-87.5 M08
N960 G01 Z-115. F69.553
N965 X1764.255 F139.106
N970 G03 I-19.75 J0 F278.213
N975 G01 X1784.255
N980 G03 I-39.75 J0
N985 G01 X1804.255
N990 G03 I-59.75 J0
N995 G01 X1824.255
N1000 G03 I-79.75 J0
N1005 I-79.75 J0
N1010 G01 X1744.505
N1015 G00 Z-87.5
N1020 Z-112.5
N1025 G01 Z-139.344 F69.553
N1030 X1764.255 F139.106
N1035 G03 I-19.75 J0 F278.213
N1040 G01 X1784.255
N1045 G03 I-39.75 J0
N1050 G01 X1804.255
N1055 G03 I-59.75 J0
N1060 G01 X1824.255
N1065 G03 I-79.75 J0
N1070 I-79.75 J0
N1075 G01 X1744.505
N1080 G00 Z-87.5
N1085 Z-136.844
N1090 G01 Z-163.688 F69.553
N1095 X1764.255 F139.106
N1100 G03 I-19.75 J0 F278.213
N1105 G01 X1784.255
N1110 G03 I-39.75 J0
N1115 G01 X1804.255
N1120 G03 I-59.75 J0
N1125 G01 X1824.255
N1130 G03 I-79.75 J0
N1135 I-79.75 J0
N1140 G01 X1744.505
N1145 G00 Z-87.5
N1150 Z-161.188
N1155 G01 Z-188.031 F69.553
N1160 X1764.255 F139.106
N1165 G03 I-19.75 J0 F278.213
N1170 G01 X1784.255
N1175 G03 I-39.75 J0
N1180 G01 X1804.255
N1185 G03 I-59.75 J0
N1190 G01 X1824.255
N1195 G03 I-79.75 J0
N1200 I-79.75 J0
N1205 G01 X1744.505
N1210 G00 Z-87.5
N1215 Z-185.531
N1220 G01 Z-212.375 F69.553
N1225 X1764.255 F139.106
N1230 G03 I-19.75 J0 F278.213
N1235 G01 X1784.255
N1240 G03 I-39.75 J0
N1245 G01 X1804.255
N1250 G03 I-59.75 J0
N1255 G01 X1824.255
N1260 G03 I-79.75 J0
N1265 I-79.75 J0
N1270 G01 X1744.505
N1275 G00 Z-87.5
N1280 Z-209.875
N1285 G01 Z-236.719 F69.553
N1290 X1764.255 F139.106
N1295 G03 I-19.75 J0 F278.213
N1300 G01 X1784.255
N1305 G03 I-39.75 J0
N1310 G01 X1804.255
N1315 G03 I-59.75 J0
N1320 G01 X1824.255
N1325 G03 I-79.75 J0
N1330 I-79.75 J0
N1335 G01 X1744.505
N1340 G00 Z-87.5
N1345 Z-234.219
N1350 G01 Z-261.063 F69.553
N1355 X1764.255 F139.106
N1360 G03 I-19.75 J0 F278.213
N1365 G01 X1784.255
N1370 G03 I-39.75 J0
N1375 G01 X1804.255
N1380 G03 I-59.75 J0
N1385 G01 X1824.255
N1390 G03 I-79.75 J0
N1395 I-79.75 J0
N1400 G01 X1744.505
N1405 G00 Z-87.5
N1410 Z-258.563
N1415 G01 Z-285.406 F69.553
N1420 X1764.255 F139.106
N1425 G03 I-19.75 J0 F278.213
N1430 G01 X1784.255
N1435 G03 I-39.75 J0
N1440 G01 X1804.255
N1445 G03 I-59.75 J0
N1450 G01 X1824.255
N1455 G03 I-79.75 J0
N1460 I-79.75 J0
N1465 G01 X1744.505
N1470 G00 Z-87.5
N1475 Z-282.906
N1480 G01 Z-309.75 F69.553
N1485 X1764.255 F139.106
N1490 G03 I-19.75 J0 F278.213
N1495 G01 X1784.255
N1500 G03 I-39.75 J0
N1505 G01 X1804.255
N1510 G03 I-59.75 J0
N1515 G01 X1824.255
N1520 G03 I-79.75 J0
N1525 I-79.75 J0
N1530 G01 X1744.505
N1535 G00 Z-87.5
N1540 Z-307.25
N1545 G01 Z-310. F69.553
N1550 X1764.255 F139.106
N1555 G03 I-19.75 J0 F278.213
N1560 G01 X1784.255
N1565 G03 I-39.75 J0
N1570 G01 X1804.255
N1575 G03 I-59.75 J0
N1580 G01 X1824.255
N1585 G03 I-79.75 J0
N1590 I-79.75 J0
N1595 G01 X1744.505
N1600 G00 Z-87.5
N1605 Z25.
N1610 Z-87.
N1615 G01 Z-115. F69.553
N1620 G90 G41 X1685.841 Y-1684.087 D05 F208.66
N1625 X1666.343 Y-1701.287
N1630 G03 X1664.661 Y-1704.724 I3.308 J-3.749
N1635 X1664.505 Y-1709.721 I79.844 J-4.997 F278.213
N1640 I80. J0
N1645 X1664.661 Y-1714.718 I80. J0
N1650 X1666.343 Y-1718.155 I4.99 J.312
N1655 G40 G01 X1685.841 Y-1735.356
N1660 G00 Z-87.
N1665 G90 G54 X1744.505 Y-1709.721
N1670 Z-112.
N1675 G01 Z-139.375 F69.553
N1680 G90 G41 X1685.841 Y-1684.087 D05 F208.66
N1685 X1666.343 Y-1701.287
N1690 G03 X1664.661 Y-1704.724 I3.308 J-3.749
N1695 X1664.505 Y-1709.721 I79.844 J-4.997 F278.213
N1700 I80. J0
N1705 X1664.661 Y-1714.718 I80. J0
N1710 X1666.343 Y-1718.155 I4.99 J.312
N1715 G40 G01 X1685.841 Y-1735.356
N1720 G00 Z-87.
N1725 G90 G54 X1744.505 Y-1709.721
N1730 Z-136.375
N1735 G01 Z-163.75 F69.553
N1740 G90 G41 X1685.841 Y-1684.087 D05 F208.66
N1745 X1666.343 Y-1701.287
N1750 G03 X1664.661 Y-1704.724 I3.308 J-3.749
N1755 X1664.505 Y-1709.721 I79.844 J-4.997 F278.213
N1760 I80. J0
N1765 X1664.661 Y-1714.718 I80. J0
N1770 X1666.343 Y-1718.155 I4.99 J.312
N1775 G40 G01 X1685.841 Y-1735.356
N1780 G00 Z-87.
N1785 G90 G54 X1744.505 Y-1709.721
N1790 Z-160.75
N1795 G01 Z-188.125 F69.553
N1800 G90 G41 X1685.841 Y-1684.087 D05 F208.66
N1805 X1666.343 Y-1701.287
N1810 G03 X1664.661 Y-1704.724 I3.308 J-3.749
N1815 X1664.505 Y-1709.721 I79.844 J-4.997 F278.213
N1820 I80. J0
N1825 X1664.661 Y-1714.718 I80. J0
N1830 X1666.343 Y-1718.155 I4.99 J.312
N1835 G40 G01 X1685.841 Y-1735.356
N1840 G00 Z-87.
N1845 G90 G54 X1744.505 Y-1709.721
N1850 Z-185.125
N1855 G01 Z-212.5 F69.553
N1860 G90 G41 X1685.841 Y-1684.087 D05 F208.66
N1865 X1666.343 Y-1701.287
N1870 G03 X1664.661 Y-1704.724 I3.308 J-3.749
N1875 X1664.505 Y-1709.721 I79.844 J-4.997 F278.213
N1880 I80. J0
N1885 X1664.661 Y-1714.718 I80. J0
N1890 X1666.343 Y-1718.155 I4.99 J.312
N1895 G40 G01 X1685.841 Y-1735.356
N1900 G00 Z-87.
N1905 G90 G54 X1744.505 Y-1709.721
N1910 Z-209.5
N1915 G01 Z-236.875 F69.553
N1920 G90 G41 X1685.841 Y-1684.087 D05 F208.66
N1925 X1666.343 Y-1701.287
N1930 G03 X1664.661 Y-1704.724 I3.308 J-3.749
N1935 X1664.505 Y-1709.721 I79.844 J-4.997 F278.213
N1940 I80. J0
N1945 X1664.661 Y-1714.718 I80. J0
N1950 X1666.343 Y-1718.155 I4.99 J.312
N1955 G40 G01 X1685.841 Y-1735.356
N1960 G00 Z-87.
N1965 G90 G54 X1744.505 Y-1709.721
N1970 Z-233.875
N1975 G01 Z-261.25 F69.553
N1980 G90 G41 X1685.841 Y-1684.087 D05 F208.66
N1985 X1666.343 Y-1701.287
N1990 G03 X1664.661 Y-1704.724 I3.308 J-3.749
N1995 X1664.505 Y-1709.721 I79.844 J-4.997 F278.213
N2000 I80. J0
N2005 X1664.661 Y-1714.718 I80. J0
N2010 X1666.343 Y-1718.155 I4.99 J.312
N2015 G40 G01 X1685.841 Y-1735.356
N2020 G00 Z-87.
N2025 G90 G54 X1744.505 Y-1709.721
N2030 Z-258.25
N2035 G01 Z-285.625 F69.553
N2040 G90 G41 X1685.841 Y-1684.087 D05 F208.66
N2045 X1666.343 Y-1701.287
N2050 G03 X1664.661 Y-1704.724 I3.308 J-3.749
N2055 X1664.505 Y-1709.721 I79.844 J-4.997 F278.213
N2060 I80. J0
N2065 X1664.661 Y-1714.718 I80. J0
N2070 X1666.343 Y-1718.155 I4.99 J.312
N2075 G40 G01 X1685.841 Y-1735.356
N2080 G00 Z-87.
N2085 G90 G54 X1744.505 Y-1709.721
N2090 Z-282.625
N2095 G01 Z-310. F69.553
N2100 G90 G41 X1685.841 Y-1684.087 D05 F208.66
N2105 X1666.343 Y-1701.287
N2110 G03 X1664.661 Y-1704.724 I3.308 J-3.749
N2115 X1664.505 Y-1709.721 I79.844 J-4.997 F278.213
N2120 I80. J0
N2125 X1664.661 Y-1714.718 I80. J0
N2130 X1666.343 Y-1718.155 I4.99 J.312
N2135 G40 G01 X1685.841 Y-1735.356
N2140 G00 Z-87.
N2145 Z25.
N2150 G90 G54 X-2340. Y0
N2155 Z-87.5
N2160 G01 Z-115. F69.553
N2165 X-2335.25 F139.106
N2170 G03 I-4.75 J0 F278.213
N2175 G01 X-2315.25
N2180 G03 I-24.75 J0
N2185 G01 X-2295.25
N2190 G03 I-44.75 J0
N2195 G01 X-2275.25
N2200 G03 I-64.75 J0
N2205 G01 X-2255.25
N2210 G03 I-84.75 J0
N2215 G01 X-2235.25
N2220 G03 I-104.75 J0
N2225 G01 X-2215.25
N2230 G03 I-124.75 J0
N2235 I-124.75 J0
N2240 G01 X-2340.
N2245 G00 Z-87.5
N2250 Z-112.5
N2255 G01 Z-139.344 F69.553
N2260 X-2335.25 F139.106
N2265 G03 I-4.75 J0 F278.213
N2270 G01 X-2315.25
N2275 G03 I-24.75 J0
N2280 G01 X-2295.25
N2285 G03 I-44.75 J0
N2290 G01 X-2275.25
N2295 G03 I-64.75 J0
N2300 G01 X-2255.25
N2305 G03 I-84.75 J0
N2310 G01 X-2235.25
N2315 G03 I-104.75 J0
N2320 G01 X-2215.25
N2325 G03 I-124.75 J0
N2330 I-124.75 J0
N2335 G01 X-2340.
N2340 G00 Z-87.5
N2345 Z-136.844
N2350 G01 Z-163.688 F69.553
N2355 X-2335.25 F139.106
N2360 G03 I-4.75 J0 F278.213
N2365 G01 X-2315.25
N2370 G03 I-24.75 J0
N2375 G01 X-2295.25
N2380 G03 I-44.75 J0
N2385 G01 X-2275.25
N2390 G03 I-64.75 J0
N2395 G01 X-2255.25
N2400 G03 I-84.75 J0
N2405 G01 X-2235.25
N2410 G03 I-104.75 J0
N2415 G01 X-2215.25
N2420 G03 I-124.75 J0
N2425 I-124.75 J0
N2430 G01 X-2340.
N2435 G00 Z-87.5
N2440 Z-161.188
N2445 G01 Z-188.031 F69.553
N2450 X-2335.25 F139.106
N2455 G03 I-4.75 J0 F278.213
N2460 G01 X-2315.25
N2465 G03 I-24.75 J0
N2470 G01 X-2295.25
N2475 G03 I-44.75 J0
N2480 G01 X-2275.25
N2485 G03 I-64.75 J0
N2490 G01 X-2255.25
N2495 G03 I-84.75 J0
N2500 G01 X-2235.25
N2505 G03 I-104.75 J0
N2510 G01 X-2215.25
N2515 G03 I-124.75 J0
N2520 I-124.75 J0
N2525 G01 X-2340.
N2530 G00 Z-87.5
N2535 Z-185.531
N2540 G01 Z-212.375 F69.553
N2545 X-2335.25 F139.106
N2550 G03 I-4.75 J0 F278.213
N2555 G01 X-2315.25
N2560 G03 I-24.75 J0
N2565 G01 X-2295.25
N2570 G03 I-44.75 J0
N2575 G01 X-2275.25
N2580 G03 I-64.75 J0
N2585 G01 X-2255.25
N2590 G03 I-84.75 J0
N2595 G01 X-2235.25
N2600 G03 I-104.75 J0
N2605 G01 X-2215.25
N2610 G03 I-124.75 J0
N2615 I-124.75 J0
N2620 G01 X-2340.
N2625 G00 Z-87.5
N2630 Z-209.875
N2635 G01 Z-236.719 F69.553
N2640 X-2335.25 F139.106
N2645 G03 I-4.75 J0 F278.213
N2650 G01 X-2315.25
N2655 G03 I-24.75 J0
N2660 G01 X-2295.25
N2665 G03 I-44.75 J0
N2670 G01 X-2275.25
N2675 G03 I-64.75 J0
N2680 G01 X-2255.25
N2685 G03 I-84.75 J0
N2690 G01 X-2235.25
N2695 G03 I-104.75 J0
N2700 G01 X-2215.25
N2705 G03 I-124.75 J0
N2710 I-124.75 J0
N2715 G01 X-2340.
N2720 G00 Z-87.5
N2725 Z-234.219
N2730 G01 Z-261.062 F69.553
N2735 X-2335.25 F139.106
N2740 G03 I-4.75 J0 F278.213
N2745 G01 X-2315.25
N2750 G03 I-24.75 J0
N2755 G01 X-2295.25
N2760 G03 I-44.75 J0
N2765 G01 X-2275.25
N2770 G03 I-64.75 J0
N2775 G01 X-2255.25
N2780 G03 I-84.75 J0
N2785 G01 X-2235.25
N2790 G03 I-104.75 J0
N2795 G01 X-2215.25
N2800 G03 I-124.75 J0
N2805 I-124.75 J0
N2810 G01 X-2340.
N2815 G00 Z-87.5
N2820 Z-258.563
N2825 G01 Z-285.406 F69.553
N2830 X-2335.25 F139.106
N2835 G03 I-4.75 J0 F278.213
N2840 G01 X-2315.25
N2845 G03 I-24.75 J0
N2850 G01 X-2295.25
N2855 G03 I-44.75 J0
N2860 G01 X-2275.25
N2865 G03 I-64.75 J0
N2870 G01 X-2255.25
N2875 G03 I-84.75 J0
N2880 G01 X-2235.25
N2885 G03 I-104.75 J0
N2890 G01 X-2215.25
N2895 G03 I-124.75 J0
N2900 I-124.75 J0
N2905 G01 X-2340.
N2910 G00 Z-87.5
N2915 Z-282.906
N2920 G01 Z-309.75 F69.553
N2925 X-2335.25 F139.106
N2930 G03 I-4.75 J0 F278.213
N2935 G01 X-2315.25
N2940 G03 I-24.75 J0
N2945 G01 X-2295.25
N2950 G03 I-44.75 J0
N2955 G01 X-2275.25
N2960 G03 I-64.75 J0
N2965 G01 X-2255.25
N2970 G03 I-84.75 J0
N2975 G01 X-2235.25
N2980 G03 I-104.75 J0
N2985 G01 X-2215.25
N2990 G03 I-124.75 J0
N2995 I-124.75 J0
N3000 G01 X-2340.
N3005 G00 Z-87.5
N3010 Z-307.25
N3015 G01 Z-310. F69.553
N3020 X-2335.25 F139.106
N3025 G03 I-4.75 J0 F278.213
N3030 G01 X-2315.25
N3035 G03 I-24.75 J0
N3040 G01 X-2295.25
N3045 G03 I-44.75 J0
N3050 G01 X-2275.25
N3055 G03 I-64.75 J0
N3060 G01 X-2255.25
N3065 G03 I-84.75 J0
N3070 G01 X-2235.25
N3075 G03 I-104.75 J0
N3080 G01 X-2215.25
N3085 G03 I-124.75 J0
N3090 I-124.75 J0
N3095 G01 X-2340.
N3100 G00 Z-87.5
N3105 Z25.
N3110 Z-87.
N3115 G01 Z-115. F69.553
N3120 G90 G41 X-2444.19 Y26.108 D05 F208.66
N3125 X-2463.295 Y8.473
N3130 G03 X-2464.9 Y4.999 I3.391 J-3.674
N3135 X-2465. Y0 I124.9 J-4.999 F278.213
N3140 I125. J0
N3145 X-2464.9 Y-4.999 I125. J0
N3150 X-2463.295 Y-8.473 I4.996 J.2
N3155 G40 G01 X-2444.19 Y-26.108
N3160 G00 Z-87.
N3165 G90 G54 X-2340. Y0
N3170 Z-112.
N3175 G01 Z-139.375 F69.553
N3180 G90 G41 X-2444.19 Y26.108 D05 F208.66
N3185 X-2463.295 Y8.473
N3190 G03 X-2464.9 Y4.999 I3.391 J-3.674
N3195 X-2465. Y0 I124.9 J-4.999 F278.213
N3200 I125. J0
N3205 X-2464.9 Y-4.999 I125. J0
N3210 X-2463.295 Y-8.473 I4.996 J.2
N3215 G40 G01 X-2444.19 Y-26.108
N3220 G00 Z-87.
N3225 G90 G54 X-2340. Y0
N3230 Z-136.375
N3235 G01 Z-163.75 F69.553
N3240 G90 G41 X-2444.19 Y26.108 D05 F208.66
N3245 X-2463.295 Y8.473
N3250 G03 X-2464.9 Y4.999 I3.391 J-3.674
N3255 X-2465. Y0 I124.9 J-4.999 F278.213
N3260 I125. J0
N3265 X-2464.9 Y-4.999 I125. J0
N3270 X-2463.295 Y-8.473 I4.996 J.2
N3275 G40 G01 X-2444.19 Y-26.108
N3280 G00 Z-87.
N3285 G90 G54 X-2340. Y0
N3290 Z-160.75
N3295 G01 Z-188.125 F69.553
N3300 G90 G41 X-2444.19 Y26.108 D05 F208.66
N3305 X-2463.295 Y8.473
N3310 G03 X-2464.9 Y4.999 I3.391 J-3.674
N3315 X-2465. Y0 I124.9 J-4.999 F278.213
N3320 I125. J0
N3325 X-2464.9 Y-4.999 I125. J0
N3330 X-2463.295 Y-8.473 I4.996 J.2
N3335 G40 G01 X-2444.19 Y-26.108
N3340 G00 Z-87.
N3345 G90 G54 X-2340. Y0
N3350 Z-185.125
N3355 G01 Z-212.5 F69.553
N3360 G90 G41 X-2444.19 Y26.108 D05 F208.66
N3365 X-2463.295 Y8.473
N3370 G03 X-2464.9 Y4.999 I3.391 J-3.674
N3375 X-2465. Y0 I124.9 J-4.999 F278.213
N3380 I125. J0
N3385 X-2464.9 Y-4.999 I125. J0
N3390 X-2463.295 Y-8.473 I4.996 J.2
N3395 G40 G01 X-2444.19 Y-26.108
N3400 G00 Z-87.
N3405 G90 G54 X-2340. Y0
N3410 Z-209.5
N3415 G01 Z-236.875 F69.553
N3420 G90 G41 X-2444.19 Y26.108 D05 F208.66
N3425 X-2463.295 Y8.473
N3430 G03 X-2464.9 Y4.999 I3.391 J-3.674
N3435 X-2465. Y0 I124.9 J-4.999 F278.213
N3440 I125. J0
N3445 X-2464.9 Y-4.999 I125. J0
N3450 X-2463.295 Y-8.473 I4.996 J.2
N3455 G40 G01 X-2444.19 Y-26.108
N3460 G00 Z-87.
N3465 G90 G54 X-2340. Y0
N3470 Z-233.875
N3475 G01 Z-261.25 F69.553
N3480 G90 G41 X-2444.19 Y26.108 D05 F208.66
N3485 X-2463.295 Y8.473
N3490 G03 X-2464.9 Y4.999 I3.391 J-3.674
N3495 X-2465. Y0 I124.9 J-4.999 F278.213
N3500 I125. J0
N3505 X-2464.9 Y-4.999 I125. J0
N3510 X-2463.295 Y-8.473 I4.996 J.2
N3515 G40 G01 X-2444.19 Y-26.108
N3520 G00 Z-87.
N3525 G90 G54 X-2340. Y0
N3530 Z-258.25
N3535 G01 Z-285.625 F69.553
N3540 G90 G41 X-2444.19 Y26.108 D05 F208.66
N3545 X-2463.295 Y8.473
N3550 G03 X-2464.9 Y4.999 I3.391 J-3.674
N3555 X-2465. Y0 I124.9 J-4.999 F278.213
N3560 I125. J0
N3565 X-2464.9 Y-4.999 I125. J0
N3570 X-2463.295 Y-8.473 I4.996 J.2
N3575 G40 G01 X-2444.19 Y-26.108
N3580 G00 Z-87.
N3585 G90 G54 X-2340. Y0
N3590 Z-282.625
N3595 G01 Z-310. F69.553
N3600 G90 G41 X-2444.19 Y26.108 D05 F208.66
N3605 X-2463.295 Y8.473
N3610 G03 X-2464.9 Y4.999 I3.391 J-3.674
N3615 X-2465. Y0 I124.9 J-4.999 F278.213
N3620 I125. J0
N3625 X-2464.9 Y-4.999 I125. J0
N3630 X-2463.295 Y-8.473 I4.996 J.2
N3635 G40 G01 X-2444.19 Y-26.108
N3640 G00 Z-87.
N3645 Z25.
N3650 Z425.
N3655 G90 G54 X360. Y0
N3660 Z402.5
N3665 G01 Z375. F69.553
N3670 X374.75 F139.106
N3675 G03 I-14.75 J0 F278.213
N3680 G01 X394.75
N3685 G03 I-34.75 J0
N3690 G01 X414.75
N3695 G03 I-54.75 J0
N3700 G01 X434.75
N3705 G03 I-74.75 J0
N3710 G01 X454.75
N3715 G03 I-94.75 J0
N3720 G01 X474.75
N3725 G03 I-114.75 J0
N3730 G01 X494.75
N3735 G03 I-134.75 J0
N3740 G01 X514.75
N3745 G03 I-154.75 J0
N3750 G01 X534.75
N3755 G03 I-174.75 J0
N3760 G01 X554.75
N3765 G03 I-194.75 J0
N3770 G01 X574.75
N3775 G03 I-214.75 J0
N3780 G01 X594.75
N3785 G03 I-234.75 J0
N3790 G01 X614.75
N3795 G03 I-254.75 J0
N3800 G01 X634.75
N3805 G03 I-274.75 J0
N3810 G01 X654.75
N3815 G03 I-294.75 J0
N3820 G01 X674.75
N3825 G03 I-314.75 J0
N3830 G01 X694.75
N3835 G03 I-334.75 J0
N3840 G01 X714.75
N3845 G03 I-354.75 J0
N3850 G01 X734.75
N3855 G03 I-374.75 J0
N3860 G01 X754.75
N3865 G03 I-394.75 J0
N3870 G01 X774.75
N3875 G03 I-414.75 J0
N3880 I-414.75 J0
N3885 G01 X360.
N3890 G00 Z402.5
N3895 Z377.5
N3900 G01 Z360.25 F69.553
N3905 X374.75 F139.106
N3910 G03 I-14.75 J0 F278.213
N3915 G01 X394.75
N3920 G03 I-34.75 J0
N3925 G01 X414.75
N3930 G03 I-54.75 J0
N3935 G01 X434.75
N3940 G03 I-74.75 J0
N3945 G01 X454.75
N3950 G03 I-94.75 J0
N3955 G01 X474.75
N3960 G03 I-114.75 J0
N3965 G01 X494.75
N3970 G03 I-134.75 J0
N3975 G01 X514.75
N3980 G03 I-154.75 J0
N3985 G01 X534.75
N3990 G03 I-174.75 J0
N3995 G01 X554.75
N4000 G03 I-194.75 J0
N4005 G01 X574.75
N4010 G03 I-214.75 J0
N4015 G01 X594.75
N4020 G03 I-234.75 J0
N4025 G01 X614.75
N4030 G03 I-254.75 J0
N4035 G01 X634.75
N4040 G03 I-274.75 J0
N4045 G01 X654.75
N4050 G03 I-294.75 J0
N4055 G01 X674.75
N4060 G03 I-314.75 J0
N4065 G01 X694.75
N4070 G03 I-334.75 J0
N4075 G01 X714.75
N4080 G03 I-354.75 J0
N4085 G01 X734.75
N4090 G03 I-374.75 J0
N4095 G01 X754.75
N4100 G03 I-394.75 J0
N4105 G01 X774.75
N4110 G03 I-414.75 J0
N4115 I-414.75 J0
N4120 G01 X360.
N4125 G00 Z402.5
N4130 Z362.75
N4135 G01 Z360. F69.553
N4140 X374.75 F139.106
N4145 G03 I-14.75 J0 F278.213
N4150 G01 X394.75
N4155 G03 I-34.75 J0
N4160 G01 X414.75
N4165 G03 I-54.75 J0
N4170 G01 X434.75
N4175 G03 I-74.75 J0
N4180 G01 X454.75
N4185 G03 I-94.75 J0
N4190 G01 X474.75
N4195 G03 I-114.75 J0
N4200 G01 X494.75
N4205 G03 I-134.75 J0
N4210 G01 X514.75
N4215 G03 I-154.75 J0
N4220 G01 X534.75
N4225 G03 I-174.75 J0
N4230 G01 X554.75
N4235 G03 I-194.75 J0
N4240 G01 X574.75
N4245 G03 I-214.75 J0
N4250 G01 X594.75
N4255 G03 I-234.75 J0
N4260 G01 X614.75
N4265 G03 I-254.75 J0
N4270 G01 X634.75
N4275 G03 I-274.75 J0
N4280 G01 X654.75
N4285 G03 I-294.75 J0
N4290 G01 X674.75
N4295 G03 I-314.75 J0
N4300 G01 X694.75
N4305 G03 I-334.75 J0
N4310 G01 X714.75
N4315 G03 I-354.75 J0
N4320 G01 X734.75
N4325 G03 I-374.75 J0
N4330 G01 X754.75
N4335 G03 I-394.75 J0
N4340 G01 X774.75
N4345 G03 I-414.75 J0
N4350 I-414.75 J0
N4355 G01 X360.
N4360 G00 Z402.5
N4365 Z425.
N4370 Z403.
N4375 G01 Z375. F69.553
N4380 G90 G41 X-34.858 Y26.679 D05 F208.66
N4385 X-53.463 Y8.518
N4390 G03 X-54.97 Y5. I3.493 J-3.578
N4395 X-55. Y0 I414.97 J-5. F278.213
N4400 I415. J0
N4405 X-54.97 Y-5. I415. J0
N4410 X-53.463 Y-8.518 I5. J.06
N4415 G40 G01 X-34.858 Y-26.679
N4420 G00 Z403.
N4425 G90 G54 X360. Y0
N4430 Z378.
N4435 G01 Z360. F69.553
N4440 G90 G41 X-34.858 Y26.679 D05 F208.66
N4445 X-53.463 Y8.518
N4450 G03 X-54.97 Y5. I3.493 J-3.578
N4455 X-55. Y0 I414.97 J-5. F278.213
N4460 I415. J0
N4465 X-54.97 Y-5. I415. J0
N4470 X-53.463 Y-8.518 I5. J.06
N4475 G40 G01 X-34.858 Y-26.679
N4480 G00 Z403.
N4485 Z425.
N4490 G90 G54 X-380.92 Y-350.25
N4495 Z402.5
N4500 G01 Z375. F69.553
N4505 X-390.78 F278.213
N4510 G03 X-370.732 Y-371.405 I390.78 J350.25
N4515 G02 X-380.92 Y-350.25 I718.232 J358.905
N4520 G01 X-362.775 Y-341.837
N4525 G02 X-368.034 Y-330.25 I710.275 J329.337
N4530 G01 X-433.255
N4535 G03 X-297.378 Y-456.444 I433.255 J330.25
N4540 G02 X-362.775 Y-341.837 I644.878 J443.944
N4545 G01 X-344.631 Y-333.424
N4550 G02 X-354.912 Y-310.25 I692.131 J320.924
N4555 G01 X-471.922
N4560 G03 X-223.207 Y-518.791 I471.922 J310.25
N4565 G02 X-344.631 Y-333.424 I570.707 J506.291
N4570 G01 X-326.486 Y-325.011
N4575 G02 X-341.54 Y-290.25 I673.986 J312.511
N4580 G01 X-507.653
N4585 G03 X-148.477 Y-565.607 I507.653 J290.25
N4590 G02 X-326.486 Y-325.011 I495.977 J553.107
N4595 G01 X-308.342 Y-316.598
N4600 G02 X-327.903 Y-270.25 I655.842 J304.098
N4605 G01 X-541.029
N4610 G03 X-73.312 Y-600.31 I541.029 J270.25
N4615 G02 X-308.342 Y-316.598 I420.812 J587.81
N4620 G01 X-290.198 Y-308.184
N4625 G02 X-313.985 Y-250.25 I637.698 J295.684
N4630 G01 X-572.462
N4635 G03 X2.221 Y-624.766 I572.462 J250.25
N4640 G02 X-290.198 Y-308.184 I345.279 J612.266
N4645 G01 X-272.053 Y-299.771
N4650 G02 X-299.768 Y-230.25 I619.553 J287.271
N4655 G01 X-602.257
N4660 G03 X78.086 Y-640.025 I602.257 J230.25
N4665 G02 X-272.053 Y-299.771 I269.414 J627.525
N4670 G01 X-253.909 Y-291.358
N4675 G02 X-285.232 Y-210.25 I601.409 J278.858
N4680 G01 X-630.646
N4685 G03 X154.262 Y-646.624 I630.646 J210.25
N4690 G02 X-253.909 Y-291.358 I193.238 J634.124
N4695 G01 X-235.764 Y-282.945
N4700 G02 X-270.353 Y-190.25 I583.264 J270.445
N4705 G01 X-657.811
N4710 G03 X230.744 Y-644.723 I657.811 J190.25
N4715 G02 X-235.764 Y-282.945 I116.756 J632.223
N4720 G01 X-217.62 Y-274.532
N4725 G02 X-255.108 Y-170.25 I565.12 J262.032
N4730 G01 X-683.898
N4735 G03 X267.999 Y-651.826 I683.898 J170.25
N4740 X272.718 Y-630.908 I-48.046 J21.828
N4745 G02 X-217.62 Y-274.532 I74.782 J618.408
N4750 G01 X-199.476 Y-266.119
N4755 G02 X-239.467 Y-150.25 I546.976 J253.619
N4760 G01 X-709.025
N4765 G03 X282.299 Y-667.532 I709.025 J150.25
N4770 X290.646 Y-612.727 I-62.345 J37.534
N4775 G02 X-199.476 Y-266.119 I56.854 J600.227
N4780 G01 X-181.331 Y-257.706
N4785 G02 X-223.397 Y-130.25 I528.831 J245.206
N4790 G01 X-733.293
N4795 G03 X295.71 Y-683.549 I733.293 J130.25
N4800 X305.411 Y-593.892 I-75.756 J53.55
N4805 G02 X-181.331 Y-257.706 I42.089 J581.392
N4810 G01 X-163.187 Y-249.293
N4815 G02 X-206.861 Y-110.25 I510.687 J236.793
N4820 G01 X-756.782
N4825 G03 X308.557 Y-699.762 I756.782 J110.25
N4830 X318.209 Y-574.651 I-88.603 J69.763
N4835 G02 X-163.187 Y-249.293 I29.291 J562.151
N4840 G01 X-145.042 Y-240.88
N4845 G02 X-189.818 Y-90.25 I492.542 J228.38
N4850 G01 X-779.564
N4855 G03 X321.013 Y-716.111 I779.564 J90.25
N4860 X329.595 Y-555.118 I-101.059 J86.113
N4865 G02 X-145.042 Y-240.88 I17.905 J542.618
N4870 G01 X-126.898 Y-232.466
N4875 G02 X-172.215 Y-70.25 I474.398 J219.966
N4880 G01 X-801.698
N4885 G03 X333.179 Y-732.562 I801.698 J70.25
N4890 X339.88 Y-535.358 I-113.225 J102.564
N4895 G02 X-126.898 Y-232.466 I7.62 J522.858
N4900 G01 X-108.753 Y-224.053
N4905 G02 X-152.821 Y-63.504 I456.253 J211.553
N4910 G03 X-167.495 Y-50.25 I-14.674 J-1.496
N4915 G01 X-807.408
N4920 G03 X-822.111 Y-66.184 I0 J-14.75
N4925 X342.458 Y-750.313 I822.111 J66.184
N4930 X347.196 Y-746.872 I-6.124 J13.418
N4935 X353.855 Y-520.818 I-127.242 J116.873
N4940 X342.568 Y-515.389 I-11.432 J-9.321
N4945 G02 X-152.821 Y-63.504 I4.932 J502.889
N4950 G03 X-167.495 Y-50.25 I-14.674 J-1.496
N4955 G01 X-807.408
N4960 G03 X-822.111 Y-66.184 I0 J-14.75
N4965 X342.458 Y-750.313 I822.111 J66.184
N4970 X347.196 Y-746.872 I-6.124 J13.418
N4975 X353.855 Y-520.818 I-127.242 J116.873
N4980 X342.568 Y-515.389 I-11.432 J-9.321
N4985 G02 X-108.753 Y-224.053 I4.932 J502.889
N4990 G00 Z402.5
N4995 G90 G54 X-380.92 Y-350.25
N5000 Z377.5
N5005 G01 Z353.417 F69.553
N5010 X-390.78 F278.213
N5015 G03 X-370.732 Y-371.405 I390.78 J350.25
N5020 G02 X-380.92 Y-350.25 I718.232 J358.905
N5025 G01 X-362.775 Y-341.837
N5030 G02 X-368.034 Y-330.25 I710.275 J329.337
N5035 G01 X-433.255
N5040 G03 X-297.378 Y-456.444 I433.255 J330.25
N5045 G02 X-362.775 Y-341.837 I644.878 J443.944
N5050 G01 X-344.631 Y-333.424
N5055 G02 X-354.912 Y-310.25 I692.131 J320.924
N5060 G01 X-471.922
N5065 G03 X-223.207 Y-518.791 I471.922 J310.25
N5070 G02 X-344.631 Y-333.424 I570.707 J506.291
N5075 G01 X-326.486 Y-325.011
N5080 G02 X-341.54 Y-290.25 I673.986 J312.511
N5085 G01 X-507.653
N5090 G03 X-148.477 Y-565.607 I507.653 J290.25
N5095 G02 X-326.486 Y-325.011 I495.977 J553.107
N5100 G01 X-308.342 Y-316.598
N5105 G02 X-327.903 Y-270.25 I655.842 J304.098
N5110 G01 X-541.029
N5115 G03 X-73.312 Y-600.31 I541.029 J270.25
N5120 G02 X-308.342 Y-316.598 I420.812 J587.81
N5125 G01 X-290.198 Y-308.184
N5130 G02 X-313.985 Y-250.25 I637.698 J295.684
N5135 G01 X-572.462
N5140 G03 X2.221 Y-624.766 I572.462 J250.25
N5145 G02 X-290.198 Y-308.184 I345.279 J612.266
N5150 G01 X-272.053 Y-299.771
N5155 G02 X-299.768 Y-230.25 I619.553 J287.271
N5160 G01 X-602.257
N5165 G03 X78.086 Y-640.025 I602.257 J230.25
N5170 G02 X-272.053 Y-299.771 I269.414 J627.525
N5175 G01 X-253.909 Y-291.358
N5180 G02 X-285.232 Y-210.25 I601.409 J278.858
N5185 G01 X-630.646
N5190 G03 X154.262 Y-646.624 I630.646 J210.25
N5195 G02 X-253.909 Y-291.358 I193.238 J634.124
N5200 G01 X-235.764 Y-282.945
N5205 G02 X-270.353 Y-190.25 I583.264 J270.445
N5210 G01 X-657.811
N5215 G03 X230.744 Y-644.723 I657.811 J190.25
N5220 G02 X-235.764 Y-282.945 I116.756 J632.223
N5225 G01 X-217.62 Y-274.532
N5230 G02 X-255.108 Y-170.25 I565.12 J262.032
N5235 G01 X-683.898
N5240 G03 X267.999 Y-651.826 I683.898 J170.25
N5245 X272.718 Y-630.908 I-48.046 J21.828
N5250 G02 X-217.62 Y-274.532 I74.782 J618.408
N5255 G01 X-199.476 Y-266.119
N5260 G02 X-239.467 Y-150.25 I546.976 J253.619
N5265 G01 X-709.025
N5270 G03 X282.299 Y-667.532 I709.025 J150.25
N5275 X290.646 Y-612.727 I-62.345 J37.534
N5280 G02 X-199.476 Y-266.119 I56.854 J600.227
N5285 G01 X-181.331 Y-257.706
N5290 G02 X-223.397 Y-130.25 I528.831 J245.206
N5295 G01 X-733.293
N5300 G03 X295.71 Y-683.549 I733.293 J130.25
N5305 X305.411 Y-593.892 I-75.756 J53.55
N5310 G02 X-181.331 Y-257.706 I42.089 J581.392
N5315 G01 X-163.187 Y-249.293
N5320 G02 X-206.861 Y-110.25 I510.687 J236.793
N5325 G01 X-756.782
N5330 G03 X308.557 Y-699.762 I756.782 J110.25
N5335 X318.209 Y-574.651 I-88.603 J69.763
N5340 G02 X-163.187 Y-249.293 I29.291 J562.151
N5345 G01 X-145.042 Y-240.88
N5350 G02 X-189.818 Y-90.25 I492.542 J228.38
N5355 G01 X-779.564
N5360 G03 X321.013 Y-716.111 I779.564 J90.25
N5365 X329.595 Y-555.118 I-101.059 J86.113
N5370 G02 X-145.042 Y-240.88 I17.905 J542.618
N5375 G01 X-126.898 Y-232.466
N5380 G02 X-172.215 Y-70.25 I474.398 J219.966
N5385 G01 X-801.698
N5390 G03 X333.179 Y-732.562 I801.698 J70.25
N5395 X339.88 Y-535.358 I-113.225 J102.564
N5400 G02 X-126.898 Y-232.466 I7.62 J522.858
N5405 G01 X-108.753 Y-224.053
N5410 G02 X-152.821 Y-63.504 I456.253 J211.553
N5415 G03 X-167.495 Y-50.25 I-14.674 J-1.496
N5420 G01 X-807.408
N5425 G03 X-822.111 Y-66.184 I0 J-14.75
N5430 X342.458 Y-750.313 I822.111 J66.184
N5435 X347.196 Y-746.872 I-6.124 J13.418
N5440 X353.855 Y-520.818 I-127.242 J116.873
N5445 X342.568 Y-515.389 I-11.432 J-9.321
N5450 G02 X-152.821 Y-63.504 I4.932 J502.889
N5455 G03 X-167.495 Y-50.25 I-14.674 J-1.496
N5460 G01 X-807.408
N5465 G03 X-822.111 Y-66.184 I0 J-14.75
N5470 X342.458 Y-750.313 I822.111 J66.184
N5475 X347.196 Y-746.872 I-6.124 J13.418
N5480 X353.855 Y-520.818 I-127.242 J116.873
N5485 X342.568 Y-515.389 I-11.432 J-9.321
N5490 G02 X-108.753 Y-224.053 I4.932 J502.889
N5495 G00 Z402.5
N5500 G90 G54 X-380.92 Y-350.25
N5505 Z355.917
N5510 G01 Z331.833 F69.553
N5515 X-390.78 F278.213
N5520 G03 X-370.732 Y-371.405 I390.78 J350.25
N5525 G02 X-380.92 Y-350.25 I718.232 J358.905
N5530 G01 X-362.775 Y-341.837
N5535 G02 X-368.034 Y-330.25 I710.275 J329.337
N5540 G01 X-433.255
N5545 G03 X-297.378 Y-456.444 I433.255 J330.25
N5550 G02 X-362.775 Y-341.837 I644.878 J443.944
N5555 G01 X-344.631 Y-333.424
N5560 G02 X-354.912 Y-310.25 I692.131 J320.924
N5565 G01 X-471.922
N5570 G03 X-223.207 Y-518.791 I471.922 J310.25
N5575 G02 X-344.631 Y-333.424 I570.707 J506.291
N5580 G01 X-326.486 Y-325.011
N5585 G02 X-341.54 Y-290.25 I673.986 J312.511
N5590 G01 X-507.653
N5595 G03 X-148.477 Y-565.607 I507.653 J290.25
N5600 G02 X-326.486 Y-325.011 I495.977 J553.107
N5605 G01 X-308.342 Y-316.598
N5610 G02 X-327.903 Y-270.25 I655.842 J304.098
N5615 G01 X-541.029
N5620 G03 X-73.312 Y-600.31 I541.029 J270.25
N5625 G02 X-308.342 Y-316.598 I420.812 J587.81
N5630 G01 X-290.198 Y-308.184
N5635 G02 X-313.985 Y-250.25 I637.698 J295.684
N5640 G01 X-572.462
N5645 G03 X2.221 Y-624.766 I572.462 J250.25
N5650 G02 X-290.198 Y-308.184 I345.279 J612.266
N5655 G01 X-272.053 Y-299.771
N5660 G02 X-299.768 Y-230.25 I619.553 J287.271
N5665 G01 X-602.257
N5670 G03 X78.086 Y-640.025 I602.257 J230.25
N5675 G02 X-272.053 Y-299.771 I269.414 J627.525
N5680 G01 X-253.909 Y-291.358
N5685 G02 X-285.232 Y-210.25 I601.409 J278.858
N5690 G01 X-630.646
N5695 G03 X154.262 Y-646.624 I630.646 J210.25
N5700 G02 X-253.909 Y-291.358 I193.238 J634.124
N5705 G01 X-235.764 Y-282.945
N5710 G02 X-270.353 Y-190.25 I583.264 J270.445
N5715 G01 X-657.811
N5720 G03 X230.744 Y-644.723 I657.811 J190.25
N5725 G02 X-235.764 Y-282.945 I116.756 J632.223
N5730 G01 X-217.62 Y-274.532
N5735 G02 X-255.108 Y-170.25 I565.12 J262.032
N5740 G01 X-683.898
N5745 G03 X267.999 Y-651.826 I683.898 J170.25
N5750 X272.718 Y-630.908 I-48.046 J21.828
N5755 G02 X-217.62 Y-274.532 I74.782 J618.408
N5760 G01 X-199.476 Y-266.119
N5765 G02 X-239.467 Y-150.25 I546.976 J253.619
N5770 G01 X-709.025
N5775 G03 X282.299 Y-667.532 I709.025 J150.25
N5780 X290.646 Y-612.727 I-62.345 J37.534
N5785 G02 X-199.476 Y-266.119 I56.854 J600.227
N5790 G01 X-181.331 Y-257.706
N5795 G02 X-223.397 Y-130.25 I528.831 J245.206
N5800 G01 X-733.293
